.claude/skills/youtube-edit/luts/bw_high_contrast.cube
# B&W High Contrast
# Generated for the youtube-edit skill — CC0
LUT_3D_SIZE 5
0.000000 0.000000 0.000000
0.039291 0.039291 0.039291
0.082697 0.082697 0.082697
0.130044 0.130044 0.130044
0.181052 0.181052 0.181052
0.148209 0.148209 0.148209
0.200458 0.200458 0.200458
0.255820 0.255820 0.255820
0.313790 0.313790 0.313790
0.373791 0.373791 0.373791
0.335432 0.335432 0.335432
0.396016 0.396016 0.396016
0.457755 0.457755 0.457755
0.519966 0.519966 0.519966
0.581953 0.581953 0.581953
0.542596 0.542596 0.542596
0.604330 0.604330 0.604330
0.664906 0.664906 0.664906
0.723673 0.723673 0.723673
0.780032 0.780032 0.780032
0.744500 0.744500 0.744500
0.799846 0.799846 0.799846
0.852077 0.852077 0.852077
0.900774 0.900774 0.900774
0.945618 0.945618 0.945618
0.012876 0.012876 0.012876
0.053577 0.053577 0.053577
0.098346 0.098346 0.098346
0.146973 0.146973 0.146973
0.199141 0.199141 0.199141
0.165576 0.165576 0.165576
0.218934 0.218934 0.218934
0.275242 0.275242 0.275242
0.333970 0.333970 0.333970
0.394518 0.394518 0.394518
0.355836 0.355836 0.355836
0.416887 0.416887 0.416887
0.478864 0.478864 0.478864
0.541077 0.541077 0.541077
0.602831 0.602831 0.602831
0.563649 0.563649 0.563649
0.625065 0.625065 0.625065
0.685098 0.685098 0.685098
0.743111 0.743111 0.743111
0.798528 0.798528 0.798528
0.763615 0.763615 0.763615
0.817956 0.817956 0.817956
0.869029 0.869029 0.869029
0.916448 0.916448 0.916448
0.959930 0.959930 0.959930
0.026234 0.026234 0.026234
0.068333 0.068333 0.068333
0.114441 0.114441 0.114441
0.164312 0.164312 0.164312
0.217592 0.217592 0.217592
0.183336 0.183336 0.183336
0.237751 0.237751 0.237751
0.294944 0.294944 0.294944
0.354360 0.354360 0.354360
0.415380 0.415380 0.415380
0.376423 0.376423 0.376423
0.437865 0.437865 0.437865
0.500000 0.500000 0.500000
0.562135 0.562135 0.562135
0.623577 0.623577 0.623577
0.584620 0.584620 0.584620
0.645640 0.645640 0.645640
0.705056 0.705056 0.705056
0.762249 0.762249 0.762249
0.816664 0.816664 0.816664
0.782408 0.782408 0.782408
0.835688 0.835688 0.835688
0.885559 0.885559 0.885559
0.931667 0.931667 0.931667
0.973766 0.973766 0.973766
0.040070 0.040070 0.040070
0.083552 0.083552 0.083552
0.130971 0.130971 0.130971
0.182044 0.182044 0.182044
0.236385 0.236385 0.236385
0.201472 0.201472 0.201472
0.256889 0.256889 0.256889
0.314902 0.314902 0.314902
0.374935 0.374935 0.374935
0.436351 0.436351 0.436351
0.397169 0.397169 0.397169
0.458923 0.458923 0.458923
0.521136 0.521136 0.521136
0.583113 0.583113 0.583113
0.644164 0.644164 0.644164
0.605482 0.605482 0.605482
0.666030 0.666030 0.666030
0.724758 0.724758 0.724758
0.781066 0.781066 0.781066
0.834424 0.834424 0.834424
0.800859 0.800859 0.800859
0.853027 0.853027 0.853027
0.901654 0.901654 0.901654
0.946423 0.946423 0.946423
0.987124 0.987124 0.987124
0.054382 0.054382 0.054382
0.099226 0.099226 0.099226
0.147923 0.147923 0.147923
0.200154 0.200154 0.200154
0.255500 0.255500 0.255500
0.219968 0.219968 0.219968
0.276327 0.276327 0.276327
0.335094 0.335094 0.335094
0.395670 0.395670 0.395670
0.457404 0.457404 0.457404
0.418047 0.418047 0.418047
0.480034 0.480034 0.480034
0.542245 0.542245 0.542245
0.603984 0.603984 0.603984
0.664568 0.664568 0.664568
0.626209 0.626209 0.626209
0.686210 0.686210 0.686210
0.744180 0.744180 0.744180
0.799542 0.799542 0.799542
0.851791 0.851791 0.851791
0.818948 0.818948 0.818948
0.869956 0.869956 0.869956
0.917303 0.917303 0.917303
0.960709 0.960709 0.960709
1.000000 1.000000 1.000000
