.claude/skills/youtube-edit/luts/bw_high_contrast.cube
# B&W High Contrast
# Generated for the youtube-edit skill — CC0
LUT_3D_SIZE 9
0.000000 0.000000 0.000000
0.019125 0.019125 0.019125
0.039291 0.039291 0.039291
0.060488 0.060488 0.060488
0.082697 0.082697 0.082697
0.105893 0.105893 0.105893
0.130044 0.130044 0.130044
0.155112 0.155112 0.155112
0.181052 0.181052 0.181052
0.068457 0.068457 0.068457
0.091029 0.091029 0.091029
0.114577 0.114577 0.114577
0.139067 0.139067 0.139067
0.164458 0.164458 0.164458
0.190702 0.190702 0.190702
0.217746 0.217746 0.217746
0.245533 0.245533 0.245533
0.273996 0.273996 0.273996
0.148209 0.148209 0.148209
0.173916 0.173916 0.173916
0.200458 0.200458 0.200458
0.227780 0.227780 0.227780
0.255820 0.255820 0.255820
0.284514 0.284514 0.284514
0.313790 0.313790 0.313790
0.343575 0.343575 0.343575
0.373791 0.373791 0.373791
0.237909 0.237909 0.237909
0.266195 0.266195 0.266195
0.295109 0.295109 0.295109
0.324579 0.324579 0.324579
0.354530 0.354530 0.354530
0.384882 0.384882 0.384882
0.415554 0.415554 0.415554
0.446461 0.446461 0.446461
0.477518 0.477518 0.477518
0.335432 0.335432 0.335432
0.365538 0.365538 0.365538
0.396016 0.396016 0.396016
0.426783 0.426783 0.426783
0.457755 0.457755 0.457755
0.488845 0.488845 0.488845
0.519966 0.519966 0.519966
0.551031 0.551031 0.551031
0.581953 0.581953 0.581953
0.438040 0.438040 0.438040
0.469064 0.469064 0.469064
0.500176 0.500176 0.500176
0.531287 0.531287 0.531287
0.562310 0.562310 0.562310
0.593159 0.593159 0.593159
0.623749 0.623749 0.623749
0.653995 0.653995 0.653995
0.683818 0.683818 0.683818
0.542596 0.542596 0.542596
0.573566 0.573566 0.573566
0.604330 0.604330 0.604330
0.634804 0.634804 0.634804
0.664906 0.664906 0.664906
0.694554 0.694554 0.694554
0.723673 0.723673 0.723673
0.752189 0.752189 0.752189
0.780032 0.780032 0.780032
0.645811 0.645811 0.645811
0.675756 0.675756 0.675756
0.705221 0.705221 0.705221
0.734128 0.734128 0.734128
0.762407 0.762407 0.762407
0.789989 0.789989 0.789989
0.816813 0.816813 0.816813
0.842821 0.842821 0.842821
0.867961 0.867961 0.867961
0.744500 0.744500 0.744500
0.772533 0.772533 0.772533
0.799846 0.799846 0.799846
0.826379 0.826379 0.826379
0.852077 0.852077 0.852077
0.876889 0.876889 0.876889
0.900774 0.900774 0.900774
0.923693 0.923693 0.923693
0.945618 0.945618 0.945618
0.006378 0.006378 0.006378
0.025857 0.025857 0.025857
0.046375 0.046375 0.046375
0.067918 0.067918 0.067918
0.090465 0.090465 0.090465
0.113990 0.113990 0.113990
0.138457 0.138457 0.138457
0.163826 0.163826 0.163826
0.190050 0.190050 0.190050
0.076011 0.076011 0.076011
0.098918 0.098918 0.098918
0.122790 0.122790 0.122790
0.147591 0.147591 0.147591
0.173277 0.173277 0.173277
0.199799 0.199799 0.199799
0.227103 0.227103 0.227103
0.255126 0.255126 0.255126
0.283805 0.283805 0.283805
0.156842 0.156842 0.156842
0.182839 0.182839 0.182839
0.209652 0.209652 0.209652
0.237225 0.237225 0.237225
0.265495 0.265495 0.265495
0.294395 0.294395 0.294395
0.323852 0.323852 0.323852
0.353792 0.353792 0.353792
0.384135 0.384135 0.384135
0.247440 0.247440 0.247440
0.275947 0.275947 0.275947
0.305058 0.305058 0.305058
0.334701 0.334701 0.334701
0.364797 0.364797 0.364797
0.395267 0.395267 0.395267
0.426028 0.426028 0.426028
0.456995 0.456995 0.456995
0.488083 0.488083 0.488083
0.345609 0.345609 0.345609
0.375851 0.375851 0.375851
0.406436 0.406436 0.406436
0.437283 0.437283 0.437283
0.468304 0.468304 0.468304
0.499414 0.499414 0.499414
0.530526 0.530526 0.530526
0.561553 0.561553 0.561553
0.592407 0.592407 0.592407
0.448561 0.448561 0.448561
0.479625 0.479625 0.479625
0.510746 0.510746 0.510746
0.541836 0.541836 0.541836
0.572810 0.572810 0.572810
0.603581 0.603581 0.603581
0.634063 0.634063 0.634063
0.664175 0.664175 0.664175
0.693835 0.693835 0.693835
0.553131 0.553131 0.553131
0.584041 0.584041 0.584041
0.614716 0.614716 0.614716
0.645073 0.645073 0.645073
0.675029 0.675029 0.675029
0.704506 0.704506 0.704506
0.733428 0.733428 0.733428
0.761723 0.761723 0.761723
0.789324 0.789324 0.789324
0.656029 0.656029 0.656029
0.685820 0.685820 0.685820
0.715104 0.715104 0.715104
0.743806 0.743806 0.743806
0.771855 0.771855 0.771855
0.799187 0.799187 0.799187
0.825740 0.825740 0.825740
0.851458 0.851458 0.851458
0.876293 0.876293 0.876293
0.754097 0.754097 0.754097
0.781892 0.781892 0.781892
0.808947 0.808947 0.808947
0.835202 0.835202 0.835202
0.860605 0.860605 0.860605
0.885107 0.885107 0.885107
0.908667 0.908667 0.908667
0.931252 0.931252 0.931252
0.952833 0.952833 0.952833
0.012876 0.012876 0.012876
0.032709 0.032709 0.032709
0.053577 0.053577 0.053577
0.075464 0.075464 0.075464
0.098346 0.098346 0.098346
0.122195 0.122195 0.122195
0.146973 0.146973 0.146973
0.172639 0.172639 0.172639
0.199141 0.199141 0.199141
0.083680 0.083680 0.083680
0.106919 0.106919 0.106919
0.131110 0.131110 0.131110
0.156217 0.156217 0.156217
0.182193 0.182193 0.182193
0.208987 0.208987 0.208987
0.236542 0.236542 0.236542
0.264796 0.264796 0.264796
0.293681 0.293681 0.293681
0.165576 0.165576 0.165576
0.191856 0.191856 0.191856
0.218934 0.218934 0.218934
0.246751 0.246751 0.246751
0.275242 0.275242 0.275242
0.304340 0.304340 0.304340
0.333970 0.333970 0.333970
0.364056 0.364056 0.364056
0.394518 0.394518 0.394518
0.257049 0.257049 0.257049
0.285769 0.285769 0.285769
0.315069 0.315069 0.315069
0.344874 0.344874 0.344874
0.375107 0.375107 0.375107
0.405685 0.405685 0.405685
0.436526 0.436526 0.436526
0.467544 0.467544 0.467544
0.498653 0.498653 0.498653
0.355836 0.355836 0.355836
0.386203 0.386203 0.386203
0.416887 0.416887 0.416887
0.447802 0.447802 0.447802
0.478864 0.478864 0.478864
0.509984 0.509984 0.509984
0.541077 0.541077 0.541077
0.572055 0.572055 0.572055
0.602831 0.602831 0.602831
0.459098 0.459098 0.459098
0.490191 0.490191 0.490191
0.521312 0.521312 0.521312
0.552373 0.552373 0.552373
0.583287 0.583287 0.583287
0.613969 0.613969 0.613969
0.644335 0.644335 0.644335
0.674302 0.674302 0.674302
0.703792 0.703792 0.703792
0.563649 0.563649 0.563649
0.594489 0.594489 0.594489
0.625065 0.625065 0.625065
0.655295 0.655295 0.655295
0.685098 0.685098 0.685098
0.714394 0.714394 0.714394
0.743111 0.743111 0.743111
0.771178 0.771178 0.771178
0.798528 0.798528 0.798528
0.666199 0.666199 0.666199
0.695826 0.695826 0.695826
0.724920 0.724920 0.724920
0.753408 0.753408 0.753408
0.781221 0.781221 0.781221
0.808295 0.808295 0.808295
0.834570 0.834570 0.834570
0.859994 0.859994 0.859994
0.884518 0.884518 0.884518
0.763615 0.763615 0.763615
0.791166 0.791166 0.791166
0.817956 0.817956 0.817956
0.843927 0.843927 0.843927
0.869029 0.869029 0.869029
0.893215 0.893215 0.893215
0.916448 0.916448 0.916448
0.938695 0.938695 0.938695
0.959930 0.959930 0.959930
0.019495 0.019495 0.019495
0.039681 0.039681 0.039681
0.060896 0.060896 0.060896
0.083124 0.083124 0.083124
0.106339 0.106339 0.106339
0.130508 0.130508 0.130508
0.155592 0.155592 0.155592
0.181548 0.181548 0.181548
0.208322 0.208322 0.208322
0.091463 0.091463 0.091463
0.115029 0.115029 0.115029
0.139536 0.139536 0.139536
0.164944 0.164944 0.164944
0.191203 0.191203 0.191203
0.218263 0.218263 0.218263
0.246062 0.246062 0.246062
0.274538 0.274538 0.274538
0.303621 0.303621 0.303621
0.174408 0.174408 0.174408
0.200965 0.200965 0.200965
0.228301 0.228301 0.228301
0.256354 0.256354 0.256354
0.285060 0.285060 0.285060
0.314346 0.314346 0.314346
0.344140 0.344140 0.344140
0.374363 0.374363 0.374363
0.404933 0.404933 0.404933
0.266733 0.266733 0.266733
0.295658 0.295658 0.295658
0.325138 0.325138 0.325138
0.355097 0.355097 0.355097
0.385456 0.385456 0.385456
0.416133 0.416133 0.416133
0.447044 0.447044 0.447044
0.478103 0.478103 0.478103
0.509223 0.509223 0.509223
0.366108 0.366108 0.366108
0.396592 0.396592 0.396592
0.427364 0.427364 0.427364
0.458339 0.458339 0.458339
0.489430 0.489430 0.489430
0.520551 0.520551 0.520551
0.551614 0.551614 0.551614
0.582533 0.582533 0.582533
0.613222 0.613222 0.613222
0.469649 0.469649 0.469649
0.500761 0.500761 0.500761
0.531871 0.531871 0.531871
0.562892 0.562892 0.562892
0.593737 0.593737 0.593737
0.624321 0.624321 0.624321
0.654560 0.654560 0.654560
0.684374 0.684374 0.684374
0.713685 0.713685 0.713685
0.574147 0.574147 0.574147
0.604906 0.604906 0.604906
0.635374 0.635374 0.635374
0.665468 0.665468 0.665468
0.695107 0.695107 0.695107
0.724215 0.724215 0.724215
0.752719 0.752719 0.752719
0.780549 0.780549 0.780549
0.807642 0.807642 0.807642
0.676315 0.676315 0.676315
0.705770 0.705770 0.705770
0.734666 0.734666 0.734666
0.762933 0.762933 0.762933
0.790501 0.790501 0.790501
0.817310 0.817310 0.817310
0.843302 0.843302 0.843302
0.868425 0.868425 0.868425
0.892635 0.892635 0.892635
0.773053 0.773053 0.773053
0.800353 0.800353 0.800353
0.826870 0.826870 0.826870
0.852552 0.852552 0.852552
0.877347 0.877347 0.877347
0.901214 0.901214 0.901214
0.924115 0.924115 0.924115
0.946021 0.946021 0.946021
0.966908 0.966908 0.966908
0.026234 0.026234 0.026234
0.046771 0.046771 0.046771
0.068333 0.068333 0.068333
0.090899 0.090899 0.090899
0.114441 0.114441 0.114441
0.138926 0.138926 0.138926
0.164312 0.164312 0.164312
0.190551 0.190551 0.190551
0.217592 0.217592 0.217592
0.099358 0.099358 0.099358
0.123248 0.123248 0.123248
0.148066 0.148066 0.148066
0.173768 0.173768 0.173768
0.200306 0.200306 0.200306
0.227624 0.227624 0.227624
0.255660 0.255660 0.255660
0.284350 0.284350 0.284350
0.313624 0.313624 0.313624
0.183336 0.183336 0.183336
0.210164 0.210164 0.210164
0.237751 0.237751 0.237751
0.266033 0.266033 0.266033
0.294944 0.294944 0.294944
0.324411 0.324411 0.324411
0.354360 0.354360 0.354360
0.384710 0.384710 0.384710
0.415380 0.415380 0.415380
0.276490 0.276490 0.276490
0.305611 0.305611 0.305611
0.335263 0.335263 0.335263
0.365367 0.365367 0.365367
0.395843 0.395843 0.395843
0.426609 0.426609 0.426609
0.457579 0.457579 0.457579
0.488669 0.488669 0.488669
0.519790 0.519790 0.519790
0.376423 0.376423 0.376423
0.407015 0.407015 0.407015
0.437865 0.437865 0.437865
0.468889 0.468889 0.468889
0.500000 0.500000 0.500000
0.531111 0.531111 0.531111
0.562135 0.562135 0.562135
0.592985 0.592985 0.592985
0.623577 0.623577 0.623577
0.480210 0.480210 0.480210
0.511331 0.511331 0.511331
0.542421 0.542421 0.542421
0.573391 0.573391 0.573391
0.604157 0.604157 0.604157
0.634633 0.634633 0.634633
0.664737 0.664737 0.664737
0.694389 0.694389 0.694389
0.723510 0.723510 0.723510
0.584620 0.584620 0.584620
0.615290 0.615290 0.615290
0.645640 0.645640 0.645640
0.675589 0.675589 0.675589
0.705056 0.705056 0.705056
0.733967 0.733967 0.733967
0.762249 0.762249 0.762249
0.789836 0.789836 0.789836
0.816664 0.816664 0.816664
0.686376 0.686376 0.686376
0.715650 0.715650 0.715650
0.744340 0.744340 0.744340
0.772376 0.772376 0.772376
0.799694 0.799694 0.799694
0.826232 0.826232 0.826232
0.851934 0.851934 0.851934
0.876752 0.876752 0.876752
0.900642 0.900642 0.900642
0.782408 0.782408 0.782408
0.809449 0.809449 0.809449
0.835688 0.835688 0.835688
0.861074 0.861074 0.861074
0.885559 0.885559 0.885559
0.909101 0.909101 0.909101
0.931667 0.931667 0.931667
0.953229 0.953229 0.953229
0.973766 0.973766 0.973766
0.033092 0.033092 0.033092
0.053979 0.053979 0.053979
0.075885 0.075885 0.075885
0.098786 0.098786 0.098786
0.122653 0.122653 0.122653
0.147448 0.147448 0.147448
0.173130 0.173130 0.173130
0.199647 0.199647 0.199647
0.226947 0.226947 0.226947
0.107365 0.107365 0.107365
0.131575 0.131575 0.131575
0.156698 0.156698 0.156698
0.182690 0.182690 0.182690
0.209499 0.209499 0.209499
0.237067 0.237067 0.237067
0.265334 0.265334 0.265334
0.294230 0.294230 0.294230
0.323685 0.323685 0.323685
0.192358 0.192358 0.192358
0.219451 0.219451 0.219451
0.247281 0.247281 0.247281
0.275785 0.275785 0.275785
0.304893 0.304893 0.304893
0.334532 0.334532 0.334532
0.364626 0.364626 0.364626
0.395094 0.395094 0.395094
0.425853 0.425853 0.425853
0.286315 0.286315 0.286315
0.315626 0.315626 0.315626
0.345440 0.345440 0.345440
0.375679 0.375679 0.375679
0.406263 0.406263 0.406263
0.437108 0.437108 0.437108
0.468129 0.468129 0.468129
0.499239 0.499239 0.499239
0.530351 0.530351 0.530351
0.386778 0.386778 0.386778
0.417467 0.417467 0.417467
0.448386 0.448386 0.448386
0.479449 0.479449 0.479449
0.510570 0.510570 0.510570
0.541661 0.541661 0.541661
0.572636 0.572636 0.572636
0.603408 0.603408 0.603408
0.633892 0.633892 0.633892
0.490777 0.490777 0.490777
0.521897 0.521897 0.521897
0.552956 0.552956 0.552956
0.583867 0.583867 0.583867
0.614544 0.614544 0.614544
0.644903 0.644903 0.644903
0.674862 0.674862 0.674862
0.704342 0.704342 0.704342
0.733267 0.733267 0.733267
0.595067 0.595067 0.595067
0.625637 0.625637 0.625637
0.655860 0.655860 0.655860
0.685654 0.685654 0.685654
0.714940 0.714940 0.714940
0.743646 0.743646 0.743646
0.771699 0.771699 0.771699
0.799035 0.799035 0.799035
0.825592 0.825592 0.825592
0.696379 0.696379 0.696379
0.725462 0.725462 0.725462
0.753938 0.753938 0.753938
0.781737 0.781737 0.781737
0.808797 0.808797 0.808797
0.835056 0.835056 0.835056
0.860464 0.860464 0.860464
0.884971 0.884971 0.884971
0.908537 0.908537 0.908537
0.791678 0.791678 0.791678
0.818452 0.818452 0.818452
0.844408 0.844408 0.844408
0.869492 0.869492 0.869492
0.893661 0.893661 0.893661
0.916876 0.916876 0.916876
0.939104 0.939104 0.939104
0.960319 0.960319 0.960319
0.980505 0.980505 0.980505
0.040070 0.040070 0.040070
0.061305 0.061305 0.061305
0.083552 0.083552 0.083552
0.106785 0.106785 0.106785
0.130971 0.130971 0.130971
0.156073 0.156073 0.156073
0.182044 0.182044 0.182044
0.208834 0.208834 0.208834
0.236385 0.236385 0.236385
0.115482 0.115482 0.115482
0.140006 0.140006 0.140006
0.165430 0.165430 0.165430
0.191705 0.191705 0.191705
0.218779 0.218779 0.218779
0.246592 0.246592 0.246592
0.275080 0.275080 0.275080
0.304174 0.304174 0.304174
0.333801 0.333801 0.333801
0.201472 0.201472 0.201472
0.228822 0.228822 0.228822
0.256889 0.256889 0.256889
0.285606 0.285606 0.285606
0.314902 0.314902 0.314902
0.344705 0.344705 0.344705
0.374935 0.374935 0.374935
0.405511 0.405511 0.405511
0.436351 0.436351 0.436351
0.296208 0.296208 0.296208
0.325698 0.325698 0.325698
0.355665 0.355665 0.355665
0.386031 0.386031 0.386031
0.416713 0.416713 0.416713
0.447627 0.447627 0.447627
0.478688 0.478688 0.478688
0.509809 0.509809 0.509809
0.540902 0.540902 0.540902
0.397169 0.397169 0.397169
0.427945 0.427945 0.427945
0.458923 0.458923 0.458923
0.490016 0.490016 0.490016
0.521136 0.521136 0.521136
0.552198 0.552198 0.552198
0.583113 0.583113 0.583113
0.613797 0.613797 0.613797
0.644164 0.644164 0.644164
0.501347 0.501347 0.501347
0.532456 0.532456 0.532456
0.563474 0.563474 0.563474
0.594315 0.594315 0.594315
0.624893 0.624893 0.624893
0.655126 0.655126 0.655126
0.684931 0.684931 0.684931
0.714231 0.714231 0.714231
0.742951 0.742951 0.742951
0.605482 0.605482 0.605482
0.635944 0.635944 0.635944
0.666030 0.666030 0.666030
0.695660 0.695660 0.695660
0.724758 0.724758 0.724758
0.753249 0.753249 0.753249
0.781066 0.781066 0.781066
0.808144 0.808144 0.808144
0.834424 0.834424 0.834424
0.706319 0.706319 0.706319
0.735204 0.735204 0.735204
0.763458 0.763458 0.763458
0.791013 0.791013 0.791013
0.817807 0.817807 0.817807
0.843783 0.843783 0.843783
0.868890 0.868890 0.868890
0.893081 0.893081 0.893081
0.916320 0.916320 0.916320
0.800859 0.800859 0.800859
0.827361 0.827361 0.827361
0.853027 0.853027 0.853027
0.877805 0.877805 0.877805
0.901654 0.901654 0.901654
0.924536 0.924536 0.924536
0.946423 0.946423 0.946423
0.967291 0.967291 0.967291
0.987124 0.987124 0.987124
0.047167 0.047167 0.047167
0.068748 0.068748 0.068748
0.091333 0.091333 0.091333
0.114893 0.114893 0.114893
0.139395 0.139395 0.139395
0.164798 0.164798 0.164798
0.191053 0.191053 0.191053
0.218108 0.218108 0.218108
0.245903 0.245903 0.245903
0.123707 0.123707 0.123707
0.148542 0.148542 0.148542
0.174260 0.174260 0.174260
0.200813 0.200813 0.200813
0.228145 0.228145 0.228145
0.256194 0.256194 0.256194
0.284896 0.284896 0.284896
0.314180 0.314180 0.314180
0.343971 0.343971 0.343971
0.210676 0.210676 0.210676
0.238277 0.238277 0.238277
0.266572 0.266572 0.266572
0.295494 0.295494 0.295494
0.324971 0.324971 0.324971
0.354927 0.354927 0.354927
0.385284 0.385284 0.385284
0.415959 0.415959 0.415959
0.446869 0.446869 0.446869
0.306165 0.306165 0.306165
0.335825 0.335825 0.335825
0.365937 0.365937 0.365937
0.396419 0.396419 0.396419
0.427190 0.427190 0.427190
0.458164 0.458164 0.458164
0.489254 0.489254 0.489254
0.520375 0.520375 0.520375
0.551439 0.551439 0.551439
0.407593 0.407593 0.407593
0.438447 0.438447 0.438447
0.469474 0.469474 0.469474
0.500586 0.500586 0.500586
0.531696 0.531696 0.531696
0.562717 0.562717 0.562717
0.593564 0.593564 0.593564
0.624149 0.624149 0.624149
0.654391 0.654391 0.654391
0.511917 0.511917 0.511917
0.543005 0.543005 0.543005
0.573972 0.573972 0.573972
0.604733 0.604733 0.604733
0.635203 0.635203 0.635203
0.665299 0.665299 0.665299
0.694942 0.694942 0.694942
0.724053 0.724053 0.724053
0.752560 0.752560 0.752560
0.615865 0.615865 0.615865
0.646208 0.646208 0.646208
0.676148 0.676148 0.676148
0.705605 0.705605 0.705605
0.734505 0.734505 0.734505
0.762775 0.762775 0.762775
0.790348 0.790348 0.790348
0.817161 0.817161 0.817161
0.843158 0.843158 0.843158
0.716195 0.716195 0.716195
0.744874 0.744874 0.744874
0.772897 0.772897 0.772897
0.800201 0.800201 0.800201
0.826723 0.826723 0.826723
0.852409 0.852409 0.852409
0.877210 0.877210 0.877210
0.901082 0.901082 0.901082
0.923989 0.923989 0.923989
0.809950 0.809950 0.809950
0.836174 0.836174 0.836174
0.861543 0.861543 0.861543
0.886010 0.886010 0.886010
0.909535 0.909535 0.909535
0.932082 0.932082 0.932082
0.953625 0.953625 0.953625
0.974143 0.974143 0.974143
0.993622 0.993622 0.993622
0.054382 0.054382 0.054382
0.076307 0.076307 0.076307
0.099226 0.099226 0.099226
0.123111 0.123111 0.123111
0.147923 0.147923 0.147923
0.173621 0.173621 0.173621
0.200154 0.200154 0.200154
0.227467 0.227467 0.227467
0.255500 0.255500 0.255500
0.132039 0.132039 0.132039
0.157179 0.157179 0.157179
0.183187 0.183187 0.183187
0.210011 0.210011 0.210011
0.237593 0.237593 0.237593
0.265872 0.265872 0.265872
0.294779 0.294779 0.294779
0.324244 0.324244 0.324244
0.354189 0.354189 0.354189
0.219968 0.219968 0.219968
0.247811 0.247811 0.247811
0.276327 0.276327 0.276327
0.305446 0.305446 0.305446
0.335094 0.335094 0.335094
0.365196 0.365196 0.365196
0.395670 0.395670 0.395670
0.426434 0.426434 0.426434
0.457404 0.457404 0.457404
0.316182 0.316182 0.316182
0.346005 0.346005 0.346005
0.376251 0.376251 0.376251
0.406841 0.406841 0.406841
0.437690 0.437690 0.437690
0.468713 0.468713 0.468713
0.499824 0.499824 0.499824
0.530936 0.530936 0.530936
0.561960 0.561960 0.561960
0.418047 0.418047 0.418047
0.448969 0.448969 0.448969
0.480034 0.480034 0.480034
0.511155 0.511155 0.511155
0.542245 0.542245 0.542245
0.573217 0.573217 0.573217
0.603984 0.603984 0.603984
0.634462 0.634462 0.634462
0.664568 0.664568 0.664568
0.522482 0.522482 0.522482
0.553539 0.553539 0.553539
0.584446 0.584446 0.584446
0.615118 0.615118 0.615118
0.645470 0.645470 0.645470
0.675421 0.675421 0.675421
0.704891 0.704891 0.704891
0.733805 0.733805 0.733805
0.762091 0.762091 0.762091
0.626209 0.626209 0.626209
0.656425 0.656425 0.656425
0.686210 0.686210 0.686210
0.715486 0.715486 0.715486
0.744180 0.744180 0.744180
0.772220 0.772220 0.772220
0.799542 0.799542 0.799542
0.826084 0.826084 0.826084
0.851791 0.851791 0.851791
0.726004 0.726004 0.726004
0.754467 0.754467 0.754467
0.782254 0.782254 0.782254
0.809298 0.809298 0.809298
0.835542 0.835542 0.835542
0.860933 0.860933 0.860933
0.885423 0.885423 0.885423
0.908971 0.908971 0.908971
0.931543 0.931543 0.931543
0.818948 0.818948 0.818948
0.844888 0.844888 0.844888
0.869956 0.869956 0.869956
0.894107 0.894107 0.894107
0.917303 0.917303 0.917303
0.939512 0.939512 0.939512
0.960709 0.960709 0.960709
0.980875 0.980875 0.980875
1.000000 1.000000 1.000000
