.claude/skills/youtube-edit/luts/bw_high_contrast.cube
# B&W High Contrast
# Generated for the youtube-edit skill — CC0
LUT_3D_SIZE 17
0.000000 0.000000 0.000000
0.009432 0.009432 0.009432
0.019125 0.019125 0.019125
0.029078 0.029078 0.029078
0.039291 0.039291 0.039291
0.049762 0.049762 0.049762
0.060488 0.060488 0.060488
0.071467 0.071467 0.071467
0.082697 0.082697 0.082697
0.094173 0.094173 0.094173
0.105893 0.105893 0.105893
0.117852 0.117852 0.117852
0.130044 0.130044 0.130044
0.142466 0.142466 0.142466
0.155112 0.155112 0.155112
0.167976 0.167976 0.167976
0.181052 0.181052 0.181052
0.032767 0.032767 0.032767
0.043073 0.043073 0.043073
0.053637 0.053637 0.053637
0.064456 0.064456 0.064456
0.075527 0.075527 0.075527
0.086847 0.086847 0.086847
0.098412 0.098412 0.098412
0.110219 0.110219 0.110219
0.122264 0.122264 0.122264
0.134540 0.134540 0.134540
0.147045 0.147045 0.147045
0.159771 0.159771 0.159771
0.172712 0.172712 0.172712
0.185863 0.185863 0.185863
0.199217 0.199217 0.199217
0.212766 0.212766 0.212766
0.226504 0.226504 0.226504
0.068457 0.068457 0.068457
0.079619 0.079619 0.079619
0.091029 0.091029 0.091029
0.102683 0.102683 0.102683
0.114577 0.114577 0.114577
0.126707 0.126707 0.126707
0.139067 0.139067 0.139067
0.151652 0.151652 0.151652
0.164458 0.164458 0.164458
0.177476 0.177476 0.177476
0.190702 0.190702 0.190702
0.204128 0.204128 0.204128
0.217746 0.217746 0.217746
0.231551 0.231551 0.231551
0.245533 0.245533 0.245533
0.259684 0.259684 0.259684
0.273996 0.273996 0.273996
0.106986 0.106986 0.106986
0.118966 0.118966 0.118966
0.131180 0.131180 0.131180
0.143623 0.143623 0.143623
0.156289 0.156289 0.156289
0.169173 0.169173 0.169173
0.182268 0.182268 0.182268
0.195567 0.195567 0.195567
0.209064 0.209064 0.209064
0.222751 0.222751 0.222751
0.236621 0.236621 0.236621
0.250665 0.250665 0.250665
0.264876 0.264876 0.264876
0.279245 0.279245 0.279245
0.293763 0.293763 0.293763
0.308421 0.308421 0.308421
0.323210 0.323210 0.323210
0.148209 0.148209 0.148209
0.160955 0.160955 0.160955
0.173916 0.173916 0.173916
0.187086 0.187086 0.187086
0.200458 0.200458 0.200458
0.214025 0.214025 0.214025
0.227780 0.227780 0.227780
0.241714 0.241714 0.241714
0.255820 0.255820 0.255820
0.270090 0.270090 0.270090
0.284514 0.284514 0.284514
0.299084 0.299084 0.299084
0.313790 0.313790 0.313790
0.328624 0.328624 0.328624
0.343575 0.343575 0.343575
0.358634 0.358634 0.358634
0.373791 0.373791 0.373791
0.191931 0.191931 0.191931
0.205375 0.205375 0.205375
0.219011 0.219011 0.219011
0.232832 0.232832 0.232832
0.246830 0.246830 0.246830
0.260997 0.260997 0.260997
0.275324 0.275324 0.275324
0.289802 0.289802 0.289802
0.304423 0.304423 0.304423
0.319177 0.319177 0.319177
0.334054 0.334054 0.334054
0.349046 0.349046 0.349046
0.364141 0.364141 0.364141
0.379331 0.379331 0.379331
0.394604 0.394604 0.394604
0.409950 0.409950 0.409950
0.425360 0.425360 0.425360
0.237909 0.237909 0.237909
0.251969 0.251969 0.251969
0.266195 0.266195 0.266195
0.280578 0.280578 0.280578
0.295109 0.295109 0.295109
0.309779 0.309779 0.309779
0.324579 0.324579 0.324579
0.339499 0.339499 0.339499
0.354530 0.354530 0.354530
0.369661 0.369661 0.369661
0.384882 0.384882 0.384882
0.400183 0.400183 0.400183
0.415554 0.415554 0.415554
0.430983 0.430983 0.430983
0.446461 0.446461 0.446461
0.461976 0.461976 0.461976
0.477518 0.477518 0.477518
0.285851 0.285851 0.285851
0.300434 0.300434 0.300434
0.315153 0.315153 0.315153
0.329998 0.329998 0.329998
0.344959 0.344959 0.344959
0.360027 0.360027 0.360027
0.375192 0.375192 0.375192
0.390444 0.390444 0.390444
0.405771 0.405771 0.405771
0.421165 0.421165 0.421165
0.436613 0.436613 0.436613
0.452106 0.452106 0.452106
0.467632 0.467632 0.467632
0.483180 0.483180 0.483180
0.498741 0.498741 0.498741
0.514302 0.514302 0.514302
0.529854 0.529854 0.529854
0.335432 0.335432 0.335432
0.350433 0.350433 0.350433
0.365538 0.365538 0.365538
0.380735 0.380735 0.380735
0.396016 0.396016 0.396016
0.411369 0.411369 0.411369
0.426783 0.426783 0.426783
0.442249 0.442249 0.442249
0.457755 0.457755 0.457755
0.473290 0.473290 0.473290
0.488845 0.488845 0.488845
0.504407 0.504407 0.504407
0.519966 0.519966 0.519966
0.535511 0.535511 0.535511
0.551031 0.551031 0.551031
0.566515 0.566515 0.566515
0.581953 0.581953 0.581953
0.386289 0.386289 0.386289
0.401597 0.401597 0.401597
0.416974 0.416974 0.416974
0.432408 0.432408 0.432408
0.447890 0.447890 0.447890
0.463408 0.463408 0.463408
0.478951 0.478951 0.478951
0.494510 0.494510 0.494510
0.510072 0.510072 0.510072
0.525627 0.525627 0.525627
0.541165 0.541165 0.541165
0.556673 0.556673 0.556673
0.572142 0.572142 0.572142
0.587560 0.587560 0.587560
0.602918 0.602918 0.602918
0.618203 0.618203 0.618203
0.633407 0.633407 0.633407
0.438040 0.438040 0.438040
0.453536 0.453536 0.453536
0.469064 0.469064 0.469064
0.484615 0.484615 0.484615
0.500176 0.500176 0.500176
0.515737 0.515737 0.515737
0.531287 0.531287 0.531287
0.546815 0.546815 0.546815
0.562310 0.562310 0.562310
0.577762 0.577762 0.577762
0.593159 0.593159 0.593159
0.608491 0.608491 0.608491
0.623749 0.623749 0.623749
0.638920 0.638920 0.638920
0.653995 0.653995 0.653995
0.668964 0.668964 0.668964
0.683818 0.683818 0.683818
0.490279 0.490279 0.490279
0.505841 0.505841 0.505841
0.521400 0.521400 0.521400
0.536943 0.536943 0.536943
0.552460 0.552460 0.552460
0.567941 0.567941 0.567941
0.583374 0.583374 0.583374
0.598749 0.598749 0.598749
0.614055 0.614055 0.614055
0.629282 0.629282 0.629282
0.644420 0.644420 0.644420
0.659458 0.659458 0.659458
0.674386 0.674386 0.674386
0.689195 0.689195 0.689195
0.703874 0.703874 0.703874
0.718415 0.718415 0.718415
0.732809 0.732809 0.732809
0.542596 0.542596 0.542596
0.558101 0.558101 0.558101
0.573566 0.573566 0.573566
0.588979 0.588979 0.588979
0.604330 0.604330 0.604330
0.619609 0.619609 0.619609
0.634804 0.634804 0.634804
0.649907 0.649907 0.649907
0.664906 0.664906 0.664906
0.679792 0.679792 0.679792
0.694554 0.694554 0.694554
0.709185 0.709185 0.709185
0.723673 0.723673 0.723673
0.738011 0.738011 0.738011
0.752189 0.752189 0.752189
0.766199 0.766199 0.766199
0.780032 0.780032 0.780032
0.594575 0.594575 0.594575
0.609901 0.609901 0.609901
0.625151 0.625151 0.625151
0.640314 0.640314 0.640314
0.655380 0.655380 0.655380
0.670339 0.670339 0.670339
0.685181 0.685181 0.685181
0.699897 0.699897 0.699897
0.714476 0.714476 0.714476
0.728911 0.728911 0.728911
0.743191 0.743191 0.743191
0.757309 0.757309 0.757309
0.771256 0.771256 0.771256
0.785023 0.785023 0.785023
0.798604 0.798604 0.798604
0.811990 0.811990 0.811990
0.825174 0.825174 0.825174
0.645811 0.645811 0.645811
0.660839 0.660839 0.660839
0.675756 0.675756 0.675756
0.690554 0.690554 0.690554
0.705221 0.705221 0.705221
0.719749 0.719749 0.719749
0.734128 0.734128 0.734128
0.748351 0.748351 0.748351
0.762407 0.762407 0.762407
0.776289 0.776289 0.776289
0.789989 0.789989 0.789989
0.803500 0.803500 0.803500
0.816813 0.816813 0.816813
0.829922 0.829922 0.829922
0.842821 0.842821 0.842821
0.855502 0.855502 0.855502
0.867961 0.867961 0.867961
0.695909 0.695909 0.695909
0.710527 0.710527 0.710527
0.725001 0.725001 0.725001
0.739325 0.739325 0.739325
0.753488 0.753488 0.753488
0.767482 0.767482 0.767482
0.781298 0.781298 0.781298
0.794930 0.794930 0.794930
0.808370 0.808370 0.808370
0.821610 0.821610 0.821610
0.834643 0.834643 0.834643
0.847463 0.847463 0.847463
0.860064 0.860064 0.860064
0.872440 0.872440 0.872440
0.884586 0.884586 0.884586
0.896497 0.896497 0.896497
0.908168 0.908168 0.908168
0.744500 0.744500 0.744500
0.758602 0.758602 0.758602
0.772533 0.772533 0.772533
0.786283 0.786283 0.786283
0.799846 0.799846 0.799846
0.813214 0.813214 0.813214
0.826379 0.826379 0.826379
0.839335 0.839335 0.839335
0.852077 0.852077 0.852077
0.864596 0.864596 0.864596
0.876889 0.876889 0.876889
0.888950 0.888950 0.888950
0.900774 0.900774 0.900774
0.912356 0.912356 0.912356
0.923693 0.923693 0.923693
0.934782 0.934782 0.934782
0.945618 0.945618 0.945618
0.003174 0.003174 0.003174
0.012694 0.012694 0.012694
0.022476 0.022476 0.022476
0.032518 0.032518 0.032518
0.042818 0.042818 0.042818
0.053376 0.053376 0.053376
0.064188 0.064188 0.064188
0.075253 0.075253 0.075253
0.086567 0.086567 0.086567
0.098126 0.098126 0.098126
0.109928 0.109928 0.109928
0.121966 0.121966 0.121966
0.134237 0.134237 0.134237
0.146736 0.146736 0.146736
0.159457 0.159457 0.159457
0.172393 0.172393 0.172393
0.185539 0.185539 0.185539
0.036238 0.036238 0.036238
0.046632 0.046632 0.046632
0.057283 0.057283 0.057283
0.068187 0.068187 0.068187
0.079343 0.079343 0.079343
0.090747 0.090747 0.090747
0.102395 0.102395 0.102395
0.114283 0.114283 0.114283
0.126407 0.126407 0.126407
0.138762 0.138762 0.138762
0.151342 0.151342 0.151342
0.164142 0.164142 0.164142
0.177155 0.177155 0.177155
0.190376 0.190376 0.190376
0.203797 0.203797 0.203797
0.217411 0.217411 0.217411
0.231211 0.231211 0.231211
0.072220 0.072220 0.072220
0.083466 0.083466 0.083466
0.094960 0.094960 0.094960
0.106695 0.106695 0.106695
0.118670 0.118670 0.118670
0.130879 0.130879 0.130879
0.143316 0.143316 0.143316
0.155977 0.155977 0.155977
0.168855 0.168855 0.168855
0.181945 0.181945 0.181945
0.195239 0.195239 0.195239
0.208731 0.208731 0.208731
0.222414 0.222414 0.222414
0.236280 0.236280 0.236280
0.250320 0.250320 0.250320
0.264527 0.264527 0.264527
0.278892 0.278892 0.278892
0.111028 0.111028 0.111028
0.123088 0.123088 0.123088
0.135380 0.135380 0.135380
0.147900 0.147900 0.147900
0.160640 0.160640 0.160640
0.173596 0.173596 0.173596
0.186761 0.186761 0.186761
0.200129 0.200129 0.200129
0.213691 0.213691 0.213691
0.227441 0.227441 0.227441
0.241371 0.241371 0.241371
0.255473 0.255473 0.255473
0.269739 0.269739 0.269739
0.284159 0.284159 0.284159
0.298726 0.298726 0.298726
0.313429 0.313429 0.313429
0.328260 0.328260 0.328260
0.152513 0.152513 0.152513
0.165333 0.165333 0.165333
0.178366 0.178366 0.178366
0.191605 0.191605 0.191605
0.205044 0.205044 0.205044
0.218676 0.218676 0.218676
0.232492 0.232492 0.232492
0.246486 0.246486 0.246486
0.260648 0.260648 0.260648
0.274971 0.274971 0.274971
0.289446 0.289446 0.289446
0.304063 0.304063 0.304063
0.318814 0.318814 0.318814
0.333689 0.333689 0.333689
0.348678 0.348678 0.348678
0.363771 0.363771 0.363771
0.378958 0.378958 0.378958
0.196475 0.196475 0.196475
0.209985 0.209985 0.209985
0.223685 0.223685 0.223685
0.237567 0.237567 0.237567
0.251623 0.251623 0.251623
0.265845 0.265845 0.265845
0.280224 0.280224 0.280224
0.294752 0.294752 0.294752
0.309419 0.309419 0.309419
0.324216 0.324216 0.324216
0.339133 0.339133 0.339133
0.354161 0.354161 0.354161
0.369290 0.369290 0.369290
0.384509 0.384509 0.384509
0.399808 0.399808 0.399808
0.415177 0.415177 0.415177
0.430605 0.430605 0.430605
0.242664 0.242664 0.242664
0.256782 0.256782 0.256782
0.271062 0.271062 0.271062
0.285496 0.285496 0.285496
0.300076 0.300076 0.300076
0.314791 0.314791 0.314791
0.329633 0.329633 0.329633
0.344592 0.344592 0.344592
0.359658 0.359658 0.359658
0.374820 0.374820 0.374820
0.390070 0.390070 0.390070
0.405396 0.405396 0.405396
0.420788 0.420788 0.420788
0.436235 0.436235 0.436235
0.451726 0.451726 0.451726
0.467252 0.467252 0.467252
0.482800 0.482800 0.482800
0.290788 0.290788 0.290788
0.305418 0.305418 0.305418
0.320180 0.320180 0.320180
0.335066 0.335066 0.335066
0.350065 0.350065 0.350065
0.365167 0.365167 0.365167
0.380363 0.380363 0.380363
0.395641 0.395641 0.395641
0.410992 0.410992 0.410992
0.426405 0.426405 0.426405
0.441870 0.441870 0.441870
0.457375 0.457375 0.457375
0.472910 0.472910 0.472910
0.488464 0.488464 0.488464
0.504026 0.504026 0.504026
0.519585 0.519585 0.519585
0.535131 0.535131 0.535131
0.340514 0.340514 0.340514
0.355552 0.355552 0.355552
0.370689 0.370689 0.370689
0.385916 0.385916 0.385916
0.401222 0.401222 0.401222
0.416597 0.416597 0.416597
0.432030 0.432030 0.432030
0.447511 0.447511 0.447511
0.463028 0.463028 0.463028
0.478571 0.478571 0.478571
0.494129 0.494129 0.494129
0.509692 0.509692 0.509692
0.525247 0.525247 0.525247
0.540785 0.540785 0.540785
0.556294 0.556294 0.556294
0.571764 0.571764 0.571764
0.587184 0.587184 0.587184
0.391480 0.391480 0.391480
0.406812 0.406812 0.406812
0.422209 0.422209 0.422209
0.437661 0.437661 0.437661
0.453156 0.453156 0.453156
0.468684 0.468684 0.468684
0.484234 0.484234 0.484234
0.499795 0.499795 0.499795
0.515356 0.515356 0.515356
0.530906 0.530906 0.530906
0.546435 0.546435 0.546435
0.561931 0.561931 0.561931
0.577384 0.577384 0.577384
0.592783 0.592783 0.592783
0.608117 0.608117 0.608117
0.623376 0.623376 0.623376
0.638550 0.638550 0.638550
0.443298 0.443298 0.443298
0.458806 0.458806 0.458806
0.474343 0.474343 0.474343
0.489899 0.489899 0.489899
0.505461 0.505461 0.505461
0.521019 0.521019 0.521019
0.536563 0.536563 0.536563
0.552081 0.552081 0.552081
0.567563 0.567563 0.567563
0.582997 0.582997 0.582997
0.598374 0.598374 0.598374
0.613682 0.613682 0.613682
0.628911 0.628911 0.628911
0.644051 0.644051 0.644051
0.659091 0.659091 0.659091
0.674022 0.674022 0.674022
0.688834 0.688834 0.688834
0.495564 0.495564 0.495564
0.511126 0.511126 0.511126
0.526680 0.526680 0.526680
0.542216 0.542216 0.542216
0.557722 0.557722 0.557722
0.573188 0.573188 0.573188
0.588602 0.588602 0.588602
0.603955 0.603955 0.603955
0.619236 0.619236 0.619236
0.634434 0.634434 0.634434
0.649539 0.649539 0.649539
0.664540 0.664540 0.664540
0.679429 0.679429 0.679429
0.694195 0.694195 0.694195
0.708829 0.708829 0.708829
0.723321 0.723321 0.723321
0.737662 0.737662 0.737662
0.547865 0.547865 0.547865
0.563358 0.563358 0.563358
0.578806 0.578806 0.578806
0.594200 0.594200 0.594200
0.609527 0.609527 0.609527
0.624779 0.624779 0.624779
0.639944 0.639944 0.639944
0.655013 0.655013 0.655013
0.669974 0.669974 0.669974
0.684819 0.684819 0.684819
0.699538 0.699538 0.699538
0.714121 0.714121 0.714121
0.728560 0.728560 0.728560
0.742844 0.742844 0.742844
0.756966 0.756966 0.756966
0.770917 0.770917 0.770917
0.784689 0.784689 0.784689
0.599788 0.599788 0.599788
0.615089 0.615089 0.615089
0.630311 0.630311 0.630311
0.645442 0.645442 0.645442
0.660473 0.660473 0.660473
0.675393 0.675393 0.675393
0.690193 0.690193 0.690193
0.704864 0.704864 0.704864
0.719395 0.719395 0.719395
0.733778 0.733778 0.733778
0.748005 0.748005 0.748005
0.762065 0.762065 0.762065
0.775952 0.775952 0.775952
0.789657 0.789657 0.789657
0.803172 0.803172 0.803172
0.816490 0.816490 0.816490
0.829604 0.829604 0.829604
0.650926 0.650926 0.650926
0.665918 0.665918 0.665918
0.680796 0.680796 0.680796
0.695550 0.695550 0.695550
0.710171 0.710171 0.710171
0.724649 0.724649 0.724649
0.738976 0.738976 0.738976
0.753143 0.753143 0.753143
0.767141 0.767141 0.767141
0.780963 0.780963 0.780963
0.794599 0.794599 0.794599
0.808044 0.808044 0.808044
0.821288 0.821288 0.821288
0.834327 0.834327 0.834327
0.847152 0.847152 0.847152
0.859759 0.859759 0.859759
0.872140 0.872140 0.872140
0.700889 0.700889 0.700889
0.715459 0.715459 0.715459
0.729883 0.729883 0.729883
0.744153 0.744153 0.744153
0.758259 0.758259 0.758259
0.772194 0.772194 0.772194
0.785949 0.785949 0.785949
0.799517 0.799517 0.799517
0.812889 0.812889 0.812889
0.826059 0.826059 0.826059
0.839021 0.839021 0.839021
0.851768 0.851768 0.851768
0.864293 0.864293 0.864293
0.876591 0.876591 0.876591
0.888658 0.888658 0.888658
0.900487 0.900487 0.900487
0.912076 0.912076 0.912076
0.749308 0.749308 0.749308
0.763353 0.763353 0.763353
0.777223 0.777223 0.777223
0.790911 0.790911 0.790911
0.804408 0.804408 0.804408
0.817708 0.817708 0.817708
0.830803 0.830803 0.830803
0.843687 0.843687 0.843687
0.856353 0.856353 0.856353
0.868797 0.868797 0.868797
0.881011 0.881011 0.881011
0.892992 0.892992 0.892992
0.904734 0.904734 0.904734
0.916234 0.916234 0.916234
0.927487 0.927487 0.927487
0.938490 0.938490 0.938490
0.949240 0.949240 0.949240
0.006378 0.006378 0.006378
0.015987 0.015987 0.015987
0.025857 0.025857 0.025857
0.035987 0.035987 0.035987
0.046375 0.046375 0.046375
0.057019 0.057019 0.057019
0.067918 0.067918 0.067918
0.079067 0.079067 0.079067
0.090465 0.090465 0.090465
0.102107 0.102107 0.102107
0.113990 0.113990 0.113990
0.126108 0.126108 0.126108
0.138457 0.138457 0.138457
0.151032 0.151032 0.151032
0.163826 0.163826 0.163826
0.176834 0.176834 0.176834
0.190050 0.190050 0.190050
0.039739 0.039739 0.039739
0.050221 0.050221 0.050221
0.060958 0.060958 0.060958
0.071948 0.071948 0.071948
0.083188 0.083188 0.083188
0.094675 0.094675 0.094675
0.106406 0.106406 0.106406
0.118374 0.118374 0.118374
0.130577 0.130577 0.130577
0.143009 0.143009 0.143009
0.155664 0.155664 0.155664
0.168538 0.168538 0.168538
0.181622 0.181622 0.181622
0.194912 0.194912 0.194912
0.208399 0.208399 0.208399
0.222077 0.222077 0.222077
0.235938 0.235938 0.235938
0.076011 0.076011 0.076011
0.087342 0.087342 0.087342
0.098918 0.098918 0.098918
0.110736 0.110736 0.110736
0.122790 0.122790 0.122790
0.135077 0.135077 0.135077
0.147591 0.147591 0.147591
0.160326 0.160326 0.160326
0.173277 0.173277 0.173277
0.186437 0.186437 0.186437
0.199799 0.199799 0.199799
0.213357 0.213357 0.213357
0.227103 0.227103 0.227103
0.241029 0.241029 0.241029
0.255126 0.255126 0.255126
0.269388 0.269388 0.269388
0.283805 0.283805 0.283805
0.115097 0.115097 0.115097
0.127237 0.127237 0.127237
0.139607 0.139607 0.139607
0.152202 0.152202 0.152202
0.165017 0.165017 0.165017
0.178044 0.178044 0.178044
0.191279 0.191279 0.191279
0.204713 0.204713 0.204713
0.218340 0.218340 0.218340
0.232152 0.232152 0.232152
0.246142 0.246142 0.246142
0.260300 0.260300 0.260300
0.274619 0.274619 0.274619
0.289090 0.289090 0.289090
0.303704 0.303704 0.303704
0.318452 0.318452 0.318452
0.333324 0.333324 0.333324
0.156842 0.156842 0.156842
0.169735 0.169735 0.169735
0.182839 0.182839 0.182839
0.196147 0.196147 0.196147
0.209652 0.209652 0.209652
0.223348 0.223348 0.223348
0.237225 0.237225 0.237225
0.251277 0.251277 0.251277
0.265495 0.265495 0.265495
0.279871 0.279871 0.279871
0.294395 0.294395 0.294395
0.309058 0.309058 0.309058
0.323852 0.323852 0.323852
0.338767 0.338767 0.338767
0.353792 0.353792 0.353792
0.368918 0.368918 0.368918
0.384135 0.384135 0.384135
0.201041 0.201041 0.201041
0.214617 0.214617 0.214617
0.228379 0.228379 0.228379
0.242321 0.242321 0.242321
0.256435 0.256435 0.256435
0.270711 0.270711 0.270711
0.285142 0.285142 0.285142
0.299718 0.299718 0.299718
0.314430 0.314430 0.314430
0.329269 0.329269 0.329269
0.344225 0.344225 0.344225
0.359288 0.359288 0.359288
0.374448 0.374448 0.374448
0.389696 0.389696 0.389696
0.405020 0.405020 0.405020
0.420410 0.420410 0.420410
0.435856 0.435856 0.435856
0.247440 0.247440 0.247440
0.261614 0.261614 0.261614
0.275947 0.275947 0.275947
0.290432 0.290432 0.290432
0.305058 0.305058 0.305058
0.319818 0.319818 0.319818
0.334701 0.334701 0.334701
0.349697 0.349697 0.349697
0.364797 0.364797 0.364797
0.379990 0.379990 0.379990
0.395267 0.395267 0.395267
0.410616 0.410616 0.410616
0.426028 0.426028 0.426028
0.441491 0.441491 0.441491
0.456995 0.456995 0.456995
0.472530 0.472530 0.472530
0.488083 0.488083 0.488083
0.295741 0.295741 0.295741
0.310417 0.310417 0.310417
0.325222 0.325222 0.325222
0.340148 0.340148 0.340148
0.355183 0.355183 0.355183
0.370318 0.370318 0.370318
0.385543 0.385543 0.385543
0.400847 0.400847 0.400847
0.416220 0.416220 0.416220
0.431652 0.431652 0.431652
0.447132 0.447132 0.447132
0.462648 0.462648 0.462648
0.478191 0.478191 0.478191
0.493749 0.493749 0.493749
0.509311 0.509311 0.509311
0.524867 0.524867 0.524867
0.540405 0.540405 0.540405
0.345609 0.345609 0.345609
0.360682 0.360682 0.360682
0.375851 0.375851 0.375851
0.391106 0.391106 0.391106
0.406436 0.406436 0.406436
0.421832 0.421832 0.421832
0.437283 0.437283 0.437283
0.452777 0.452777 0.452777
0.468304 0.468304 0.468304
0.483854 0.483854 0.483854
0.499414 0.499414 0.499414
0.514976 0.514976 0.514976
0.530526 0.530526 0.530526
0.546056 0.546056 0.546056
0.561553 0.561553 0.561553
0.577007 0.577007 0.577007
0.592407 0.592407 0.592407
0.396679 0.396679 0.396679
0.412034 0.412034 0.412034
0.427451 0.427451 0.427451
0.442919 0.442919 0.442919
0.458426 0.458426 0.458426
0.473963 0.473963 0.473963
0.489518 0.489518 0.489518
0.505080 0.505080 0.505080
0.520639 0.520639 0.520639
0.536183 0.536183 0.536183
0.551702 0.551702 0.551702
0.567185 0.567185 0.567185
0.582620 0.582620 0.582620
0.597998 0.597998 0.597998
0.613308 0.613308 0.613308
0.628539 0.628539 0.628539
0.643682 0.643682 0.643682
0.448561 0.448561 0.448561
0.464080 0.464080 0.464080
0.479625 0.479625 0.479625
0.495183 0.495183 0.495183
0.510746 0.510746 0.510746
0.526300 0.526300 0.526300
0.541836 0.541836 0.541836
0.557343 0.557343 0.557343
0.572810 0.572810 0.572810
0.588226 0.588226 0.588226
0.603581 0.603581 0.603581
0.618863 0.618863 0.618863
0.634063 0.634063 0.634063
0.649170 0.649170 0.649170
0.664175 0.664175 0.664175
0.679066 0.679066 0.679066
0.693835 0.693835 0.693835
0.500849 0.500849 0.500849
0.516410 0.516410 0.516410
0.531959 0.531959 0.531959
0.547486 0.547486 0.547486
0.562979 0.562979 0.562979
0.578429 0.578429 0.578429
0.593824 0.593824 0.593824
0.609153 0.609153 0.609153
0.624407 0.624407 0.624407
0.639574 0.639574 0.639574
0.654645 0.654645 0.654645
0.669610 0.669610 0.669610
0.684458 0.684458 0.684458
0.699180 0.699180 0.699180
0.713766 0.713766 0.713766
0.728208 0.728208 0.728208
0.742497 0.742497 0.742497
0.553131 0.553131 0.553131
0.568610 0.568610 0.568610
0.584041 0.584041 0.584041
0.599413 0.599413 0.599413
0.614716 0.614716 0.614716
0.629939 0.629939 0.629939
0.645073 0.645073 0.645073
0.660106 0.660106 0.660106
0.675029 0.675029 0.675029
0.689833 0.689833 0.689833
0.704506 0.704506 0.704506
0.719041 0.719041 0.719041
0.733428 0.733428 0.733428
0.747659 0.747659 0.747659
0.761723 0.761723 0.761723
0.775614 0.775614 0.775614
0.789324 0.789324 0.789324
0.604993 0.604993 0.604993
0.620268 0.620268 0.620268
0.635460 0.635460 0.635460
0.650558 0.650558 0.650558
0.665552 0.665552 0.665552
0.680433 0.680433 0.680433
0.695190 0.695190 0.695190
0.709815 0.709815 0.709815
0.724297 0.724297 0.724297
0.738628 0.738628 0.738628
0.752799 0.752799 0.752799
0.766801 0.766801 0.766801
0.780627 0.780627 0.780627
0.794268 0.794268 0.794268
0.807717 0.807717 0.807717
0.820967 0.820967 0.820967
0.834010 0.834010 0.834010
0.656029 0.656029 0.656029
0.670984 0.670984 0.670984
0.685820 0.685820 0.685820
0.700530 0.700530 0.700530
0.715104 0.715104 0.715104
0.729532 0.729532 0.729532
0.743806 0.743806 0.743806
0.757916 0.757916 0.757916
0.771855 0.771855 0.771855
0.785615 0.785615 0.785615
0.799187 0.799187 0.799187
0.812564 0.812564 0.812564
0.825740 0.825740 0.825740
0.838707 0.838707 0.838707
0.851458 0.851458 0.851458
0.863989 0.863989 0.863989
0.876293 0.876293 0.876293
0.705852 0.705852 0.705852
0.720374 0.720374 0.720374
0.734747 0.734747 0.734747
0.748962 0.748962 0.748962
0.763011 0.763011 0.763011
0.776886 0.776886 0.776886
0.790578 0.790578 0.790578
0.804080 0.804080 0.804080
0.817385 0.817385 0.817385
0.830485 0.830485 0.830485
0.843374 0.843374 0.843374
0.856046 0.856046 0.856046
0.868495 0.868495 0.868495
0.880715 0.880715 0.880715
0.892702 0.892702 0.892702
0.904450 0.904450 0.904450
0.915956 0.915956 0.915956
0.754097 0.754097 0.754097
0.768083 0.768083 0.768083
0.781892 0.781892 0.781892
0.795516 0.795516 0.795516
0.808947 0.808947 0.808947
0.822178 0.822178 0.822178
0.835202 0.835202 0.835202
0.848013 0.848013 0.848013
0.860605 0.860605 0.860605
0.872971 0.872971 0.872971
0.885107 0.885107 0.885107
0.897007 0.897007 0.897007
0.908667 0.908667 0.908667
0.920083 0.920083 0.920083
0.931252 0.931252 0.931252
0.942169 0.942169 0.942169
0.952833 0.952833 0.952833
0.009612 0.009612 0.009612
0.019310 0.019310 0.019310
0.029268 0.029268 0.029268
0.039486 0.039486 0.039486
0.049961 0.049961 0.049961
0.060692 0.060692 0.060692
0.071676 0.071676 0.071676
0.082910 0.082910 0.082910
0.094392 0.094392 0.094392
0.106116 0.106116 0.106116
0.118079 0.118079 0.118079
0.130276 0.130276 0.130276
0.142702 0.142702 0.142702
0.155352 0.155352 0.155352
0.168220 0.168220 0.168220
0.181300 0.181300 0.181300
0.194584 0.194584 0.194584
0.043270 0.043270 0.043270
