.claude/skills/youtube-edit/luts/cinematic.cube
# Cinematic — Teal/Orange
# Generated for the youtube-edit skill — CC0
LUT_3D_SIZE 17
0.000000 0.016578 0.050794
0.019506 0.016262 0.049583
0.074735 0.015975 0.048317
0.133454 0.015706 0.047022
0.195396 0.015452 0.045709
0.260172 0.015210 0.044382
0.327278 0.014979 0.043044
0.396119 0.014759 0.041697
0.466033 0.014549 0.040344
0.536311 0.014349 0.038986
0.606233 0.014157 0.037625
0.675091 0.013974 0.036260
0.742221 0.013799 0.034894
0.807028 0.013632 0.033526
0.869009 0.013473 0.032158
0.927776 0.013322 0.030790
0.983069 0.013178 0.029422
0.000000 0.069627 0.046546
0.022683 0.069361 0.045227
0.078228 0.069108 0.043896
0.137239 0.068867 0.042554
0.199447 0.068636 0.041205
0.264455 0.068416 0.039851
0.331754 0.068206 0.038491
0.400743 0.068005 0.037128
0.470753 0.067813 0.035763
0.541076 0.067630 0.034396
0.610988 0.067455 0.033028
0.679786 0.067288 0.031660
0.746806 0.067130 0.030292
0.811460 0.066979 0.028925
0.873253 0.066837 0.027559
0.931804 0.066702 0.026195
0.986864 0.066574 0.024833
0.000000 0.126094 0.042064
0.026139 0.125854 0.040713
0.081968 0.125625 0.039356
0.141250 0.125406 0.037995
0.203706 0.125196 0.036631
0.268930 0.124997 0.035265
0.336405 0.124806 0.033898
0.405525 0.124624 0.032530
0.475616 0.124451 0.031162
0.545967 0.124287 0.029794
0.615855 0.124130 0.028427
0.684577 0.123982 0.027062
0.751473 0.123842 0.025699
0.815961 0.123709 0.024338
0.877553 0.123585 0.022980
0.935878 0.123468 0.021624
0.990696 0.123359 0.020272
0.000000 0.185718 0.037499
0.029770 0.185502 0.036134
0.085875 0.185296 0.034768
0.145419 0.185099 0.033400
0.208113 0.184911 0.032032
0.273544 0.184733 0.030664
0.341185 0.184563 0.029296
0.410425 0.184402 0.027930
0.480586 0.184249 0.026566
0.550954 0.184105 0.025203
0.620805 0.183969 0.023843
0.689438 0.183841 0.022486
0.756199 0.183721 0.021132
0.820510 0.183609 0.019781
0.881892 0.183505 0.018434
0.939981 0.183409 0.017091
0.994549 0.183320 0.015752
0.000000 0.248159 0.032902
0.033529 0.247967 0.031533
0.089907 0.247785 0.030166
0.149708 0.247611 0.028799
0.212636 0.247447 0.027433
0.278265 0.247291 0.026069
0.346065 0.247144 0.024708
0.415417 0.247005 0.023349
0.485637 0.246875 0.021992
0.556011 0.246753 0.020639
0.625815 0.246639 0.019290
0.694350 0.246534 0.017945
0.760965 0.246437 0.016603
0.825091 0.246347 0.015266
0.886253 0.246266 0.013934
0.944100 0.246192 0.012606
0.998412 0.246127 0.011284
0.000000 0.312977 0.028301
0.037390 0.312810 0.026936
0.094037 0.312653 0.025573
0.154093 0.312504 0.024213
0.217249 0.312364 0.022854
0.283072 0.312233 0.021499
0.351023 0.312111 0.020148
0.420478 0.311996 0.018800
0.490750 0.311890 0.017456
0.561121 0.311793 0.016116
0.630869 0.311704 0.014780
0.699296 0.311623 0.013450
0.765758 0.311550 0.012124
0.829689 0.311485 0.010804
0.890626 0.311428 0.009489
0.948224 0.311379 0.008179
1.000000 0.311339 0.006875
0.000000 0.379644 0.023718
0.041332 0.379504 0.022361
0.098248 0.379373 0.021007
0.158555 0.379251 0.019657
0.221934 0.379137 0.018310
0.287946 0.379032 0.016967
0.356042 0.378936 0.015629
0.425592 0.378847 0.014295
0.495908 0.378767 0.012967
0.566268 0.378696 0.011643
0.635951 0.378633 0.010324
0.704263 0.378578 0.009011
0.770563 0.378531 0.007704
0.834294 0.378492 0.006402
0.894999 0.378462 0.005107
0.952344 0.378439 0.003818
1.000000 0.378425 0.002535
0.000000 0.447563 0.019166
0.045342 0.447451 0.017821
0.102524 0.447348 0.016480
0.163078 0.447253 0.015143
0.226678 0.447167 0.013811
0.292872 0.447089 0.012484
0.361107 0.447020 0.011162
0.430746 0.446959 0.009846
0.501097 0.446906 0.008534
0.571439 0.446862 0.007229
0.641050 0.446826 0.005930
0.709239 0.446798 0.004637
0.775371 0.446778 0.003350
0.838895 0.446767 0.002070
0.899363 0.446763 0.000797
0.956451 0.446769 0.000000
1.000000 0.446782 0.000000
0.000000 0.516090 0.014658
0.049407 0.516006 0.013327
0.106853 0.515931 0.012002
0.167652 0.515865 0.010682
0.231466 0.515807 0.009368
0.297838 0.515757 0.008059
0.366205 0.515716 0.006756
0.435927 0.515682 0.005459
0.506307 0.515657 0.004168
0.576622 0.515641 0.002883
0.646154 0.515632 0.001606
0.714213 0.515632 0.000335
0.780171 0.515640 0.000000
0.843482 0.515656 0.000000
0.903709 0.515681 0.000000
0.960536 0.515714 0.000000
1.000000 0.515755 0.000000
0.000000 0.584555 0.010203
0.053517 0.584500 0.008890
0.111224 0.584454 0.007584
0.172264 0.584416 0.006283
0.236289 0.584386 0.004988
0.302833 0.584364 0.003699
0.371326 0.584350 0.002418
0.441123 0.584345 0.001142
0.511525 0.584348 0.000000
0.581807 0.584359 0.000000
0.651253 0.584378 0.000000
0.719176 0.584405 0.000000
0.784953 0.584441 0.000000
0.848047 0.584484 0.000000
0.908028 0.584536 0.000000
0.964592 0.584597 0.000000
1.000000 0.584665 0.000000
0.003231 0.652291 0.005811
0.057662 0.652265 0.004518
0.115628 0.652246 0.003232
0.176905 0.652236 0.001953
0.241136 0.652234 0.000680
0.307845 0.652239 0.000000
0.376459 0.652253 0.000000
0.446324 0.652275 0.000000
0.516740 0.652305 0.000000
0.586983 0.652342 0.000000
0.656336 0.652388 0.000000
0.724117 0.652442 0.000000
0.789709 0.652505 0.000000
0.852581 0.652575 0.000000
0.912314 0.652654 0.000000
0.968612 0.652740 0.000000
1.000000 0.652836 0.000000
0.007136 0.718658 0.001488
0.061835 0.718659 0.000218
0.120056 0.718667 0.000000
0.181565 0.718683 0.000000
0.245997 0.718707 0.000000
0.312866 0.718739 0.000000
0.381593 0.718779 0.000000
0.451520 0.718827 0.000000
0.521944 0.718882 0.000000
0.592140 0.718946 0.000000
0.661394 0.719017 0.000000
0.729027 0.719097 0.000000
0.794429 0.719184 0.000000
0.857076 0.719280 0.000000
0.916557 0.719383 0.000000
0.972587 0.719495 0.000000
1.000000 0.719615 0.000000
0.011063 0.783067 0.000000
0.066027 0.783092 0.000000
0.124499 0.783126 0.000000
0.186236 0.783167 0.000000
0.250862 0.783216 0.000000
0.317885 0.783272 0.000000
0.386719 0.783336 0.000000
0.456701 0.783408 0.000000
0.527125 0.783487 0.000000
0.597268 0.783574 0.000000
0.666416 0.783670 0.000000
0.733897 0.783772 0.000000
0.799103 0.783883 0.000000
0.861522 0.784002 0.000000
0.920749 0.784129 0.000000
0.976511 0.784264 0.000000
1.000000 0.784407 0.000000
0.015004 0.845002 0.000000
0.070229 0.845051 0.000000
0.128949 0.845107 0.000000
0.190908 0.845171 0.000000
0.255723 0.845243 0.000000
0.322893 0.845321 0.000000
0.391826 0.845407 0.000000
0.461856 0.845501 0.000000
0.532274 0.845602 0.000000
0.602357 0.845711 0.000000
0.671394 0.845827 0.000000
0.738716 0.845951 0.000000
0.803723 0.846083 0.000000
0.865909 0.846223 0.000000
0.924881 0.846371 0.000000
0.980373 0.846527 0.000000
1.000000 0.846691 0.000000
0.018952 0.904045 0.000000
0.074435 0.904115 0.000000
0.133396 0.904192 0.000000
0.195572 0.904276 0.000000
0.260569 0.904368 0.000000
0.327879 0.904466 0.000000
0.396904 0.904572 0.000000
0.466974 0.904685 0.000000
0.537379 0.904805 0.000000
0.607395 0.904933 0.000000
0.676315 0.905068 0.000000
0.743473 0.905211 0.000000
0.808277 0.905362 0.000000
0.870228 0.905520 0.000000
0.928942 0.905686 0.000000
0.984164 0.905861 0.000000
1.000000 0.906043 0.000000
0.022898 0.959889 0.000000
0.078634 0.959978 0.000000
0.137832 0.960073 0.000000
0.200218 0.960175 0.000000
0.265390 0.960284 0.000000
0.332832 0.960400 0.000000
0.401941 0.960522 0.000000
0.472044 0.960652 0.000000
0.542428 0.960789 0.000000
0.612370 0.960934 0.000000
0.681166 0.961086 0.000000
0.748156 0.961245 0.000000
0.812753 0.961412 0.000000
0.874466 0.961586 0.000000
0.932920 0.961769 0.000000
0.987870 0.961960 0.000000
1.000000 0.962159 0.000000
0.026835 1.000000 0.000000
0.082818 1.000000 0.000000
0.142246 1.000000 0.000000
0.204835 1.000000 0.000000
0.270173 1.000000 0.000000
0.337740 1.000000 0.000000
0.406925 1.000000 0.000000
0.477051 1.000000 0.000000
0.547406 1.000000 0.000000
0.617268 1.000000 0.000000
0.685933 1.000000 0.000000
0.752748 1.000000 0.000000
0.817133 1.000000 0.000000
0.878605 1.000000 0.000000
0.936797 1.000000 0.000000
0.991476 1.000000 0.000000
1.000000 1.000000 0.000000
0.000000 0.016466 0.106608
0.019806 0.016163 0.105296
0.075072 0.015882 0.103940
0.133823 0.015618 0.102559
0.195793 0.015368 0.101159
0.260593 0.015130 0.099746
0.327720 0.014903 0.098322
0.396577 0.014687 0.096889
0.466501 0.014480 0.095450
0.536785 0.014283 0.094006
0.606707 0.014094 0.092558
0.675560 0.013913 0.091107
0.742680 0.013741 0.089654
0.807472 0.013577 0.088199
0.869435 0.013421 0.086744
0.928180 0.013272 0.085290
0.983450 0.013130 0.083835
0.000000 0.069535 0.102051
0.023022 0.069274 0.100646
0.078596 0.069025 0.099228
0.137635 0.068787 0.097801
0.199869 0.068560 0.096366
0.264900 0.068343 0.094925
0.332217 0.068136 0.093479
0.401219 0.067939 0.092030
0.471238 0.067750 0.090578
0.541564 0.067569 0.089124
0.611475 0.067397 0.087670
0.680265 0.067234 0.086215
0.747274 0.067078 0.084760
0.811912 0.066930 0.083306
0.873685 0.066790 0.081854
0.932214 0.066657 0.080403
0.987250 0.066532 0.078955
0.000000 0.126011 0.097279
0.026499 0.125775 0.095842
0.082356 0.125549 0.094399
0.141665 0.125334 0.092952
0.204145 0.125128 0.091501
0.269390 0.124931 0.090049
0.336882 0.124743 0.088595
0.406015 0.124565 0.087140
0.476114 0.124394 0.085685
0.546467 0.124232 0.084231
0.616352 0.124079 0.082777
0.685064 0.123933 0.081326
0.751948 0.123796 0.079876
0.816419 0.123666 0.078428
0.877990 0.123544 0.076983
0.936291 0.123430 0.075541
0.991084 0.123323 0.074103
0.000000 0.185644 0.092424
0.030144 0.185431 0.090973
0.086277 0.185228 0.089520
0.145847 0.185034 0.088065
0.208565 0.184850 0.086610
0.274016 0.184674 0.085156
0.341674 0.184507 0.083701
0.410925 0.184349 0.082249
0.481093 0.184199 0.080797
0.551461 0.184058 0.079348
0.621308 0.183924 0.077902
0.689932 0.183799 0.076458
0.756679 0.183682 0.075017
0.820971 0.183573 0.073580
0.882331 0.183471 0.072147
0.940396 0.183378 0.070718
0.994938 0.183292 0.069294
0.000000 0.248093 0.087535
0.033915 0.247904 0.086081
0.090320 0.247725 0.084626
0.150147 0.247554 0.083172
0.213098 0.247393 0.081720
0.278747 0.247240 0.080270
0.346563 0.247096 0.078821
0.415925 0.246960 0.077376
0.486151 0.246833 0.075933
0.556525 0.246713 0.074494
0.626324 0.246603 0.073058
0.694848 0.246500 0.071626
0.761448 0.246405 0.070199
0.825554 0.246319 0.068776
0.886694 0.246240 0.067358
0.944516 0.246169 0.065945
0.998802 0.246106 0.064537
0.000000 0.312919 0.082643
0.037784 0.312756 0.081192
0.094459 0.312601 0.079742
0.154540 0.312456 0.078295
0.217719 0.312319 0.076850
0.283561 0.312191 0.075409
0.351528 0.312071 0.073971
0.420992 0.311959 0.072536
0.491269 0.311856 0.071106
0.561639 0.311762 0.069680
0.631381 0.311675 0.068259
0.699796 0.311597 0.066843
0.766242 0.311527 0.065432
0.830154 0.311465 0.064026
0.891067 0.311411 0.062626
0.948641 0.311365 0.061232
1.000000 0.311327 0.059844
0.000000 0.379595 0.077768
0.041734 0.379459 0.076325
0.098677 0.379331 0.074885
0.159009 0.379211 0.073448
0.222411 0.379101 0.072015
0.288441 0.378998 0.070587
0.356551 0.378905 0.069162
0.426111 0.378819 0.067743
0.496430 0.378742 0.066329
0.566789 0.378674 0.064919
0.636465 0.378613 0.063516
0.704765 0.378561 0.062118
0.771049 0.378517 0.060726
0.834759 0.378481 0.059340
0.895440 0.378453 0.057961
0.952760 0.378434 0.056588
1.000000 0.378422 0.055222
0.000000 0.447524 0.072926
0.045750 0.447415 0.071495
0.102959 0.447315 0.070068
0.163538 0.447223 0.068645
0.227159 0.447140 0.067228
0.293372 0.447065 0.065815
0.361620 0.446998 0.064408
0.431268 0.446940 0.063006
0.501623 0.446890 0.061610
0.571962 0.446849 0.060221
0.641565 0.446815 0.058837
0.709741 0.446790 0.057460
0.775856 0.446773 0.056090
0.839358 0.446765 0.054726
0.899802 0.446764 0.053370
0.956864 0.446772 0.052021
1.000000 0.446788 0.050680
0.000000 0.516060 0.068128
0.049820 0.515980 0.066713
0.107292 0.515908 0.065302
0.168116 0.515844 0.063897
0.231952 0.515789 0.062497
0.298341 0.515742 0.061104
0.366721 0.515703 0.059716
0.436451 0.515673 0.058335
0.506833 0.515651 0.056960
0.577146 0.515637 0.055593
0.646669 0.515631 0.054232
0.714715 0.515634 0.052878
0.780655 0.515645 0.051532
0.843944 0.515664 0.050193
0.904146 0.515691 0.048862
0.960947 0.515727 0.047539
1.000000 0.515771 0.046225
0.000000 0.584536 0.063387
0.053934 0.584484 0.061989
0.111668 0.584440 0.060598
0.172731 0.584405 0.059213
0.236777 0.584377 0.057834
0.303338 0.584358 0.056462
0.371844 0.584348 0.055096
0.441648 0.584345 0.053738
0.512051 0.584351 0.052387
0.582330 0.584364 0.051044
0.651767 0.584386 0.049708
0.719676 0.584416 0.048380
0.785435 0.584455 0.047060
0.848506 0.584501 0.045748
0.908463 0.584556 0.044445
0.965000 0.584619 0.043151
1.000000 0.584690 0.041866
0.003624 0.652282 0.058710
0.058083 0.652258 0.057333
0.116074 0.652242 0.055964
0.177375 0.652234 0.054601
0.241626 0.652235 0.053245
0.308352 0.652243 0.051897
0.376977 0.652259 0.050556
0.446849 0.652284 0.049223
0.517266 0.652317 0.047898
0.587505 0.652357 0.046581
0.656848 0.652406 0.045273
0.724614 0.652463 0.043973
0.790187 0.652528 0.042682
0.853037 0.652601 0.041400
0.912744 0.652682 0.040127
0.969015 0.652772 0.038864
1.000000 0.652870 0.037610
0.007532 0.718658 0.054107
0.062258 0.718661 0.052754
0.120504 0.718672 0.051408
0.182037 0.718691 0.050070
0.246488 0.718717 0.048740
0.313373 0.718752 0.047418
0.382111 0.718794 0.046104
0.452044 0.718845 0.044799
0.522468 0.718903 0.043502
0.592659 0.718969 0.042214
0.661902 0.719043 0.040936
0.729521 0.719125 0.039666
0.794903 0.719216 0.038406
0.857527 0.719314 0.037156
0.916983 0.719420 0.035916
0.972986 0.719535 0.034687
1.000000 0.719658 0.033468
0.011460 0.783074 0.049585
0.066451 0.783103 0.048258
0.124948 0.783139 0.046939
0.186708 0.783183 0.045628
0.251353 0.783234 0.044326
0.318392 0.783293 0.043032
0.387235 0.783360 0.041748
0.457222 0.783434 0.040472
0.527647 0.783516 0.039206
0.597784 0.783606 0.037950
0.666921 0.783704 0.036704
0.734386 0.783809 0.035468
0.799572 0.783923 0.034242
0.861967 0.784044 0.033027
0.921169 0.784174 0.031822
0.976904 0.784312 0.030629
1.000000 0.784458 0.029448
0.015402 0.845018 0.045153
0.070654 0.845069 0.043854
0.129398 0.845128 0.042564
0.191380 0.845195 0.041282
0.256213 0.845268 0.040010
0.323398 0.845350 0.038748
0.392340 0.845438 0.037495
0.462374 0.845534 0.036253
0.532792 0.845638 0.035020
0.602868 0.845749 0.033798
0.671893 0.845868 0.032587
0.739199 0.845995 0.031387
0.804186 0.846130 0.030198
0.866349 0.846272 0.029020
0.925294 0.846423 0.027855
0.980759 0.846581 0.026702
1.000000 0.846748 0.025562
0.019350 0.904068 0.040818
0.074859 0.904140 0.039550
0.133845 0.904220 0.038291
0.196042 0.904307 0.037042
0.261057 0.904400 0.035803
0.328381 0.904501 0.034574
0.397414 0.904609 0.033356
0.467488 0.904725 0.032149
0.537891 0.904848 0.030952
0.607901 0.904978 0.029768
0.676808 0.905116 0.028595
0.743949 0.905261 0.027434
0.808733 0.905415 0.026286
0.870660 0.905576 0.025150
0.929348 0.905745 0.024028
0.984542 0.905922 0.022920
1.000000 0.906107 0.021825
0.023296 0.959919 0.036589
0.079057 0.960009 0.035354
0.138279 0.960107 0.034129
0.200686 0.960211 0.032915
0.265874 0.960322 0.031712
0.333330 0.960440 0.030520
0.402447 0.960566 0.029339
0.472552 0.960698 0.028171
0.542934 0.960838 0.027014
0.612869 0.960984 0.025871
0.681652 0.961139 0.024740
0.748624 0.961301 0.023623
0.813199 0.961470 0.022519
0.874888 0.961648 0.021431
0.933316 0.961833 0.020357
0.988239 0.962027 0.019299
1.000000 0.962229 0.018257
0.027231 1.000000 0.032476
0.083239 1.000000 0.031276
0.142690 1.000000 0.030089
0.205299 1.000000 0.028912
0.270654 1.000000 0.027748
0.338233 1.000000 0.026597
0.407424 1.000000 0.025458
0.477552 1.000000 0.024332
0.547904 1.000000 0.023219
0.617757 1.000000 0.022121
0.686409 1.000000 0.021038
0.753206 1.000000 0.019970
0.817569 1.000000 0.018918
0.879016 1.000000 0.017882
0.937182 1.000000 0.016865
0.991833 1.000000 0.015866
1.000000 1.000000 0.014887
0.000000 0.016359 0.165568
0.020113 0.016065 0.164167
0.075413 0.015791 0.162728
0.134195 0.015532 0.161266
0.196193 0.015286 0.159785
0.261018 0.015052 0.158292
0.328164 0.014829 0.156787
0.397037 0.014616 0.155274
0.466972 0.014412 0.153754
0.537261 0.014217 0.152229
0.607182 0.014032 0.150700
0.676030 0.013854 0.149168
0.743139 0.013685 0.147634
0.807916 0.013523 0.146098
0.869861 0.013369 0.144562
0.928585 0.013223 0.143026
0.983832 0.013084 0.141490
0.000000 0.069445 0.160729
0.023363 0.069188 0.159243
0.078967 0.068943 0.157745
0.138034 0.068709 0.156237
0.200293 0.068486 0.154721
0.265345 0.068272 0.153199
0.332681 0.068068 0.151673
0.401697 0.067873 0.150143
0.471725 0.067687 0.148610
0.542054 0.067510 0.147075
0.611963 0.067341 0.145539
0.680746 0.067180 0.144003
0.747743 0.067027 0.142467
0.812364 0.066882 0.140931
0.874118 0.066744 0.139397
0.932624 0.066614 0.137865
0.987635 0.066491 0.136335
0.000000 0.125930 0.155686
0.026860 0.125697 0.154168
0.082745 0.125475 0.152644
0.142081 0.125262 0.151116
0.204585 0.125060 0.149585
0.269851 0.124866 0.148051
0.337361 0.124682 0.146516
0.406506 0.124506 0.144980
0.476612 0.124338 0.143443
0.546967 0.124179 0.141908
0.616849 0.124029 0.140373
0.685553 0.123886 0.138839
0.752423 0.123751 0.137308
0.816876 0.123624 0.135778
0.878427 0.123505 0.134252
0.936705 0.123393 0.132728
0.991472 0.123289 0.131209
0.000000 0.185570 0.150559
0.030520 0.185361 0.149027
0.086680 0.185161 0.147492
0.146276 0.184970 0.145957
0.209018 0.184789 0.144420
0.274489 0.184616 0.142884
0.342163 0.184453 0.141349
0.411426 0.184297 0.139814
0.481600 0.184150 0.138281
0.551970 0.184012 0.136751
0.621812 0.183881 0.135222
0.690426 0.183759 0.133697
0.757159 0.183644 0.132175
0.821433 0.183538 0.130656
0.882771 0.183439 0.129141
0.940812 0.183348 0.127631
0.995328 0.183264 0.126125
0.000000 0.248028 0.145397
0.034301 0.247842 0.143861
0.090733 0.247666 0.142325
0.150586 0.247498 0.140790
0.213560 0.247340 0.139256
0.279230 0.247190 0.137724
0.347061 0.247049 0.136194
0.416433 0.246916 0.134667
0.486665 0.246791 0.133142
0.557039 0.246675 0.131621
0.626832 0.246567 0.130104
0.695346 0.246467 0.128591
0.761931 0.246375 0.127082
0.826018 0.246291 0.125578
0.887135 0.246215 0.124078
0.944933 0.246147 0.122584
0.999192 0.246086 0.121095
0.000000 0.312863 0.140231
0.038180 0.312702 0.138698
0.094881 0.312551 0.137167
0.154988 0.312408 0.135638
0.218189 0.312274 0.134111
0.284051 0.312149 0.132588
0.352032 0.312032 0.131069
0.421507 0.311923 0.129553
0.491788 0.311823 0.128041
0.562158 0.311731 0.126534
0.631893 0.311648 0.125031
0.700297 0.311572 0.123534
0.766727 0.311505 0.122041
0.830618 0.311446 0.120555
0.891509 0.311394 0.119074
0.949057 0.311351 0.117599
1.000000 0.311316 0.116130
0.000000 0.379548 0.135082
0.042137 0.379414 0.133556
0.099106 0.379289 0.132035
0.159463 0.379173 0.130516
0.222888 0.379065 0.129002
0.288937 0.378966 0.127492
0.357061 0.378875 0.125986
0.426630 0.378792 0.124485
0.496953 0.378718 0.122990
0.567310 0.378652 0.121499
0.636980 0.378594 0.120015
0.705267 0.378545 0.118536
0.771534 0.378504 0.117063
0.835223 0.378471 0.115597
0.895881 0.378446 0.114137
0.953175 0.378429 0.112685
1.000000 0.378420 0.111239
0.000000 0.447486 0.129964
0.046159 0.447380 0.128452
0.103394 0.447283 0.126943
0.163998 0.447194 0.125439
0.227641 0.447113 0.123940
0.293872 0.447041 0.122447
0.362134 0.446977 0.120958
0.431790 0.446922 0.119476
0.502148 0.446875 0.117999
0.572485 0.446836 0.116529
0.642080 0.446806 0.115065
0.710244 0.446783 0.113608
0.776341 0.446769 0.112157
0.839822 0.446764 0.110714
0.900242 0.446766 0.109278
0.957278 0.446777 0.107850
1.000000 0.446795 0.106430
0.000000 0.516032 0.124893
0.050233 0.515955 0.123396
0.107732 0.515885 0.121904
0.168580 0.515825 0.120418
0.232438 0.515772 0.118937
0.298844 0.515728 0.117463
0.367238 0.515692 0.115995
0.436975 0.515665 0.114534
0.507360 0.515645 0.113079
0.577669 0.515634 0.111631
0.647184 0.515631 0.110191
0.715216 0.515637 0.108758
0.781138 0.515650 0.107332
0.844406 0.515672 0.105915
0.904583 0.515702 0.104505
0.961357 0.515741 0.103104
1.000000 0.515787 0.101712
0.000135 0.584517 0.119878
0.054351 0.584468 0.118400
0.112111 0.584427 0.116928
0.173199 0.584394 0.115462
0.237266 0.584370 0.114003
0.303844 0.584354 0.112551
0.372362 0.584346 0.111106
0.442173 0.584346 0.109668
0.512578 0.584354 0.108238
0.582853 0.584371 0.106815
0.652280 0.584396 0.105401
0.720175 0.584428 0.103994
0.785916 0.584470 0.102597
0.848965 0.584519 0.101207
0.908897 0.584576 0.099827
0.965407 0.584642 0.098456
1.000000 0.584717 0.097094
0.004017 0.652273 0.114930
0.058503 0.652252 0.113474
0.116521 0.652239 0.112024
0.177845 0.652234 0.110582
0.242116 0.652237 0.109146
0.308859 0.652248 0.107719
0.377495 0.652267 0.106299
0.447374 0.652294 0.104888
0.517792 0.652329 0.103485
0.588026 0.652373 0.102090
0.657359 0.652424 0.100704
0.725111 0.652484 0.099327
0.790665 0.652552 0.097959
0.853492 0.652628 0.096601
0.913174 0.652712 0.095252
0.969418 0.652804 0.093913
1.000000 0.652905 0.092585
0.007927 0.718658 0.110058
0.062680 0.718664 0.108626
0.120952 0.718677 0.107201
0.182508 0.718699 0.105784
0.246979 0.718728 0.104376
0.313880 0.718765 0.102976
0.382629 0.718811 0.101584
0.452568 0.718864 0.100201
0.522992 0.718924 0.098828
0.593178 0.718993 0.097463
0.662411 0.719070 0.096108
0.730014 0.719155 0.094763
0.795376 0.719248 0.093428
0.857978 0.719349 0.092104
0.917408 0.719458 0.090789
0.973384 0.719576 0.089486
1.000000 0.719702 0.088194
0.011858 0.783083 0.105271
0.066875 0.783114 0.103865
0.125398 0.783153 0.102468
0.187180 0.783199 0.101080
0.251844 0.783253 0.099700
0.318898 0.783315 0.098330
0.387752 0.783384 0.096969
0.457744 0.783461 0.095618
0.528168 0.783546 0.094276
0.598299 0.783638 0.092945
0.667425 0.783739 0.091624
0.734874 0.783847 0.090314
0.800041 0.783963 0.089014
0.862413 0.784087 0.087726
0.921588 0.784220 0.086450
0.977296 0.784360 0.085185
1.000000 0.784509 0.083932
0.015801 0.845034 0.100576
0.071079 0.845089 0.099200
0.129847 0.845150 0.097833
0.191851 0.845219 0.096476
0.256703 0.845295 0.095128
0.323902 0.845379 0.093790
0.392854 0.845470 0.092463
0.462892 0.845569 0.091146
0.533309 0.845675 0.089839
0.603379 0.845789 0.088544
0.672392 0.845911 0.087260
0.739682 0.846040 0.085988
0.804648 0.846177 0.084727
0.866787 0.846322 0.083479
0.925707 0.846476 0.082244
0.981144 0.846637 0.081022
1.000000 0.846807 0.079813
0.019749 0.904092 0.095984
0.075283 0.904167 0.094640
0.134293 0.904249 0.093306
0.196512 0.904338 0.091982
0.261544 0.904434 0.090669
0.328882 0.904537 0.089366
0.397925 0.904648 0.088075
0.468002 0.904766 0.086795
0.538403 0.904891 0.085527
0.608405 0.905024 0.084272
0.677300 0.905164 0.083028
0.744425 0.905313 0.081798
0.809188 0.905468 0.080580
0.871091 0.905632 0.079377
0.929752 0.905804 0.078187
0.984919 0.905984 0.077012
1.000000 0.906172 0.075853
0.023694 0.959949 0.091503
0.079480 0.960042 0.090193
0.138725 0.960141 0.088895
0.201153 0.960248 0.087608
0.266359 0.960362 0.086332
0.333827 0.960482 0.085069
0.402952 0.960610 0.083817
0.473060 0.960745 0.082579
0.543439 0.960887 0.081353
0.613366 0.961036 0.080140
0.682136 0.961193 0.078942
0.749091 0.961357 0.077758
0.813645 0.961530 0.076588
0.875310 0.961710 0.075434
0.933711 0.961898 0.074297
0.988607 0.962094 0.073176
1.000000 0.962300 0.072073
0.027628 1.000000 0.087142
0.083660 1.000000 0.085871
0.143134 1.000000 0.084612
0.205763 1.000000 0.083365
0.271134 1.000000 0.082131
0.338724 1.000000 0.080910
0.407923 1.000000 0.079702
0.478053 1.000000 0.078509
0.548401 1.000000 0.077330
0.618245 1.000000 0.076166
0.686884 1.000000 0.075018
0.753663 1.000000 0.073887
0.818004 1.000000 0.072772
0.879427 1.000000 0.071676
0.937566 1.000000 0.070598
0.992189 1.000000 0.069541
1.000000 1.000000 0.068506
0.000000 0.016257 0.227372
0.020425 0.015970 0.225893
0.075758 0.015701 0.224380
0.134570 0.015447 0.222845
0.196596 0.015205 0.221293
0.261445 0.014975 0.219727
0.328611 0.014755 0.218150
0.397499 0.014545 0.216565
0.467444 0.014345 0.214973
0.537738 0.014153 0.213376
0.607659 0.013970 0.211775
0.676501 0.013796 0.210170
0.743600 0.013629 0.208563
0.808362 0.013470 0.206955
0.870287 0.013319 0.205346
0.928990 0.013175 0.203737
0.984214 0.013039 0.202128
0.000000 0.069356 0.222282
