.claude/skills/youtube-edit/luts/cinematic.cube
# Cinematic — Teal/Orange
# Generated for the youtube-edit skill — CC0
LUT_3D_SIZE 9
0.000000 0.016578 0.050794
0.074735 0.015975 0.048317
0.195396 0.015452 0.045709
0.327278 0.014979 0.043044
0.466033 0.014549 0.040344
0.606233 0.014157 0.037625
0.742221 0.013799 0.034894
0.869009 0.013473 0.032158
0.983069 0.013178 0.029422
0.000000 0.126094 0.042064
0.081968 0.125625 0.039356
0.203706 0.125196 0.036631
0.336405 0.124806 0.033898
0.475616 0.124451 0.031162
0.615855 0.124130 0.028427
0.751473 0.123842 0.025699
0.877553 0.123585 0.022980
0.990696 0.123359 0.020272
0.000000 0.248159 0.032902
0.089907 0.247785 0.030166
0.212636 0.247447 0.027433
0.346065 0.247144 0.024708
0.485637 0.246875 0.021992
0.625815 0.246639 0.019290
0.760965 0.246437 0.016603
0.886253 0.246266 0.013934
0.998412 0.246127 0.011284
0.000000 0.379644 0.023718
0.098248 0.379373 0.021007
0.221934 0.379137 0.018310
0.356042 0.378936 0.015629
0.495908 0.378767 0.012967
0.635951 0.378633 0.010324
0.770563 0.378531 0.007704
0.894999 0.378462 0.005107
1.000000 0.378425 0.002535
0.000000 0.516090 0.014658
0.106853 0.515931 0.012002
0.231466 0.515807 0.009368
0.366205 0.515716 0.006756
0.506307 0.515657 0.004168
0.646154 0.515632 0.001606
0.780171 0.515640 0.000000
0.903709 0.515681 0.000000
1.000000 0.515755 0.000000
0.003231 0.652291 0.005811
0.115628 0.652246 0.003232
0.241136 0.652234 0.000680
0.376459 0.652253 0.000000
0.516740 0.652305 0.000000
0.656336 0.652388 0.000000
0.789709 0.652505 0.000000
0.912314 0.652654 0.000000
1.000000 0.652836 0.000000
0.011063 0.783067 0.000000
0.124499 0.783126 0.000000
0.250862 0.783216 0.000000
0.386719 0.783336 0.000000
0.527125 0.783487 0.000000
0.666416 0.783670 0.000000
0.799103 0.783883 0.000000
0.920749 0.784129 0.000000
1.000000 0.784407 0.000000
0.018952 0.904045 0.000000
0.133396 0.904192 0.000000
0.260569 0.904368 0.000000
0.396904 0.904572 0.000000
0.537379 0.904805 0.000000
0.676315 0.905068 0.000000
0.808277 0.905362 0.000000
0.928942 0.905686 0.000000
1.000000 0.906043 0.000000
0.026835 1.000000 0.000000
0.142246 1.000000 0.000000
0.270173 1.000000 0.000000
0.406925 1.000000 0.000000
0.547406 1.000000 0.000000
0.685933 1.000000 0.000000
0.817133 1.000000 0.000000
0.936797 1.000000 0.000000
1.000000 1.000000 0.000000
0.000000 0.016359 0.165568
0.075413 0.015791 0.162728
0.196193 0.015286 0.159785
0.328164 0.014829 0.156787
0.466972 0.014412 0.153754
0.607182 0.014032 0.150700
0.743139 0.013685 0.147634
0.869861 0.013369 0.144562
0.983832 0.013084 0.141490
0.000000 0.125930 0.155686
0.082745 0.125475 0.152644
0.204585 0.125060 0.149585
0.337361 0.124682 0.146516
0.476612 0.124338 0.143443
0.616849 0.124029 0.140373
0.752423 0.123751 0.137308
0.878427 0.123505 0.134252
0.991472 0.123289 0.131209
0.000000 0.248028 0.145397
0.090733 0.247666 0.142325
0.213560 0.247340 0.139256
0.347061 0.247049 0.136194
0.486665 0.246791 0.133142
0.626832 0.246567 0.130104
0.761931 0.246375 0.127082
0.887135 0.246215 0.124078
0.999192 0.246086 0.121095
0.000000 0.379548 0.135082
0.099106 0.379289 0.132035
0.222888 0.379065 0.129002
0.357061 0.378875 0.125986
0.496953 0.378718 0.122990
0.636980 0.378594 0.120015
0.771534 0.378504 0.117063
0.895881 0.378446 0.114137
1.000000 0.378420 0.111239
0.000000 0.516032 0.124893
0.107732 0.515885 0.121904
0.232438 0.515772 0.118937
0.367238 0.515692 0.115995
0.507360 0.515645 0.113079
0.647184 0.515631 0.110191
0.781138 0.515650 0.107332
0.904583 0.515702 0.104505
1.000000 0.515787 0.101712
0.004017 0.652273 0.114930
0.116521 0.652239 0.112024
0.242116 0.652237 0.109146
0.377495 0.652267 0.106299
0.517792 0.652329 0.103485
0.657359 0.652424 0.100704
0.790665 0.652552 0.097959
0.913174 0.652712 0.095252
1.000000 0.652905 0.092585
0.011858 0.783083 0.105271
0.125398 0.783153 0.102468
0.251844 0.783253 0.099700
0.387752 0.783384 0.096969
0.528168 0.783546 0.094276
0.667425 0.783739 0.091624
0.800041 0.783963 0.089014
0.921588 0.784220 0.086450
1.000000 0.784509 0.083932
0.019749 0.904092 0.095984
0.134293 0.904249 0.093306
0.261544 0.904434 0.090669
0.397925 0.904648 0.088075
0.538403 0.904891 0.085527
0.677300 0.905164 0.083028
0.809188 0.905468 0.080580
0.929752 0.905804 0.078187
1.000000 0.906172 0.075853
0.027628 1.000000 0.087142
0.143134 1.000000 0.084612
0.271134 1.000000 0.082131
0.407923 1.000000 0.079702
0.548401 1.000000 0.077330
0.686884 1.000000 0.075018
0.818004 1.000000 0.072772
0.937566 1.000000 0.070598
1.000000 1.000000 0.068506
0.000000 0.016157 0.291606
0.076106 0.015614 0.288487
0.197002 0.015126 0.285277
0.329060 0.014683 0.282013
0.467919 0.014279 0.278715
0.608137 0.013910 0.275394
0.744061 0.013574 0.272060
0.870715 0.013269 0.268719
0.984596 0.012994 0.265377
0.000000 0.125770 0.280815
0.083529 0.125330 0.277508
0.205470 0.124927 0.274181
0.338322 0.124561 0.270844
0.477612 0.124230 0.267502
0.617846 0.123931 0.264160
0.753376 0.123664 0.260823
0.879301 0.123428 0.257494
0.992249 0.123222 0.254177
0.000000 0.247901 0.269628
0.091564 0.247551 0.266285
0.214489 0.247237 0.262945
0.348059 0.246957 0.259610
0.487695 0.246711 0.256285
0.627851 0.246498 0.252973
0.762898 0.246317 0.249676
0.888018 0.246168 0.246397
0.999973 0.246050 0.243140
0.000000 0.379456 0.258398
0.099967 0.379209 0.255078
0.223843 0.378997 0.251771
0.358082 0.378818 0.248480
0.498000 0.378672 0.245209
0.638009 0.378560 0.241959
0.772505 0.378480 0.238733
0.896762 0.378433 0.235533
1.000000 0.378419 0.232360
0.000000 0.515979 0.247287
0.108613 0.515843 0.244023
0.233410 0.515741 0.240782
0.368271 0.515672 0.237565
0.508413 0.515637 0.234374
0.648214 0.515634 0.231213
0.782105 0.515664 0.228082
0.905457 0.515727 0.224984
1.000000 0.515824 0.221921
0.004805 0.652257 0.236400
0.117414 0.652234 0.233220
0.243097 0.652243 0.230069
0.378532 0.652285 0.226950
0.518844 0.652358 0.223865
0.658382 0.652464 0.220815
0.791619 0.652602 0.217804
0.914033 0.652774 0.214832
1.000000 0.652978 0.211903
0.012653 0.783104 0.225823
0.126296 0.783184 0.222750
0.252826 0.783294 0.219714
0.388784 0.783435 0.216717
0.529209 0.783608 0.213761
0.668432 0.783811 0.210847
0.800976 0.784047 0.207980
0.922425 0.784314 0.205161
1.000000 0.784615 0.202394
0.020546 0.904142 0.215636
0.135189 0.904308 0.212695
0.262519 0.904503 0.209798
0.398943 0.904727 0.206948
0.539425 0.904981 0.204147
0.678283 0.905264 0.201400
0.810095 0.905579 0.198708
0.930559 0.905925 0.196077
1.000000 0.906305 0.193511
0.028420 1.000000 0.205923
0.144020 1.000000 0.203141
0.272092 1.000000 0.200413
0.408918 1.000000 0.197743
0.549393 1.000000 0.195135
0.687830 1.000000 0.192594
0.818871 1.000000 0.190126
0.938329 1.000000 0.187741
1.000000 1.000000 0.185449
0.000000 0.015965 0.425272
0.076814 0.015442 0.421982
0.197821 0.014971 0.418611
0.329965 0.014542 0.415189
0.468872 0.014150 0.411732
0.609098 0.013792 0.408252
0.744987 0.013467 0.404757
0.871572 0.013172 0.401254
0.985363 0.012907 0.397747
0.000000 0.125616 0.413934
0.084318 0.125189 0.410468
0.206360 0.124799 0.406981
0.339287 0.124445 0.403483
0.478616 0.124124 0.399977
0.618845 0.123837 0.396471
0.754330 0.123580 0.392967
0.880177 0.123355 0.389469
0.993028 0.123159 0.385982
0.000000 0.247778 0.402207
0.092398 0.247441 0.398701
0.215420 0.247138 0.395195
0.349060 0.246870 0.391693
0.488728 0.246635 0.388198
0.628872 0.246433 0.384715
0.763866 0.246263 0.381246
0.888901 0.246124 0.377793
1.000000 0.246017 0.374360
0.000000 0.379368 0.390419
0.100831 0.379133 0.386929
0.224801 0.378932 0.383450
0.359105 0.378765 0.379987
0.499048 0.378630 0.376541
0.639038 0.378529 0.373115
0.773476 0.378461 0.369712
0.897644 0.378425 0.366334
1.000000 0.378421 0.362984
0.000000 0.515929 0.378730
0.109496 0.515805 0.375291
0.234384 0.515714 0.371874
0.369305 0.515657 0.368480
0.509467 0.515632 0.365111
0.649244 0.515641 0.361771
0.783070 0.515682 0.358461
0.906329 0.515756 0.355184
1.000000 0.515864 0.351941
0.005593 0.652246 0.367250
0.118308 0.652234 0.363892
0.244079 0.652254 0.360562
0.379569 0.652306 0.357264
0.519894 0.652390 0.353999
0.659403 0.652507 0.350770
0.792572 0.652657 0.347579
0.914889 0.652839 0.344429
1.000000 0.653055 0.341322
0.013449 0.783127 0.356071
0.127194 0.783218 0.352819
0.253807 0.783339 0.349604
0.389815 0.783490 0.346427
0.530249 0.783673 0.343293
0.669437 0.783888 0.340202
0.801909 0.784134 0.337159
0.923259 0.784413 0.334166
1.000000 0.784725 0.331227
0.021343 0.904195 0.345281
0.136085 0.904371 0.342162
0.263492 0.904576 0.339089
0.399961 0.904810 0.336064
0.540445 0.905073 0.333090
0.679262 0.905367 0.330172
0.810998 0.905693 0.327312
0.931362 0.906050 0.324517
1.000000 0.906442 0.321791
0.029211 1.000000 0.334975
0.144905 1.000000 0.332021
0.273048 1.000000 0.329123
0.409910 1.000000 0.326287
0.550380 1.000000 0.323516
0.688772 1.000000 0.320818
0.819732 1.000000 0.318199
0.939087 1.000000 0.315670
1.000000 1.000000 0.313247
0.000000 0.015781 0.561775
0.077533 0.015277 0.558445
0.198649 0.014821 0.555042
0.330877 0.014405 0.551592
0.469832 0.014025 0.548107
0.610064 0.013678 0.544599
0.745917 0.013364 0.541074
0.872432 0.013079 0.537539
0.986131 0.012823 0.533999
0.000000 0.125467 0.550327
0.085113 0.125052 0.546832
0.207256 0.124675 0.543317
0.340257 0.124332 0.539788
0.479623 0.124023 0.536251
0.619847 0.123746 0.532710
0.755286 0.123500 0.529170
0.881055 0.123285 0.525633
0.993806 0.123099 0.522105
0.000000 0.247659 0.538501
0.093236 0.247334 0.534962
0.216355 0.247043 0.531421
0.350064 0.246787 0.527882
0.489762 0.246563 0.524348
0.629894 0.246372 0.520822
0.764834 0.246212 0.517309
0.889784 0.246084 0.513809
1.000000 0.245988 0.510327
0.000000 0.379285 0.526594
0.101697 0.379061 0.523063
0.225761 0.378871 0.519542
0.360129 0.378715 0.516033
0.500097 0.378592 0.512540
0.640068 0.378502 0.509064
0.774446 0.378445 0.505609
0.898524 0.378420 0.502177
1.000000 0.378427 0.498769
0.000000 0.515883 0.514759
0.110380 0.515770 0.511272
0.235359 0.515691 0.507804
0.370340 0.515645 0.504357
0.510521 0.515631 0.500933
0.650273 0.515651 0.497536
0.784035 0.515704 0.494167
0.907200 0.515789 0.490829
1.000000 0.515908 0.487525
0.006383 0.652238 0.503107
0.119203 0.652237 0.499693
0.245061 0.652268 0.496306
0.380605 0.652331 0.492948
0.520944 0.652426 0.489622
0.660423 0.652554 0.486331
0.793524 0.652715 0.483076
0.915744 0.652909 0.479861
1.000000 0.653136 0.476688
0.014245 0.783155 0.491733
0.128093 0.783255 0.488420
0.254788 0.783387 0.485141
0.390845 0.783549 0.481901
0.531287 0.783742 0.478701
0.670440 0.783968 0.475544
0.802839 0.784225 0.472435
0.924091 0.784515 0.469375
1.000000 0.784838 0.466370
0.022139 0.904252 0.480731
0.136980 0.904438 0.477546
0.264465 0.904652 0.474407
0.400976 0.904896 0.471315
0.541461 0.905170 0.468275
0.680239 0.905474 0.465290
0.811898 0.905811 0.462366
0.932162 0.906179 0.459507
1.000000 0.906582 0.456719
0.030001 1.000000 0.470202
0.145788 1.000000 0.467182
0.274001 1.000000 0.464218
0.410899 1.000000 0.461317
0.551363 1.000000 0.458483
0.689708 1.000000 0.455724
0.820587 1.000000 0.453048
0.939838 1.000000 0.450469
1.000000 1.000000 0.448004
0.000000 0.015604 0.695902
0.078262 0.015117 0.692664
0.199487 0.014675 0.689363
0.331798 0.014272 0.686017
0.470799 0.013903 0.682638
0.611034 0.013568 0.679236
0.746850 0.013264 0.675817
0.873294 0.012989 0.672386
0.986901 0.012743 0.668948
0.000000 0.125322 0.684790
0.085913 0.124920 0.681402
0.208156 0.124555 0.677993
0.341231 0.124224 0.674569
0.480634 0.123925 0.671135
0.620852 0.123659 0.667696
0.756244 0.123424 0.664255
0.881933 0.123219 0.660815
0.994585 0.123043 0.657381
0.000000 0.247545 0.673320
0.094077 0.247231 0.669883
0.217293 0.246952 0.666443
0.351071 0.246707 0.663002
0.490799 0.246494 0.659564
0.630917 0.246314 0.656132
0.765803 0.246165 0.652709
0.890667 0.246048 0.649298
1.000000 0.245962 0.645900
0.000000 0.379205 0.661750
0.102565 0.378993 0.658314
0.226723 0.378815 0.654885
0.361155 0.378670 0.651466
0.501147 0.378558 0.648059
0.641099 0.378479 0.644667
0.775417 0.378433 0.641293
0.899404 0.378419 0.637938
1.000000 0.378437 0.634606
0.000000 0.515841 0.650224
0.111266 0.515740 0.646822
0.236335 0.515671 0.643436
0.371375 0.515636 0.640069
0.511574 0.515634 0.636722
0.651301 0.515665 0.633399
0.784998 0.515729 0.630101
0.908069 0.515826 0.626831
1.000000 0.515956 0.623592
0.007173 0.652234 0.638848
0.120098 0.652244 0.635509
0.246043 0.652286 0.632195
0.381642 0.652360 0.628907
0.521993 0.652466 0.625648
0.661442 0.652605 0.622420
0.794473 0.652777 0.619227
0.916597 0.652982 0.616071
1.000000 0.653221 0.612955
0.015042 0.783185 0.627717
0.128991 0.783297 0.624469
0.255769 0.783438 0.621254
0.391874 0.783611 0.618074
0.532323 0.783815 0.614932
0.671441 0.784051 0.611831
0.803767 0.784320 0.608775
0.924920 0.784621 0.605767
1.000000 0.784956 0.602811
0.022936 0.904312 0.616925
0.137874 0.904507 0.613798
0.265435 0.904732 0.610713
0.401989 0.904986 0.607674
0.542475 0.905270 0.604685
0.681212 0.905585 0.601749
0.812795 0.905932 0.598873
0.932957 0.906312 0.596060
1.000000 0.906727 0.593320
0.030790 1.000000 0.606580
0.146669 1.000000 0.603610
0.274952 1.000000 0.600695
0.411885 1.000000 0.597841
0.552343 1.000000 0.595054
0.690640 1.000000 0.592342
0.821437 1.000000 0.589714
0.940584 1.000000 0.587185
1.000000 1.000000 0.584778
0.000000 0.015433 0.822793
0.079002 0.014962 0.819763
0.200333 0.014534 0.816679
0.332725 0.014143 0.813554
0.471771 0.013786 0.810399
0.612009 0.013461 0.807222
0.747787 0.013167 0.804028
0.874158 0.012902 0.800821
0.987672 0.012666 0.797606
0.000000 0.125181 0.812409
0.086718 0.124792 0.809245
0.209061 0.124438 0.806061
0.342210 0.124119 0.802861
0.481648 0.123832 0.799651
0.621860 0.123576 0.796434
0.757204 0.123351 0.793213
0.882812 0.123156 0.789992
0.995365 0.122990 0.786773
0.000000 0.247435 0.801694
0.094921 0.247133 0.798480
0.218234 0.246865 0.795261
0.352080 0.246631 0.792040
0.491837 0.246430 0.788820
0.631941 0.246260 0.785602
0.766773 0.246122 0.782391
0.891550 0.246015 0.779189
1.000000 0.245940 0.775997
0.000000 0.379129 0.790867
0.103435 0.378929 0.787648
0.227687 0.378762 0.784433
0.362182 0.378628 0.781224
0.502197 0.378528 0.778026
0.642129 0.378460 0.774839
0.776387 0.378424 0.771666
0.900283 0.378422 0.768510
1.000000 0.378451 0.765372
0.000172 0.515803 0.780059
0.112153 0.515713 0.776864
0.237312 0.515656 0.773682
0.372411 0.515632 0.770515
0.512628 0.515641 0.767365
0.652329 0.515683 0.764235
0.785961 0.515758 0.761128
0.908937 0.515866 0.758044
1.000000 0.516008 0.754988
0.007965 0.652234 0.769366
0.120995 0.652254 0.766223
0.247025 0.652307 0.763101
0.382677 0.652392 0.760002
0.523042 0.652510 0.756928
0.662459 0.652660 0.753883
0.795421 0.652843 0.750868
0.917448 0.653060 0.747886
1.000000 0.653310 0.744941
0.015838 0.783220 0.758880
0.129890 0.783341 0.755816
0.256749 0.783494 0.752781
0.392902 0.783677 0.749778
0.533357 0.783892 0.746810
0.672439 0.784139 0.743878
0.804692 0.784418 0.740988
0.925746 0.784731 0.738143
1.000000 0.785078 0.735346
0.023732 0.904375 0.748693
0.138767 0.904580 0.745738
0.266404 0.904815 0.742821
0.403000 0.905079 0.739947
0.543487 0.905373 0.737119
0.682182 0.905699 0.734341
0.813687 0.906057 0.731619
0.933748 0.906449 0.728959
1.000000 0.906877 0.726367
0.031577 1.000000 0.738912
0.147548 1.000000 0.736102
0.275900 1.000000 0.733343
0.412867 1.000000 0.730643
0.553317 1.000000 0.728007
0.691566 1.000000 0.725442
0.822281 1.000000 0.722961
0.941322 1.000000 0.720579
1.000000 1.000000 0.718323
0.000000 0.015268 0.938672
0.079750 0.014812 0.935932
0.201186 0.014397 0.933146
0.333658 0.014018 0.930326
0.472748 0.013672 0.927478
0.612988 0.013358 0.924610
0.748727 0.013074 0.921725
0.875025 0.012819 0.918829
0.988444 0.012591 0.915923
0.000000 0.125045 0.929292
0.087528 0.124668 0.926436
0.209970 0.124326 0.923561
0.343192 0.124018 0.920672
0.482665 0.123741 0.917772
0.622869 0.123496 0.914864
0.758165 0.123281 0.911951
0.883692 0.123096 0.909037
0.996145 0.122941 0.906123
0.000000 0.247328 0.919617
0.095769 0.247038 0.916714
0.219177 0.246782 0.913804
0.353091 0.246559 0.910891
0.492877 0.246368 0.907976
0.632967 0.246210 0.905063
0.767743 0.246082 0.902154
0.892434 0.245986 0.899251
1.000000 0.245921 0.896357
0.000000 0.379057 0.909829
0.104307 0.378868 0.906915
0.228652 0.378713 0.904004
0.363211 0.378590 0.901097
0.503249 0.378501 0.898196
0.643160 0.378444 0.895305
0.777356 0.378420 0.892426
0.901161 0.378428 0.889559
1.000000 0.378469 0.886708
0.000953 0.515768 0.900040
0.113041 0.515690 0.897143
0.238290 0.515644 0.894256
0.373447 0.515631 0.891380
0.513681 0.515652 0.888519
0.653356 0.515705 0.885675
0.786922 0.515791 0.882848
0.909804 0.515911 0.880043
1.000000 0.516064 0.877261
0.008757 0.652237 0.890337
0.121891 0.652269 0.887482
0.248008 0.652332 0.884643
0.383713 0.652428 0.881825
0.524089 0.652557 0.879027
0.663474 0.652718 0.876254
0.796367 0.652913 0.873508
0.918296 0.653141 0.870791
1.000000 0.653403 0.868106
0.016635 0.783258 0.880804
0.130788 0.783390 0.878015
0.257728 0.783552 0.875251
0.393929 0.783746 0.872515
0.534390 0.783972 0.869810
0.673435 0.784230 0.867137
0.805614 0.784521 0.864502
0.926569 0.784845 0.861906
1.000000 0.785204 0.859355
0.024527 0.904441 0.871527
0.139660 0.904656 0.868833
0.267372 0.904901 0.866173
0.404008 0.905175 0.863552
0.544495 0.905480 0.860972
0.683148 0.905817 0.858438
0.814576 0.906187 0.855955
0.934536 0.906590 0.853529
1.000000 0.907030 0.851167
0.032364 1.000000 0.862607
0.148426 1.000000 0.860044
0.276845 1.000000 0.857528
0.413845 1.000000 0.855065
0.554287 1.000000 0.852661
0.692487 1.000000 0.850325
0.823118 1.000000 0.848069
0.942052 1.000000 0.845908
1.000000 1.000000 0.843879
0.000000 0.015109 1.000000
0.080506 0.014667 1.000000
0.202047 0.014264 1.000000
0.334598 0.013897 1.000000
0.473731 0.013562 1.000000
0.613972 0.013258 1.000000
0.749669 0.012984 1.000000
0.875893 0.012738 1.000000
0.989218 0.012520 1.000000
0.000000 0.124913 1.000000
0.088342 0.124548 1.000000
0.210884 0.124218 1.000000
0.344177 0.123920 1.000000
0.483685 0.123654 1.000000
0.623881 0.123420 1.000000
0.759127 0.123215 1.000000
0.884573 0.123040 1.000000
0.996925 0.122894 1.000000
0.000000 0.247226 1.000000
0.096619 0.246948 1.000000
0.220124 0.246703 1.000000
0.354105 0.246491 1.000000
0.493919 0.246311 1.000000
0.633993 0.246163 1.000000
0.768713 0.246046 1.000000
0.893317 0.245961 1.000000
1.000000 0.245906 1.000000
0.000000 0.378989 1.000000
0.105182 0.378812 1.000000
0.229619 0.378668 1.000000
0.364240 0.378556 1.000000
0.504301 0.378478 1.000000
0.644190 0.378432 1.000000
0.778325 0.378419 1.000000
0.902039 0.378438 0.998180
1.000000 0.378490 0.995664
0.001736 0.515738 1.000000
0.113930 0.515671 1.000000
0.239269 0.515636 1.000000
0.374483 0.515635 0.999786
0.514734 0.515666 0.997262
0.654382 0.515730 0.994752
0.787883 0.515828 0.992257
0.910669 0.515959 0.989780
1.000000 0.516123 0.987323
0.009550 0.652244 0.998866
0.122788 0.652287 0.996347
0.248990 0.652361 0.993842
0.384748 0.652468 0.991354
0.525135 0.652608 0.988883
0.664489 0.652781 0.986434
0.797311 0.652986 0.984007
0.919142 0.653226 0.981606
1.000000 0.653500 0.979233
0.017432 0.783299 0.990452
0.131686 0.783441 0.987989
0.258707 0.783615 0.985548
0.394954 0.783819 0.983130
0.535421 0.784056 0.980739
0.674429 0.784325 0.978376
0.806533 0.784627 0.976046
0.927388 0.784963 0.973752
1.000000 0.785334 0.971497
0.025322 0.904511 0.982256
0.140551 0.904736 0.979875
0.268338 0.904991 0.977524
0.405014 0.905275 0.975207
0.545500 0.905591 0.972926
0.684110 0.905939 0.970686
0.815460 0.906320 0.968492
0.935318 0.906736 0.966350
1.000000 0.907188 0.964266
0.033149 1.000000 0.974372
0.149301 1.000000 0.972106
0.277787 1.000000 0.969882
0.414819 1.000000 0.967706
0.555252 1.000000 0.965584
0.693401 1.000000 0.963524
0.823948 1.000000 0.961539
0.942774 1.000000 0.959646
1.000000 1.000000 0.957892
