.claude/skills/youtube-edit/luts/cinematic.cube
# Cinematic — Teal/Orange
# Generated for the youtube-edit skill — CC0
LUT_3D_SIZE 5
0.000000 0.016578 0.050794
0.195396 0.015452 0.045709
0.466033 0.014549 0.040344
0.742221 0.013799 0.034894
0.983069 0.013178 0.029422
0.000000 0.248159 0.032902
0.212636 0.247447 0.027433
0.485637 0.246875 0.021992
0.760965 0.246437 0.016603
0.998412 0.246127 0.011284
0.000000 0.516090 0.014658
0.231466 0.515807 0.009368
0.506307 0.515657 0.004168
0.780171 0.515640 0.000000
1.000000 0.515755 0.000000
0.011063 0.783067 0.000000
0.250862 0.783216 0.000000
0.527125 0.783487 0.000000
0.799103 0.783883 0.000000
1.000000 0.784407 0.000000
0.026835 1.000000 0.000000
0.270173 1.000000 0.000000
0.547406 1.000000 0.000000
0.817133 1.000000 0.000000
1.000000 1.000000 0.000000
0.000000 0.016157 0.291606
0.197002 0.015126 0.285277
0.467919 0.014279 0.278715
0.744061 0.013574 0.272060
0.984596 0.012994 0.265377
0.000000 0.247901 0.269628
0.214489 0.247237 0.262945
0.487695 0.246711 0.256285
0.762898 0.246317 0.249676
0.999973 0.246050 0.243140
0.000000 0.515979 0.247287
0.233410 0.515741 0.240782
0.508413 0.515637 0.234374
0.782105 0.515664 0.228082
1.000000 0.515824 0.221921
0.012653 0.783104 0.225823
0.252826 0.783294 0.219714
0.529209 0.783608 0.213761
0.800976 0.784047 0.207980
1.000000 0.784615 0.202394
0.028420 1.000000 0.205923
0.272092 1.000000 0.200413
0.549393 1.000000 0.195135
0.818871 1.000000 0.190126
1.000000 1.000000 0.185449
0.000000 0.015781 0.561775
0.198649 0.014821 0.555042
0.469832 0.014025 0.548107
0.745917 0.013364 0.541074
0.986131 0.012823 0.533999
0.000000 0.247659 0.538501
0.216355 0.247043 0.531421
0.489762 0.246563 0.524348
0.764834 0.246212 0.517309
1.000000 0.245988 0.510327
0.000000 0.515883 0.514759
0.235359 0.515691 0.507804
0.510521 0.515631 0.500933
0.784035 0.515704 0.494167
1.000000 0.515908 0.487525
0.014245 0.783155 0.491733
0.254788 0.783387 0.485141
0.531287 0.783742 0.478701
0.802839 0.784225 0.472435
1.000000 0.784838 0.466370
0.030001 1.000000 0.470202
0.274001 1.000000 0.464218
0.551363 1.000000 0.458483
0.820587 1.000000 0.453048
1.000000 1.000000 0.448004
0.000000 0.015433 0.822793
0.200333 0.014534 0.816679
0.471771 0.013786 0.810399
0.747787 0.013167 0.804028
0.987672 0.012666 0.797606
0.000000 0.247435 0.801694
0.218234 0.246865 0.795261
0.491837 0.246430 0.788820
0.766773 0.246122 0.782391
1.000000 0.245940 0.775997
0.000172 0.515803 0.780059
0.237312 0.515656 0.773682
0.512628 0.515641 0.767365
0.785961 0.515758 0.761128
1.000000 0.516008 0.754988
0.015838 0.783220 0.758880
0.256749 0.783494 0.752781
0.533357 0.783892 0.746810
0.804692 0.784418 0.740988
1.000000 0.785078 0.735346
0.031577 1.000000 0.738912
0.275900 1.000000 0.733343
0.553317 1.000000 0.728007
0.822281 1.000000 0.722961
1.000000 1.000000 0.718323
0.000000 0.015109 1.000000
0.202047 0.014264 1.000000
0.473731 0.013562 1.000000
0.749669 0.012984 1.000000
0.989218 0.012520 1.000000
0.000000 0.247226 1.000000
0.220124 0.246703 1.000000
0.493919 0.246311 1.000000
0.768713 0.246046 1.000000
1.000000 0.245906 1.000000
0.001736 0.515738 1.000000
0.239269 0.515636 1.000000
0.514734 0.515666 0.997262
0.787883 0.515828 0.992257
1.000000 0.516123 0.987323
0.017432 0.783299 0.990452
0.258707 0.783615 0.985548
0.535421 0.784056 0.980739
0.806533 0.784627 0.976046
1.000000 0.785334 0.971497
0.033149 1.000000 0.974372
0.277787 1.000000 0.969882
0.555252 1.000000 0.965584
0.823948 1.000000 0.961539
1.000000 1.000000 0.957892
