.claude/skills/youtube-edit/luts/cool_noir.cube
# Cool Noir
# Generated for the youtube-edit skill — CC0
LUT_3D_SIZE 17
0.000000 0.000000 0.015817
0.041867 0.001557 0.017577
0.086603 0.003118 0.019343
0.134094 0.004683 0.021114
0.184153 0.006253 0.022889
0.236525 0.007827 0.024670
0.290894 0.009405 0.026457
0.346891 0.010988 0.028248
0.404104 0.012575 0.030045
0.462089 0.014166 0.031847
0.520381 0.015762 0.033654
0.578508 0.017362 0.035466
0.636001 0.018966 0.037283
0.692409 0.020575 0.039106
0.747309 0.022187 0.040933
0.800318 0.023804 0.042766
0.851103 0.025426 0.044604
0.004938 0.048605 0.021759
0.047157 0.050290 0.023537
0.092236 0.051980 0.025320
0.140051 0.053674 0.027108
0.190406 0.055372 0.028902
0.243039 0.057074 0.030700
0.297627 0.058781 0.032504
0.353795 0.060492 0.034313
0.411126 0.062207 0.036127
0.469173 0.063926 0.037946
0.527470 0.065649 0.039771
0.585545 0.067377 0.041600
0.642930 0.069108 0.043435
0.699176 0.070844 0.045275
0.753866 0.072584 0.047120
0.806621 0.074328 0.048970
0.857115 0.076077 0.050825
0.009918 0.101016 0.027761
0.052490 0.102826 0.029556
0.097909 0.104639 0.031356
0.146045 0.106457 0.033162
0.196693 0.108278 0.034973
0.249582 0.110104 0.036789
0.304383 0.111933 0.038610
0.360716 0.113766 0.040436
0.418158 0.115604 0.042268
0.476261 0.117445 0.044104
0.534556 0.119290 0.045946
0.592572 0.121139 0.047793
0.649841 0.122992 0.049645
0.705920 0.124849 0.051502
0.760393 0.126710 0.053364
0.812890 0.128574 0.055231
0.863090 0.130443 0.057104
0.014942 0.157032 0.033821
0.057865 0.158956 0.035633
0.103623 0.160885 0.037451
0.152077 0.162816 0.039274
0.203013 0.164752 0.041102
0.256154 0.166691 0.042936
0.311162 0.168634 0.044774
0.367653 0.170580 0.046618
0.425200 0.172529 0.048466
0.483352 0.174483 0.050320
0.541638 0.176439 0.052179
0.599587 0.178400 0.054043
0.656736 0.180363 0.055912
0.712640 0.182330 0.057787
0.766892 0.184301 0.059666
0.819125 0.186275 0.061551
0.869027 0.188252 0.063440
0.020009 0.216322 0.039939
0.063282 0.218349 0.041769
0.109377 0.220379 0.043604
0.158146 0.222412 0.045445
0.209366 0.224448 0.047290
0.262753 0.226487 0.049141
0.317963 0.228529 0.050996
0.374606 0.230574 0.052857
0.432251 0.232622 0.054723
0.490444 0.234673 0.056594
0.548715 0.236727 0.058470
0.606591 0.238784 0.060352
0.663611 0.240845 0.062238
0.719336 0.242907 0.064129
0.773361 0.244973 0.066026
0.825326 0.247042 0.067927
0.874925 0.249114 0.069834
0.025119 0.278443 0.046116
0.068741 0.280555 0.047963
0.115171 0.282670 0.049816
0.164251 0.284787 0.051673
0.215751 0.286906 0.053536
0.269379 0.289028 0.055404
0.324785 0.291153 0.057277
0.381573 0.293280 0.059155
0.439310 0.295409 0.061038
0.497538 0.297541 0.062926
0.555786 0.299675 0.064819
0.613582 0.301811 0.066717
0.670468 0.303949 0.068621
0.726006 0.306090 0.070529
0.779799 0.308233 0.072443
0.831491 0.310379 0.074361
0.880785 0.312526 0.076284
0.030272 0.342850 0.052351
0.074241 0.345028 0.054215
0.121004 0.347207 0.056085
0.170391 0.349389 0.057960
0.222168 0.351572 0.059840
0.276032 0.353757 0.061725
0.331628 0.355944 0.063615
0.388555 0.358132 0.065510
0.446377 0.360322 0.067410
0.504632 0.362514 0.069315
0.562850 0.364707 0.071225
0.620560 0.366902 0.073140
0.677304 0.369099 0.075061
0.732651 0.371297 0.076986
0.786206 0.373497 0.078916
0.837621 0.375698 0.080851
0.886606 0.377900 0.082792
0.035468 0.408918 0.058644
0.079783 0.411139 0.060525
0.126875 0.413362 0.062412
0.176568 0.415586 0.064304
0.228615 0.417811 0.066201
0.282710 0.420036 0.068103
0.338490 0.422263 0.070010
0.395550 0.424491 0.071922
0.453450 0.426719 0.073839
0.511726 0.428949 0.075761
0.569907 0.431179 0.077688
0.627523 0.433410 0.079620
0.684120 0.435642 0.081557
0.739269 0.437875 0.083499
0.792581 0.440108 0.085446
0.843715 0.442342 0.087398
0.892388 0.444577 0.089355
0.040706 0.475963 0.064994
0.085366 0.478205 0.066893
0.132786 0.480448 0.068796
0.182779 0.482690 0.070705
0.235093 0.484933 0.072619
0.289413 0.487176 0.074538
0.345372 0.489419 0.076462
0.402558 0.491662 0.078391
0.460528 0.493905 0.080325
0.518818 0.496148 0.082264
0.576955 0.498392 0.084208
0.634471 0.500635 0.086156
0.690914 0.502879 0.088110
0.745860 0.505122 0.090069
0.798924 0.507365 0.092032
0.849772 0.509609 0.094001
0.898129 0.511852 0.095974
0.045987 0.543269 0.071401
0.090990 0.545507 0.073317
0.138734 0.547744 0.075238
0.189025 0.549981 0.077164
0.241601 0.552218 0.079094
0.296141 0.554453 0.081030
0.352271 0.556689 0.082971
0.409577 0.558923 0.084916
0.467611 0.561157 0.086867
0.525908 0.563390 0.088823
0.583994 0.565622 0.090783
0.641404 0.567853 0.092748
0.697686 0.570084 0.094719
0.752423 0.572314 0.096694
0.805234 0.574543 0.098674
0.855793 0.576771 0.100659
0.903831 0.578998 0.102649
0.051310 0.610107 0.077866
0.096655 0.612317 0.079799
0.144720 0.614526 0.081736
0.195304 0.616733 0.083679
0.248138 0.618939 0.085626
0.302892 0.621144 0.087578
0.359188 0.623347 0.089536
0.416607 0.625549 0.091498
0.474698 0.627749 0.093465
0.532995 0.629948 0.095437
0.591024 0.632145 0.097414
0.648319 0.634341 0.099396
0.704435 0.636535 0.101383
0.758957 0.638727 0.103374
0.811511 0.640918 0.105371
0.861776 0.643107 0.107372
0.909492 0.645295 0.109378
0.056676 0.675767 0.084387
0.102360 0.677926 0.086336
0.150744 0.680083 0.088290
0.201617 0.682238 0.090250
0.254703 0.684391 0.092214
0.309666 0.686542 0.094183
0.366122 0.688690 0.096156
0.423647 0.690836 0.098135
0.481788 0.692981 0.100119
0.540077 0.695122 0.102107
0.598042 0.697262 0.104101
0.655217 0.699399 0.106099
0.711161 0.701534 0.108102
0.765462 0.703667 0.110110
0.817753 0.705797 0.112122
0.867721 0.707925 0.114140
0.915113 0.710050 0.116162
0.062084 0.739581 0.090964
0.108105 0.741668 0.092930
0.156805 0.743752 0.094901
0.207963 0.745833 0.096876
0.261296 0.747911 0.098857
0.316462 0.749987 0.100842
0.373072 0.752060 0.102833
0.430696 0.754130 0.104828
0.488881 0.756197 0.106828
0.547155 0.758261 0.108832
0.605048 0.760322 0.110842
0.662097 0.762381 0.112856
0.717862 0.764436 0.114875
0.771937 0.766489 0.116899
0.823962 0.768538 0.118928
0.873628 0.770585 0.120961
0.920692 0.772628 0.122999
0.067534 0.800944 0.097597
0.113890 0.802940 0.099579
0.162902 0.804932 0.101566
0.214341 0.806921 0.103558
0.267916 0.808907 0.105555
0.323280 0.810889 0.107557
0.380036 0.812868 0.109563
0.437753 0.814843 0.111575
0.495974 0.816815 0.113591
0.554228 0.818784 0.115612
0.612042 0.820749 0.117637
0.668958 0.822711 0.119667
0.724538 0.824669 0.121703
0.778382 0.826624 0.123742
0.830135 0.828575 0.125787
0.879497 0.830523 0.127836
0.926231 0.832467 0.129890
0.073025 0.859338 0.104285
0.119714 0.861227 0.106283
0.169035 0.863113 0.108287
0.220750 0.864994 0.110295
0.274563 0.866872 0.112308
0.330118 0.868746 0.114326
0.387015 0.870616 0.116348
0.444818 0.872482 0.118376
0.503068 0.874345 0.120408
0.561294 0.876203 0.122445
0.619023 0.878058 0.124486
0.675799 0.879908 0.126532
0.731188 0.881755 0.128583
0.784796 0.883598 0.130638
0.836273 0.885437 0.132699
0.885326 0.887272 0.134763
0.931728 0.889103 0.136833
0.078558 0.914352 0.111027
0.125578 0.916122 0.113042
0.175203 0.917889 0.115062
0.227191 0.919651 0.117086
0.281236 0.921410 0.119115
0.336976 0.923164 0.121149
0.394007 0.924914 0.123187
0.451890 0.926660 0.125230
0.510162 0.928402 0.127278
0.568352 0.930139 0.129331
0.625989 0.931873 0.131388
0.682619 0.933602 0.133450
0.737812 0.935327 0.135516
0.791178 0.937048 0.137587
0.842375 0.938765 0.139663
0.891116 0.940478 0.141743
0.937183 0.942186 0.143828
0.084132 0.965689 0.117824
0.131479 0.967334 0.119855
0.181407 0.968974 0.121890
0.233662 0.970610 0.123931
0.287933 0.972242 0.125975
0.343853 0.973870 0.128025
0.401012 0.975493 0.130079
0.458967 0.977112 0.132138
0.517255 0.978727 0.134202
0.575402 0.980337 0.136270
0.632941 0.981943 0.138342
0.689418 0.983545 0.140420
0.744409 0.985142 0.142501
0.797528 0.986735 0.144588
0.848440 0.988324 0.146679
0.896867 0.989909 0.148774
0.942597 0.991489 0.150874
0.000497 0.000528 0.065148
0.042399 0.002086 0.067047
0.087169 0.003649 0.068951
0.134693 0.005216 0.070861
0.184783 0.006787 0.072775
0.237181 0.008363 0.074694
0.291573 0.009942 0.076618
0.347587 0.011527 0.078548
0.404813 0.013115 0.080482
0.462804 0.014708 0.082421
0.521097 0.016305 0.084366
0.579219 0.017906 0.086315
0.636701 0.019512 0.088269
0.693093 0.021122 0.090228
0.747972 0.022736 0.092192
0.800956 0.024355 0.094161
0.851711 0.025977 0.096135
0.005439 0.049177 0.071557
0.047693 0.050864 0.073473
0.092807 0.052555 0.075394
0.140654 0.054250 0.077320
0.191039 0.055950 0.079251
0.243699 0.057653 0.081188
0.298308 0.059361 0.083129
0.354493 0.061074 0.085075
0.411835 0.062790 0.087026
0.469889 0.064511 0.088982
0.528186 0.066235 0.090943
0.586255 0.067964 0.092908
0.643628 0.069697 0.094879
0.699858 0.071435 0.096855
0.754526 0.073176 0.098835
0.807255 0.074922 0.100820
0.857720 0.076671 0.102811
0.010424 0.101630 0.078023
0.053030 0.103441 0.079956
0.098484 0.105256 0.081894
0.146652 0.107075 0.083837
0.197330 0.108898 0.085784
0.250245 0.110725 0.087737
0.305067 0.112555 0.089695
0.361415 0.114390 0.091658
0.418869 0.116229 0.093625
0.476977 0.118071 0.095598
0.535272 0.119918 0.097575
0.593280 0.121768 0.099557
0.650538 0.123622 0.101544
0.706600 0.125480 0.103536
0.761051 0.127342 0.105533
0.813521 0.129208 0.107535
0.863691 0.131078 0.109541
0.015452 0.157685 0.084545
0.058410 0.159611 0.086495
0.104202 0.161540 0.088449
0.152688 0.163473 0.090409
0.203653 0.165410 0.092373
0.256819 0.167350 0.094343
0.311848 0.169294 0.096317
0.368354 0.171241 0.098296
0.425912 0.173192 0.100280
0.484068 0.175147 0.102269
0.542353 0.177105 0.104263
0.600295 0.179066 0.106261
0.657430 0.181031 0.108265
0.713317 0.182999 0.110273
0.767546 0.184971 0.112286
0.819753 0.186946 0.114304
0.869624 0.188925 0.116326
0.020523 0.217010 0.091124
0.063831 0.219038 0.093090
0.109960 0.221069 0.095061
0.158760 0.223103 0.097037
0.210009 0.225140 0.099018
0.263421 0.227180 0.101004
0.318651 0.229223 0.102994
0.375308 0.231269 0.104990
0.432963 0.233318 0.106990
0.491160 0.235371 0.108995
0.549429 0.237426 0.111005
0.607298 0.239484 0.113020
0.664304 0.241545 0.115039
0.720011 0.243609 0.117064
0.774012 0.245676 0.119093
0.825950 0.247745 0.121126
0.875519 0.249818 0.123165
0.025637 0.279160 0.097758
0.069294 0.281273 0.099740
0.115758 0.283389 0.101728
0.164869 0.285506 0.103720
0.216397 0.287627 0.105718
0.270050 0.289750 0.107720
0.325475 0.291875 0.109727
0.382278 0.294003 0.111738
0.440023 0.296133 0.113755
0.498254 0.298265 0.115776
0.556499 0.300400 0.117802
0.614287 0.302537 0.119833
0.671159 0.304676 0.121868
0.726678 0.306818 0.123908
0.780447 0.308962 0.125953
0.832112 0.311108 0.128002
0.881375 0.313256 0.130057
0.030795 0.343589 0.104447
0.074799 0.345768 0.106446
0.121595 0.347948 0.108450
0.171013 0.350130 0.110458
0.222817 0.352314 0.112472
0.276705 0.354500 0.114490
0.332320 0.356687 0.116513
0.389261 0.358876 0.118541
0.447090 0.361067 0.120573
0.505348 0.363259 0.122610
0.563563 0.365453 0.124652
0.621264 0.367648 0.126699
0.677993 0.369845 0.128750
0.733320 0.372044 0.130806
0.786851 0.374244 0.132866
0.838238 0.376446 0.134931
0.887192 0.378649 0.137001
0.035995 0.409672 0.111191
0.080345 0.411894 0.113206
0.127470 0.414117 0.115226
0.177193 0.416341 0.117251
0.229268 0.418566 0.119280
0.283386 0.420793 0.121314
0.339184 0.423020 0.123353
0.396257 0.425248 0.125397
0.454164 0.427476 0.127445
0.512442 0.429706 0.129498
0.570619 0.431937 0.131555
0.628225 0.434168 0.133617
0.684807 0.436400 0.135684
0.739936 0.438633 0.137756
0.793223 0.440867 0.139832
0.844328 0.443101 0.141912
0.892969 0.445336 0.143997
0.041237 0.476725 0.117989
0.085932 0.478967 0.120020
0.133384 0.481209 0.122056
0.183408 0.483452 0.124096
0.235749 0.485694 0.126142
0.290091 0.487937 0.128192
0.346068 0.490180 0.130246
0.403266 0.492424 0.132305
0.461243 0.494667 0.134369
0.519534 0.496910 0.136438
0.577666 0.499154 0.138511
0.635172 0.501397 0.140588
0.691599 0.503641 0.142671
0.746524 0.505884 0.144757
0.799562 0.508127 0.146849
0.850382 0.510370 0.148944
0.898707 0.512613 0.151044
0.046522 0.544029 0.124841
0.091560 0.546267 0.126887
0.139337 0.548504 0.128939
0.189657 0.550741 0.130995
0.242259 0.552977 0.133056
0.296821 0.555213 0.135122
0.352969 0.557447 0.137192
0.410286 0.559682 0.139267
0.468326 0.561915 0.141346
0.526623 0.564148 0.143430
0.584705 0.566380 0.145518
0.642103 0.568611 0.147611
0.698369 0.570841 0.149708
0.753084 0.573071 0.151810
0.805869 0.575300 0.153916
0.856399 0.577527 0.156027
0.904404 0.579754 0.158142
0.051850 0.610857 0.131745
0.097229 0.613067 0.133808
0.145327 0.615275 0.135875
0.195940 0.617482 0.137947
0.248799 0.619688 0.140023
0.303575 0.621892 0.142104
0.359888 0.624095 0.144190
0.417317 0.626296 0.146280
0.475414 0.628496 0.148374
0.533710 0.630694 0.150473
0.591733 0.632891 0.152576
0.649016 0.635086 0.154684
0.705115 0.637280 0.156797
0.759615 0.639472 0.158914
0.812142 0.641662 0.161035
0.862378 0.643850 0.163160
0.910061 0.646037 0.165290
0.057220 0.676501 0.138702
0.102938 0.678659 0.140780
0.151354 0.680815 0.142863
0.202256 0.682970 0.144950
0.255367 0.685122 0.147042
0.310351 0.687272 0.149138
0.366823 0.689419 0.151238
0.424358 0.691565 0.153343
0.482504 0.693708 0.155453
0.540792 0.695849 0.157567
0.598750 0.697988 0.159685
0.655913 0.700125 0.161808
0.711838 0.702259 0.163935
0.766117 0.704391 0.166067
0.818382 0.706520 0.168202
0.868319 0.708647 0.170342
0.915678 0.710772 0.172487
0.062632 0.740290 0.145711
0.108687 0.742376 0.147804
0.157418 0.744459 0.149902
0.208605 0.746539 0.152004
0.261963 0.748617 0.154111
0.317149 0.750691 0.156222
0.373774 0.752763 0.158338
0.431408 0.754832 0.160458
0.489597 0.756898 0.162582
0.547870 0.758962 0.164711
0.605755 0.761022 0.166844
0.662791 0.763079 0.168981
0.718537 0.765134 0.171123
0.772589 0.767185 0.173269
0.824587 0.769234 0.175419
0.874222 0.771279 0.177573
0.921253 0.773321 0.179732
0.068086 0.801622 0.152771
0.114476 0.803616 0.154879
0.163519 0.805608 0.156992
0.214986 0.807596 0.159109
0.268586 0.809580 0.161230
0.323969 0.811561 0.163356
0.380740 0.813539 0.165487
0.438466 0.815513 0.167621
0.496690 0.817484 0.169760
0.554941 0.819452 0.171903
0.612748 0.821416 0.174051
0.669649 0.823376 0.176203
0.725211 0.825334 0.178359
0.779031 0.827287 0.180519
0.830756 0.829237 0.182683
0.880087 0.831184 0.184852
0.926788 0.833126 0.187024
0.073582 0.859980 0.159881
0.120304 0.861868 0.162004
0.169656 0.863752 0.164131
0.221399 0.865632 0.166263
0.275235 0.867509 0.168399
0.330809 0.869381 0.170540
0.387720 0.871250 0.172685
0.445532 0.873115 0.174834
0.503785 0.874976 0.176987
0.562006 0.876833 0.179145
0.619727 0.878687 0.181306
0.676488 0.880536 0.183472
0.731858 0.882382 0.185642
0.785442 0.884223 0.187816
0.836890 0.886061 0.189995
0.885913 0.887895 0.192177
0.932281 0.889724 0.194363
0.079119 0.914953 0.167040
0.126172 0.916723 0.169178
0.175828 0.918488 0.171320
0.227843 0.920249 0.173467
0.281911 0.922006 0.175617
0.337669 0.923759 0.177772
0.394714 0.925507 0.179931
0.452604 0.927252 0.182094
0.510878 0.928992 0.184262
0.569064 0.930729 0.186433
0.626692 0.932461 0.188609
0.683306 0.934189 0.190789
0.738480 0.935912 0.192973
0.791821 0.937632 0.195161
0.842989 0.939347 0.197352
0.891699 0.941058 0.199548
0.937732 0.942765 0.201748
0.084697 0.966248 0.174249
0.132077 0.967891 0.176401
0.182035 0.969530 0.178558
0.234317 0.971165 0.180718
0.288611 0.972795 0.182883
0.344549 0.974421 0.185052
0.401720 0.976043 0.187225
0.459682 0.977661 0.189402
0.517971 0.979274 0.191583
0.576114 0.980883 0.193769
0.633642 0.982487 0.195958
0.690103 0.984088 0.198151
0.745074 0.985684 0.200349
0.798168 0.987275 0.202550
0.849051 0.988863 0.204756
0.897445 0.990446 0.206965
0.943141 0.992025 0.209178
0.000993 0.001057 0.118154
0.042931 0.002617 0.120185
0.087737 0.004181 0.122221
0.135293 0.005749 0.124262
0.185413 0.007322 0.126308
0.237838 0.008899 0.128358
0.292252 0.010480 0.130413
0.348284 0.012066 0.132473
0.405521 0.013655 0.134537
0.463519 0.015250 0.136606
0.521813 0.016848 0.138679
0.579930 0.018451 0.140757
0.637401 0.020058 0.142840
0.693777 0.021669 0.144927
0.748635 0.023285 0.147019
0.801593 0.024905 0.149115
0.852320 0.026529 0.151215
0.005940 0.049749 0.125007
0.048230 0.051437 0.127054
0.093378 0.053130 0.129106
0.141258 0.054827 0.131163
0.191673 0.056528 0.133224
0.244358 0.058233 0.135290
0.298989 0.059942 0.137360
0.355191 0.061656 0.139435
0.412545 0.063374 0.141515
0.470604 0.065096 0.143599
0.528901 0.066822 0.145688
0.586965 0.068552 0.147781
0.644327 0.070287 0.149879
0.700540 0.072026 0.151981
0.755186 0.073768 0.154088
0.807889 0.075515 0.156199
0.858324 0.077266 0.158314
0.010929 0.102245 0.131912
0.053571 0.104057 0.133975
0.099060 0.105873 0.136043
0.147260 0.107693 0.138115
0.197966 0.109518 0.140192
0.250907 0.111346 0.142273
0.305750 0.113178 0.144359
0.362115 0.115014 0.146449
0.419579 0.116854 0.148544
0.477692 0.118698 0.150644
0.535987 0.120546 0.152748
0.593989 0.122397 0.154856
0.651235 0.124253 0.156969
0.707279 0.126112 0.159086
0.761708 0.127976 0.161207
0.814152 0.129843 0.163333
0.864292 0.131714 0.165463
0.015962 0.158339 0.138871
0.058955 0.160266 0.140949
0.104782 0.162196 0.143032
0.153299 0.164131 0.145120
0.204293 0.166069 0.147212
0.257484 0.168010 0.149308
0.312534 0.169955 0.151409
0.369055 0.171904 0.153515
0.426623 0.173856 0.155624
0.484784 0.175811 0.157739
0.543068 0.177770 0.159857
0.601002 0.179733 0.161981
0.658125 0.181699 0.164108
0.713994 0.183668 0.166240
0.768201 0.185641 0.168376
0.820380 0.187618 0.170516
0.870221 0.189597 0.172661
0.021037 0.217699 0.145881
0.064380 0.219727 0.147974
0.110544 0.221759 0.150072
0.159375 0.223794 0.152175
0.210653 0.225832 0.154282
0.264089 0.227873 0.156394
0.319339 0.229918 0.158510
0.376011 0.231965 0.160630
0.433676 0.234015 0.162755
0.491877 0.236068 0.164884
0.550143 0.238124 0.167017
0.608004 0.240183 0.169155
0.664997 0.242245 0.171297
0.720685 0.244310 0.173443
0.774663 0.246378 0.175594
0.826573 0.248449 0.177748
0.876112 0.250522 0.179907
0.026156 0.279877 0.152942
0.069848 0.281991 0.155050
0.116345 0.284108 0.157164
0.165488 0.286226 0.159281
0.217044 0.288347 0.161403
0.270720 0.290471 0.163529
0.326165 0.292597 0.165660
0.382982 0.294726 0.167795
0.440736 0.296857 0.169934
0.498971 0.298990 0.172078
0.557213 0.301125 0.174225
0.614992 0.303263 0.176378
0.671850 0.305403 0.178534
0.727350 0.307546 0.180694
0.781095 0.309690 0.182859
0.832732 0.311837 0.185028
0.881964 0.313986 0.187201
0.031318 0.344329 0.160053
0.075357 0.346508 0.162177
0.122186 0.348689 0.164304
0.171636 0.350872 0.166437
0.223467 0.353056 0.168573
0.277378 0.355242 0.170714
0.333012 0.357430 0.172859
0.389967 0.359620 0.175008
0.447804 0.361811 0.177162
0.506065 0.364004 0.179320
0.564276 0.366198 0.181482
0.621967 0.368394 0.183648
0.678682 0.370592 0.185819
0.733989 0.372791 0.187993
0.787496 0.374992 0.190172
0.838854 0.377194 0.192354
0.887777 0.379397 0.194541
0.036522 0.410427 0.167214
0.080907 0.412649 0.169352
0.128066 0.414872 0.171494
0.177819 0.417097 0.173641
0.229921 0.419322 0.175792
0.284061 0.421549 0.177947
0.339878 0.423776 0.180107
0.396964 0.426004 0.182270
0.454878 0.428234 0.184438
0.513158 0.430464 0.186610
0.571331 0.432694 0.188786
0.628927 0.434926 0.190966
0.685493 0.437158 0.193150
0.740602 0.439392 0.195338
0.793864 0.441626 0.197531
0.844941 0.443860 0.199727
0.893550 0.446095 0.201927
0.041769 0.477486 0.174424
0.086498 0.479728 0.176576
0.133984 0.481971 0.178733
0.184037 0.484213 0.180894
0.236405 0.486456 0.183059
0.290770 0.488699 0.185228
0.346763 0.490942 0.187402
0.403974 0.493185 0.189579
0.461958 0.495429 0.191761
0.520250 0.497672 0.193946
0.578377 0.499916 0.196136
0.635872 0.502159 0.198330
0.692283 0.504402 0.200528
0.747187 0.506646 0.202729
0.800201 0.508889 0.204935
0.850991 0.511132 0.207145
0.899284 0.513375 0.209358
0.047058 0.544789 0.181682
0.092131 0.547027 0.183848
0.139940 0.549264 0.186019
0.190290 0.551500 0.188194
0.242918 0.553736 0.190373
0.297502 0.555972 0.192556
0.353667 0.558206 0.194743
0.410996 0.560440 0.196934
0.469042 0.562673 0.199129
0.527339 0.564906 0.201329
0.585414 0.567138 0.203532
0.642801 0.569369 0.205739
0.699051 0.571599 0.207950
0.753744 0.573828 0.210165
0.806504 0.576056 0.212384
0.857004 0.578284 0.214607
0.904977 0.580510 0.216833
0.052390 0.611608 0.188987
0.097804 0.613817 0.191167
0.145934 0.616025 0.193352
0.196576 0.618232 0.195540
0.249461 0.620437 0.197733
0.304258 0.622640 0.199930
0.360587 0.624843 0.202130
0.418028 0.627043 0.204335
0.476130 0.629243 0.206544
0.534425 0.631440 0.208756
0.592441 0.633637 0.210972
0.649713 0.635831 0.213193
0.705795 0.638024 0.215417
0.760273 0.640216 0.217645
0.812774 0.642405 0.219876
0.862979 0.644593 0.222112
0.910630 0.646779 0.224351
0.057764 0.677234 0.196338
0.103517 0.679392 0.198532
0.151965 0.681547 0.200730
0.202896 0.683701 0.202933
0.256032 0.685852 0.205139
0.311036 0.688001 0.207349
0.367524 0.690148 0.209562
0.425070 0.692293 0.211780
0.483220 0.694436 0.214002
0.541507 0.696576 0.216227
0.599457 0.698714 0.218457
0.656608 0.700850 0.220690
0.712516 0.702983 0.222927
0.766772 0.705114 0.225167
0.819010 0.707243 0.227412
0.868917 0.709369 0.229660
0.916243 0.711493 0.231911
0.063181 0.740998 0.203735
0.109270 0.743083 0.205943
0.158033 0.745166 0.208154
0.209248 0.747245 0.210369
0.262630 0.749321 0.212589
0.317837 0.751395 0.214812
0.374477 0.753466 0.217039
0.432120 0.755534 0.219269
0.490313 0.757599 0.221504
0.548584 0.759662 0.223742
0.606461 0.761721 0.225984
0.663484 0.763777 0.228230
0.719212 0.765831 0.230479
0.773241 0.767881 0.232732
0.825211 0.769929 0.234989
0.874816 0.771973 0.237249
0.921814 0.774014 0.239513
0.068639 0.802300 0.211177
0.115063 0.804293 0.213398
0.164137 0.806283 0.215622
0.215632 0.808270 0.217850
0.269256 0.810253 0.220082
0.324659 0.812233 0.222318
0.381444 0.814210 0.224558
0.439179 0.816183 0.226801
0.497407 0.818153 0.229048
0.555655 0.820119 0.231299
0.613453 0.822082 0.233553
0.670341 0.824041 0.235811
0.725883 0.825997 0.238073
0.779680 0.827950 0.240338
0.831377 0.829899 0.242606
0.880677 0.831844 0.244878
0.927344 0.833786 0.247154
0.074139 0.860622 0.218662
0.120895 0.862508 0.220896
0.170277 0.864391 0.223133
0.222048 0.866270 0.225374
0.275908 0.868145 0.227619
0.331501 0.870016 0.229867
0.388426 0.871884 0.232119
0.446246 0.873748 0.234375
0.504501 0.875607 0.236634
0.562719 0.877463 0.238897
0.620431 0.879315 0.241163
0.677177 0.881163 0.243433
0.732528 0.883007 0.245706
0.786087 0.884848 0.247983
0.837508 0.886684 0.250264
0.886498 0.888516 0.252547
0.932833 0.890345 0.254835
0.079680 0.915555 0.226191
0.126766 0.917323 0.228437
0.176453 0.919086 0.230686
0.228495 0.920846 0.232940
0.282586 0.922602 0.235197
0.338363 0.924353 0.237457
0.395420 0.926100 0.239721
0.453318 0.927843 0.241989
0.511594 0.929582 0.244260
0.569776 0.931317 0.246535
0.627394 0.933048 0.248813
0.683994 0.934774 0.251095
0.739146 0.936497 0.253380
0.792463 0.938215 0.255668
0.843602 0.939929 0.257960
0.892281 0.941638 0.260255
0.938280 0.943344 0.262553
0.085262 0.966807 0.233761
0.132676 0.968449 0.236019
0.182663 0.970086 0.238281
0.234973 0.971719 0.240547
0.289289 0.973348 0.242816
0.345244 0.974973 0.245088
0.402428 0.976593 0.247364
0.460397 0.978209 0.249643
0.518686 0.979821 0.251926
0.576825 0.981428 0.254212
0.634343 0.983031 0.256502
0.690788 0.984630 0.258795
0.745738 0.986225 0.261091
0.798807 0.987815 0.263391
0.849660 0.989401 0.265694
0.898023 0.990982 0.268000
0.943685 0.992560 0.270309
0.001491 0.001586 0.174598
0.043464 0.003147 0.176751
0.088304 0.004713 0.178908
0.135894 0.006283 0.181069
0.186043 0.007857 0.183235
0.238495 0.009435 0.185405
0.292931 0.011018 0.187578
0.348980 0.012605 0.189756
0.406230 0.014196 0.191938
0.464234 0.015792 0.194124
0.522529 0.017392 0.196314
0.580640 0.018996 0.198508
0.638101 0.020605 0.200706
0.694461 0.022218 0.202908
0.749298 0.023835 0.205114
0.802230 0.025456 0.207324
0.852928 0.027082 0.209538
0.006442 0.050322 0.181857
0.048767 0.052012 0.184024
