.claude/skills/youtube-edit/luts/cool_noir.cube
# Cool Noir
# Generated for the youtube-edit skill — CC0
LUT_3D_SIZE 9
0.000000 0.000000 0.015817
0.086603 0.003118 0.019343
0.184153 0.006253 0.022889
0.290894 0.009405 0.026457
0.404104 0.012575 0.030045
0.520381 0.015762 0.033654
0.636001 0.018966 0.037283
0.747309 0.022187 0.040933
0.851103 0.025426 0.044604
0.009918 0.101016 0.027761
0.097909 0.104639 0.031356
0.196693 0.108278 0.034973
0.304383 0.111933 0.038610
0.418158 0.115604 0.042268
0.534556 0.119290 0.045946
0.649841 0.122992 0.049645
0.760393 0.126710 0.053364
0.863090 0.130443 0.057104
0.020009 0.216322 0.039939
0.109377 0.220379 0.043604
0.209366 0.224448 0.047290
0.317963 0.228529 0.050996
0.432251 0.232622 0.054723
0.548715 0.236727 0.058470
0.663611 0.240845 0.062238
0.773361 0.244973 0.066026
0.874925 0.249114 0.069834
0.030272 0.342850 0.052351
0.121004 0.347207 0.056085
0.222168 0.351572 0.059840
0.331628 0.355944 0.063615
0.446377 0.360322 0.067410
0.562850 0.364707 0.071225
0.677304 0.369099 0.075061
0.786206 0.373497 0.078916
0.886606 0.377900 0.082792
0.040706 0.475963 0.064994
0.132786 0.480448 0.068796
0.235093 0.484933 0.072619
0.345372 0.489419 0.076462
0.460528 0.493905 0.080325
0.576955 0.498392 0.084208
0.690914 0.502879 0.088110
0.798924 0.507365 0.092032
0.898129 0.511852 0.095974
0.051310 0.610107 0.077866
0.144720 0.614526 0.081736
0.248138 0.618939 0.085626
0.359188 0.623347 0.089536
0.474698 0.627749 0.093465
0.591024 0.632145 0.097414
0.704435 0.636535 0.101383
0.811511 0.640918 0.105371
0.909492 0.645295 0.109378
0.062084 0.739581 0.090964
0.156805 0.743752 0.094901
0.261296 0.747911 0.098857
0.373072 0.752060 0.102833
0.488881 0.756197 0.106828
0.605048 0.760322 0.110842
0.717862 0.764436 0.114875
0.823962 0.768538 0.118928
0.920692 0.772628 0.122999
0.073025 0.859338 0.104285
0.169035 0.863113 0.108287
0.274563 0.866872 0.112308
0.387015 0.870616 0.116348
0.503068 0.874345 0.120408
0.619023 0.878058 0.124486
0.731188 0.881755 0.128583
0.836273 0.885437 0.132699
0.931728 0.889103 0.136833
0.084132 0.965689 0.117824
0.181407 0.968974 0.121890
0.287933 0.972242 0.125975
0.401012 0.975493 0.130079
0.517255 0.978727 0.134202
0.632941 0.981943 0.138342
0.744409 0.985142 0.142501
0.848440 0.988324 0.146679
0.942597 0.991489 0.150874
0.000993 0.001057 0.118154
0.087737 0.004181 0.122221
0.185413 0.007322 0.126308
0.292252 0.010480 0.130413
0.405521 0.013655 0.134537
0.521813 0.016848 0.138679
0.637401 0.020058 0.142840
0.748635 0.023285 0.147019
0.852320 0.026529 0.151215
0.010929 0.102245 0.131912
0.099060 0.105873 0.136043
0.197966 0.109518 0.140192
0.305750 0.113178 0.144359
0.419579 0.116854 0.148544
0.535987 0.120546 0.152748
0.651235 0.124253 0.156969
0.761708 0.127976 0.161207
0.864292 0.131714 0.165463
0.021037 0.217699 0.145881
0.110544 0.221759 0.150072
0.210653 0.225832 0.154282
0.319339 0.229918 0.158510
0.433676 0.234015 0.162755
0.550143 0.238124 0.167017
0.664997 0.242245 0.171297
0.774663 0.246378 0.175594
0.876112 0.250522 0.179907
0.031318 0.344329 0.160053
0.122186 0.348689 0.164304
0.223467 0.353056 0.168573
0.333012 0.357430 0.172859
0.447804 0.361811 0.177162
0.564276 0.366198 0.181482
0.678682 0.370592 0.185819
0.787496 0.374992 0.190172
0.887777 0.379397 0.194541
0.041769 0.477486 0.174424
0.133984 0.481971 0.178733
0.236405 0.486456 0.183059
0.346763 0.490942 0.187402
0.461958 0.495429 0.191761
0.578377 0.499916 0.196136
0.692283 0.504402 0.200528
0.800201 0.508889 0.204935
0.899284 0.513375 0.209358
0.052390 0.611608 0.188987
0.145934 0.616025 0.193352
0.249461 0.620437 0.197733
0.360587 0.624843 0.202130
0.476130 0.629243 0.206544
0.592441 0.633637 0.210972
0.705795 0.638024 0.215417
0.812774 0.642405 0.219876
0.910630 0.646779 0.224351
0.063181 0.740998 0.203735
0.158033 0.745166 0.208154
0.262630 0.749321 0.212589
0.374477 0.753466 0.217039
0.490313 0.757599 0.221504
0.606461 0.761721 0.225984
0.719212 0.765831 0.230479
0.825211 0.769929 0.234989
0.921814 0.774014 0.239513
0.074139 0.860622 0.218662
0.170277 0.864391 0.223133
0.275908 0.868145 0.227619
0.388426 0.871884 0.232119
0.504501 0.875607 0.236634
0.620431 0.879315 0.241163
0.732528 0.883007 0.245706
0.837508 0.886684 0.250264
0.932833 0.890345 0.254835
0.085262 0.966807 0.233761
0.182663 0.970086 0.238281
0.289289 0.973348 0.242816
0.402428 0.976593 0.247364
0.518686 0.979821 0.251926
0.634343 0.983031 0.256502
0.745738 0.986225 0.261091
0.849660 0.989401 0.265694
0.943685 0.992560 0.270309
0.001989 0.002116 0.234128
0.088872 0.005245 0.238649
0.186674 0.008392 0.243184
0.293610 0.011556 0.247734
0.406938 0.014738 0.252297
0.523244 0.017936 0.256874
0.638801 0.021152 0.261465
0.749960 0.024385 0.266068
0.853535 0.027635 0.270684
0.011942 0.103475 0.249394
0.100212 0.107109 0.253962
0.199241 0.110759 0.258544
0.307118 0.114425 0.263139
0.421001 0.118106 0.267747
0.537417 0.121803 0.272368
0.652627 0.125515 0.277002
0.763021 0.129243 0.281648
0.865492 0.132987 0.286306
0.022067 0.219076 0.264815
0.111712 0.223141 0.269428
0.211941 0.227218 0.274054
0.320716 0.231308 0.278692
0.435101 0.235409 0.283342
0.551571 0.239523 0.288005
0.666382 0.243648 0.292679
0.775964 0.247784 0.297365
0.877296 0.251932 0.302063
0.032365 0.345809 0.280384
0.123370 0.350171 0.285039
0.224768 0.354541 0.289705
0.334397 0.358917 0.294384
0.449232 0.363300 0.299074
0.565701 0.367690 0.303776
0.680059 0.372085 0.308488
0.788784 0.376487 0.313211
0.888945 0.380895 0.317945
0.042833 0.479009 0.296090
0.135183 0.483494 0.300785
0.237717 0.487980 0.305490
0.348156 0.492466 0.310206
0.463388 0.496953 0.314934
0.579799 0.501439 0.319671
0.693651 0.505926 0.324419
0.801476 0.510413 0.329176
0.900436 0.514898 0.333944
0.053472 0.613109 0.311926
0.147148 0.617524 0.316657
0.250785 0.621934 0.321398
0.361986 0.626338 0.326150
0.477561 0.630736 0.330911
0.593859 0.635127 0.335682
0.707154 0.639513 0.340462
0.814036 0.643891 0.345251
0.911767 0.648263 0.350049
0.064279 0.742415 0.327882
0.159262 0.746578 0.332647
0.263966 0.750730 0.337421
0.375882 0.754871 0.342204
0.491745 0.759000 0.346997
0.607874 0.763118 0.351798
0.720561 0.767224 0.356608
0.826459 0.771317 0.361426
0.922934 0.775399 0.366251
0.075254 0.861904 0.343948
0.171521 0.865668 0.348744
0.277254 0.869417 0.353548
0.389837 0.873150 0.358361
0.505933 0.876868 0.363182
0.621838 0.880571 0.368010
0.733866 0.884258 0.372846
0.838741 0.887929 0.377690
0.933936 0.891585 0.382540
0.086394 0.967922 0.360115
0.183922 0.971196 0.364939
0.290645 0.974452 0.369770
0.403844 0.977691 0.374609
0.520118 0.980913 0.379455
0.635744 0.984118 0.384308
0.747065 0.987305 0.389167
0.850879 0.990476 0.394033
0.944771 0.993629 0.398906
0.002986 0.003177 0.360506
0.090010 0.006312 0.365331
0.187936 0.009465 0.370163
0.294970 0.012635 0.375002
0.408356 0.015822 0.379849
0.524676 0.019026 0.384702
0.640200 0.022248 0.389562
0.751284 0.025487 0.394429
0.854749 0.028743 0.399302
0.012956 0.104708 0.376766
0.101365 0.108347 0.381615
0.200517 0.112002 0.386471
0.308487 0.115673 0.391333
0.422422 0.119360 0.396202
0.538846 0.123062 0.401077
0.654019 0.126780 0.405957
0.764333 0.130513 0.410843
0.866690 0.134262 0.415734
0.023099 0.220455 0.393105
0.112882 0.224524 0.397976
0.213230 0.228606 0.402853
0.322093 0.232699 0.407736
0.436526 0.236805 0.412623
0.552999 0.240922 0.417516
0.667767 0.245051 0.422414
0.777264 0.249192 0.427316
0.878479 0.253344 0.432222
0.033414 0.347290 0.409514
0.124555 0.351654 0.414404
0.226069 0.356026 0.419299
0.335782 0.360405 0.424198
0.450660 0.364790 0.429102
0.567126 0.369182 0.434010
0.681435 0.373580 0.438921
0.790071 0.377983 0.443837
0.890113 0.382393 0.448755
0.043900 0.480532 0.425983
0.136384 0.485017 0.430888
0.239031 0.489503 0.435797
0.349549 0.493990 0.440710
0.464818 0.498476 0.445627
0.581220 0.502963 0.450546
0.695019 0.507450 0.455469
0.802750 0.511936 0.460394
0.901588 0.516422 0.465321
0.054555 0.614609 0.442500
0.148365 0.619022 0.447417
0.252111 0.623430 0.452338
0.363386 0.627832 0.457262
0.478992 0.632228 0.462187
0.595276 0.636617 0.467116
0.708512 0.641001 0.472046
0.815296 0.645377 0.476977
0.912901 0.649747 0.481910
0.065380 0.743830 0.459055
0.160493 0.747990 0.463981
0.265303 0.752138 0.468910
0.377288 0.756275 0.473841
0.493177 0.760400 0.478773
0.609286 0.764514 0.483706
0.721909 0.768615 0.488641
0.827705 0.772705 0.493576
0.924052 0.776782 0.498511
0.076371 0.863184 0.475636
0.172767 0.866943 0.480569
0.278602 0.870686 0.485503
0.391249 0.874415 0.490437
0.507365 0.878127 0.495373
0.623244 0.881825 0.500308
0.735204 0.885506 0.505244
0.839973 0.889172 0.510179
0.935037 0.892822 0.515113
0.087528 0.969036 0.492234
0.185181 0.972304 0.497169
0.292002 0.975554 0.502105
0.405261 0.978787 0.507040
0.521550 0.982003 0.511975
0.637144 0.985202 0.516910
0.748391 0.988384 0.521843
0.852096 0.991548 0.526775
0.945855 0.994696 0.531705
0.003984 0.004240 0.492635
0.091149 0.007381 0.497570
0.189200 0.010540 0.502506
0.296330 0.013715 0.507441
0.409774 0.016908 0.512376
0.526107 0.020119 0.517310
0.641598 0.023346 0.522243
0.752606 0.026591 0.527175
0.855961 0.029852 0.532106
0.013972 0.105942 0.509238
0.102521 0.109586 0.514173
0.201795 0.113247 0.519106
0.309856 0.116923 0.524039
0.423845 0.120615 0.528970
0.540276 0.124323 0.533900
0.655411 0.128046 0.538828
0.765644 0.131784 0.543753
0.867888 0.135538 0.548676
0.024133 0.221836 0.525835
0.114053 0.225909 0.530765
0.214520 0.229995 0.535694
0.323471 0.234092 0.540621
0.437952 0.238202 0.545546
0.554426 0.242323 0.550468
0.669150 0.246456 0.555387
0.778563 0.250600 0.560302
0.879661 0.254756 0.565215
0.034465 0.348771 0.542414
0.125743 0.353138 0.547338
0.227372 0.357512 0.552259
0.337169 0.361893 0.557177
0.452088 0.366281 0.562091
0.568550 0.370675 0.567002
0.682810 0.375074 0.571909
0.791357 0.379480 0.576812
0.891278 0.383892 0.581710
0.044968 0.482055 0.558966
0.137587 0.486540 0.563879
0.240346 0.491027 0.568789
0.350943 0.495513 0.573695
0.466248 0.500000 0.578596
0.582641 0.504487 0.583492
0.696385 0.508973 0.588384
0.804023 0.513460 0.593271
0.902737 0.517945 0.598152
0.055640 0.616108 0.575479
0.149582 0.620520 0.580379
0.253437 0.624926 0.585274
0.364787 0.629325 0.590164
0.480424 0.633719 0.595049
0.596692 0.638107 0.599928
0.709869 0.642488 0.604802
0.816555 0.646862 0.609669
0.914035 0.651229 0.614530
0.066482 0.745244 0.591943
0.161726 0.749400 0.596826
0.266640 0.753544 0.601703
0.378695 0.757677 0.606574
0.494609 0.761798 0.611440
0.610698 0.765908 0.616299
0.723256 0.770005 0.621151
0.828950 0.774091 0.625996
0.925169 0.778164 0.630834
0.077490 0.864462 0.608346
0.174014 0.868216 0.613209
0.279950 0.871954 0.618066
0.392661 0.875677 0.622915
0.508797 0.879385 0.627758
0.624650 0.883077 0.632593
0.736540 0.886753 0.637421
0.841204 0.890414 0.642241
0.936137 0.894058 0.647052
0.088664 0.970148 0.624679
0.186442 0.973409 0.629519
0.293360 0.976654 0.634352
0.406678 0.979881 0.639176
0.522981 0.983092 0.643993
0.638544 0.986285 0.648802
0.749717 0.989460 0.653602
0.853312 0.992619 0.658393
0.946938 0.995760 0.663176
0.004985 0.005304 0.625073
0.092289 0.008452 0.629912
0.190466 0.011616 0.634744
0.297691 0.014798 0.639568
0.411193 0.017997 0.644384
0.527538 0.021213 0.649192
0.642995 0.024446 0.653991
0.753928 0.027696 0.658782
0.857172 0.030964 0.663564
0.014990 0.107178 0.641322
0.103678 0.110828 0.646135
0.203073 0.114494 0.650940
0.311227 0.118175 0.655737
0.425267 0.121873 0.660524
0.541706 0.125585 0.665302
0.656801 0.129314 0.670071
0.766954 0.133057 0.674830
0.869083 0.136816 0.679580
0.025168 0.223218 0.657481
0.115226 0.227295 0.662265
0.215812 0.231385 0.667039
0.324850 0.235486 0.671805
0.439377 0.239600 0.676560
0.555853 0.243725 0.681306
0.670533 0.247862 0.686041
0.779860 0.252010 0.690766
0.880841 0.256170 0.695481
0.035517 0.350253 0.673537
0.126931 0.354623 0.678289
0.228677 0.358999 0.683031
0.338556 0.363383 0.687763
0.453517 0.367772 0.692484
0.569974 0.372168 0.697194
0.684185 0.376570 0.701893
0.792641 0.380978 0.706581
0.892442 0.385391 0.711257
0.046037 0.483578 0.689483
0.138791 0.488064 0.694200
0.241663 0.492550 0.698906
0.352337 0.497037 0.703601
0.467679 0.501524 0.708285
0.584061 0.506010 0.712957
0.697751 0.510497 0.717617
0.805294 0.514983 0.722265
0.903885 0.519468 0.726901
0.056727 0.617607 0.705308
0.150802 0.622017 0.709987
0.254765 0.626420 0.714655
0.366188 0.630818 0.719310
0.481856 0.635210 0.723954
0.598108 0.639595 0.728585
0.711225 0.643974 0.733203
0.817813 0.648346 0.737809
0.915166 0.652710 0.742401
0.067586 0.746656 0.721002
0.162960 0.750808 0.725641
0.267979 0.754949 0.730268
0.380102 0.759078 0.734882
0.496042 0.763195 0.739482
0.612109 0.767301 0.744070
0.724601 0.771394 0.748644
0.830194 0.775476 0.753205
0.926283 0.779545 0.757751
0.078611 0.865738 0.736558
0.175262 0.869487 0.741154
0.281299 0.873220 0.745737
0.394074 0.876938 0.750306
0.510230 0.880640 0.754862
0.626056 0.884327 0.759403
0.737875 0.887998 0.763931
0.842433 0.891653 0.768444
0.937235 0.895292 0.772942
0.089801 0.971257 0.751966
0.187704 0.974513 0.756517
0.294720 0.977752 0.761053
0.408095 0.980974 0.765575
0.524413 0.984178 0.770083
0.639943 0.987365 0.774576
0.751041 0.990535 0.779055
0.854526 0.993688 0.783518
0.948019 0.996823 0.787966
0.005987 0.006371 0.752336
0.093432 0.009524 0.756886
0.191732 0.012695 0.761421
0.299054 0.015882 0.765942
0.412612 0.019087 0.770449
0.528969 0.022309 0.774941
0.644392 0.025548 0.779418
0.755248 0.028804 0.783880
0.858381 0.032078 0.788326
0.016010 0.108415 0.767584
0.104836 0.112071 0.772086
0.204354 0.115742 0.776572
0.312598 0.119429 0.781044
0.426690 0.123132 0.785500
0.543135 0.126850 0.789942
0.658191 0.130583 0.794367
0.768262 0.134332 0.798777
0.870277 0.138096 0.803171
0.026205 0.224601 0.782668
0.116401 0.228683 0.787119
0.217105 0.232776 0.791555
0.326230 0.236882 0.795975
0.440804 0.241000 0.800379
0.557280 0.245129 0.804767
0.671915 0.249270 0.809139
0.781156 0.253422 0.813495
0.882019 0.257585 0.817834
0.036572 0.351737 0.797580
0.128122 0.356109 0.801978
0.229982 0.360487 0.806361
0.339944 0.364873 0.810727
0.454946 0.369264 0.815076
0.571398 0.373662 0.819410
0.685558 0.378066 0.823726
0.793925 0.382476 0.828026
0.893605 0.386891 0.832308
0.047109 0.485102 0.812312
0.139997 0.489587 0.816656
0.242980 0.494074 0.820983
0.353732 0.498561 0.825293
0.469109 0.503047 0.829587
0.585481 0.507534 0.833863
0.699115 0.512020 0.838122
0.806564 0.516506 0.842363
0.905031 0.520991 0.846587
0.057816 0.619105 0.826858
0.152022 0.623513 0.831145
0.256094 0.627915 0.835415
0.367590 0.632310 0.839668
0.483288 0.636700 0.843903
0.599524 0.641083 0.848120
0.712580 0.645459 0.852320
0.819069 0.649829 0.856501
0.916296 0.654191 0.860665
0.068691 0.748068 0.841212
0.164195 0.752216 0.845440
0.269319 0.756352 0.849651
0.381510 0.760477 0.853844
0.497474 0.764591 0.858019
0.613519 0.768692 0.862176
0.725946 0.772782 0.866314
0.831436 0.776859 0.870434
0.927396 0.780924 0.874536
0.079733 0.867013 0.855366
0.176512 0.870757 0.859534
0.282650 0.874485 0.863685
0.395487 0.878197 0.867816
0.511662 0.881894 0.871930
0.627460 0.885575 0.876024
0.739209 0.889241 0.880100
0.843660 0.892891 0.884157
0.938331 0.896525 0.888195
0.090939 0.972365 0.869316
0.188968 0.975615 0.873422
0.296080 0.978848 0.877510
0.409514 0.982064 0.881579
0.525844 0.985262 0.885629
0.641341 0.988444 0.889660
0.752363 0.991608 0.893672
0.855739 0.994755 0.897665
0.949098 0.997884 0.901638
0.006991 0.007440 0.869650
0.094576 0.010599 0.873755
0.193001 0.013775 0.877841
0.300417 0.016969 0.881909
0.414031 0.020179 0.885957
0.530400 0.023407 0.889987
0.645788 0.026652 0.893997
0.756567 0.029914 0.897988
0.859589 0.033193 0.901960
0.017031 0.109655 0.883385
0.105997 0.113316 0.887427
0.205635 0.116993 0.891449
0.313971 0.120685 0.895453
0.428113 0.124393 0.899437
0.544564 0.128116 0.903401
0.659580 0.131855 0.907346
0.769569 0.135609 0.911272
0.871469 0.139378 0.915177
0.027244 0.225986 0.896905
0.117577 0.230071 0.900882
0.218399 0.234169 0.904840
0.327611 0.238279 0.908778
0.442230 0.242401 0.912696
0.558707 0.246534 0.916594
0.673296 0.250679 0.920473
0.782451 0.254834 0.924332
0.883196 0.259002 0.928170
0.037628 0.353221 0.910206
0.129313 0.357595 0.914117
0.231289 0.361976 0.918009
0.341332 0.366363 0.921880
0.456375 0.370757 0.925731
0.572821 0.375157 0.929563
0.686931 0.379563 0.933374
0.795207 0.383975 0.937165
0.894766 0.388392 0.940936
0.048182 0.486625 0.923284
0.141204 0.491111 0.927129
0.244299 0.495598 0.930953
0.355128 0.500084 0.934757
0.470540 0.504571 0.938540
0.586901 0.509058 0.942304
0.700479 0.513544 0.946047
0.807832 0.518029 0.949769
0.906176 0.522514 0.953471
0.058906 0.620603 0.936136
0.153245 0.625008 0.939913
0.257424 0.629408 0.943669
0.368993 0.633802 0.947404
0.484719 0.638189 0.951119
0.600939 0.642570 0.954814
0.713934 0.646944 0.958488
0.820324 0.651311 0.962141
0.917424 0.655671 0.965774
0.069798 0.749478 0.948759
0.165432 0.753622 0.952467
0.270660 0.757755 0.956154
0.382919 0.761876 0.959820
0.498906 0.765985 0.963466
0.614929 0.770082 0.967092
0.727290 0.774168 0.970696
0.832676 0.778241 0.974280
0.928508 0.782301 0.977843
0.080857 0.868286 0.961150
0.177763 0.872024 0.964789
0.284001 0.875747 0.968406
0.396901 0.879454 0.972003
0.513094 0.883146 0.975580
0.628864 0.886822 0.979135
0.740542 0.890482 0.982670
0.844886 0.894127 0.986184
0.939426 0.897755 0.989677
0.092080 0.973471 0.973308
0.190233 0.976715 0.976877
0.297441 0.979942 0.980424
0.410932 0.983152 0.983952
0.527275 0.986345 0.987458
0.642739 0.989520 0.990943
0.753685 0.992678 0.994408
0.856950 0.995819 0.997852
0.950176 0.998943 1.000000
0.007997 0.008511 0.973598
0.095721 0.011676 0.977165
0.194270 0.014858 0.980712
0.301781 0.018057 0.984237
0.415451 0.021273 0.987742
0.531830 0.024507 0.991226
0.647184 0.027758 0.994688
0.757885 0.031026 0.998130
0.860795 0.034311 1.000000
0.018054 0.110897 0.985515
0.107158 0.114563 0.989012
0.206918 0.118245 0.992489
0.315344 0.121942 0.995944
0.429537 0.125655 0.999378
0.545993 0.129384 1.000000
0.660968 0.133128 1.000000
0.770875 0.136887 1.000000
0.872660 0.140662 1.000000
0.028284 0.227372 0.997197
0.118754 0.231462 1.000000
0.219695 0.235564 1.000000
0.328993 0.239678 1.000000
0.443657 0.243803 1.000000
0.560133 0.247940 1.000000
0.674676 0.252089 1.000000
0.783744 0.256248 1.000000
0.884371 0.260419 1.000000
0.038685 0.354705 1.000000
0.130507 0.359082 1.000000
0.232597 0.363465 1.000000
0.342722 0.367855 1.000000
0.457804 0.372251 1.000000
0.574244 0.376653 1.000000
0.688302 0.381061 1.000000
0.796487 0.385474 1.000000
0.895925 0.389893 1.000000
0.049257 0.488148 1.000000
0.142413 0.492635 1.000000
0.245619 0.497121 1.000000
0.356525 0.501608 1.000000
0.471971 0.506095 1.000000
0.588320 0.510581 1.000000
0.701841 0.515067 1.000000
0.809100 0.519552 1.000000
0.907319 0.524037 1.000000
0.059998 0.622100 1.000000
0.154468 0.626503 1.000000
0.258756 0.630901 1.000000
0.370396 0.635293 1.000000
0.486151 0.639678 1.000000
0.602354 0.644056 1.000000
0.715286 0.648428 1.000000
0.821577 0.652793 1.000000
0.918550 0.657150 1.000000
0.070907 0.750886 1.000000
0.166671 0.755027 1.000000
0.272002 0.759155 1.000000
0.384328 0.763273 1.000000
0.500339 0.767378 1.000000
0.616339 0.771471 1.000000
0.728633 0.775552 1.000000
0.833915 0.779621 1.000000
0.929618 0.783678 1.000000
0.081982 0.869557 1.000000
0.179016 0.873290 1.000000
0.285353 0.877008 1.000000
0.398315 0.880710 1.000000
0.514526 0.884396 1.000000
0.630268 0.888067 1.000000
0.741874 0.891722 1.000000
0.846111 0.895361 1.000000
0.940519 0.898984 1.000000
0.093222 0.974574 1.000000
0.191500 0.977813 1.000000
0.298803 0.981034 1.000000
0.412351 0.984238 1.000000
0.528706 0.987425 1.000000
0.644136 0.990595 1.000000
0.755006 0.993747 1.000000
0.858159 0.996882 1.000000
0.951252 1.000000 1.000000
