.claude/skills/youtube-edit/luts/cool_noir.cube
# Cool Noir
# Generated for the youtube-edit skill — CC0
LUT_3D_SIZE 5
0.000000 0.000000 0.015817
0.184153 0.006253 0.022889
0.404104 0.012575 0.030045
0.636001 0.018966 0.037283
0.851103 0.025426 0.044604
0.020009 0.216322 0.039939
0.209366 0.224448 0.047290
0.432251 0.232622 0.054723
0.663611 0.240845 0.062238
0.874925 0.249114 0.069834
0.040706 0.475963 0.064994
0.235093 0.484933 0.072619
0.460528 0.493905 0.080325
0.690914 0.502879 0.088110
0.898129 0.511852 0.095974
0.062084 0.739581 0.090964
0.261296 0.747911 0.098857
0.488881 0.756197 0.106828
0.717862 0.764436 0.114875
0.920692 0.772628 0.122999
0.084132 0.965689 0.117824
0.287933 0.972242 0.125975
0.517255 0.978727 0.134202
0.744409 0.985142 0.142501
0.942597 0.991489 0.150874
0.001989 0.002116 0.234128
0.186674 0.008392 0.243184
0.406938 0.014738 0.252297
0.638801 0.021152 0.261465
0.853535 0.027635 0.270684
0.022067 0.219076 0.264815
0.211941 0.227218 0.274054
0.435101 0.235409 0.283342
0.666382 0.243648 0.292679
0.877296 0.251932 0.302063
0.042833 0.479009 0.296090
0.237717 0.487980 0.305490
0.463388 0.496953 0.314934
0.693651 0.505926 0.324419
0.900436 0.514898 0.333944
0.064279 0.742415 0.327882
0.263966 0.750730 0.337421
0.491745 0.759000 0.346997
0.720561 0.767224 0.356608
0.922934 0.775399 0.366251
0.086394 0.967922 0.360115
0.290645 0.974452 0.369770
0.520118 0.980913 0.379455
0.747065 0.987305 0.389167
0.944771 0.993629 0.398906
0.003984 0.004240 0.492635
0.189200 0.010540 0.502506
0.409774 0.016908 0.512376
0.641598 0.023346 0.522243
0.855961 0.029852 0.532106
0.024133 0.221836 0.525835
0.214520 0.229995 0.535694
0.437952 0.238202 0.545546
0.669150 0.246456 0.555387
0.879661 0.254756 0.565215
0.044968 0.482055 0.558966
0.240346 0.491027 0.568789
0.466248 0.500000 0.578596
0.696385 0.508973 0.588384
0.902737 0.517945 0.598152
0.066482 0.745244 0.591943
0.266640 0.753544 0.601703
0.494609 0.761798 0.611440
0.723256 0.770005 0.621151
0.925169 0.778164 0.630834
0.088664 0.970148 0.624679
0.293360 0.976654 0.634352
0.522981 0.983092 0.643993
0.749717 0.989460 0.653602
0.946938 0.995760 0.663176
0.005987 0.006371 0.752336
0.191732 0.012695 0.761421
0.412612 0.019087 0.770449
0.644392 0.025548 0.779418
0.858381 0.032078 0.788326
0.026205 0.224601 0.782668
0.217105 0.232776 0.791555
0.440804 0.241000 0.800379
0.671915 0.249270 0.809139
0.882019 0.257585 0.817834
0.047109 0.485102 0.812312
0.242980 0.494074 0.820983
0.469109 0.503047 0.829587
0.699115 0.512020 0.838122
0.905031 0.520991 0.846587
0.068691 0.748068 0.841212
0.269319 0.756352 0.849651
0.497474 0.764591 0.858019
0.725946 0.772782 0.866314
0.927396 0.780924 0.874536
0.090939 0.972365 0.869316
0.296080 0.978848 0.877510
0.525844 0.985262 0.885629
0.752363 0.991608 0.893672
0.949098 0.997884 0.901638
0.007997 0.008511 0.973598
0.194270 0.014858 0.980712
0.415451 0.021273 0.987742
0.647184 0.027758 0.994688
0.860795 0.034311 1.000000
0.028284 0.227372 0.997197
0.219695 0.235564 1.000000
0.443657 0.243803 1.000000
0.674676 0.252089 1.000000
0.884371 0.260419 1.000000
0.049257 0.488148 1.000000
0.245619 0.497121 1.000000
0.471971 0.506095 1.000000
0.701841 0.515067 1.000000
0.907319 0.524037 1.000000
0.070907 0.750886 1.000000
0.272002 0.759155 1.000000
0.500339 0.767378 1.000000
0.728633 0.775552 1.000000
0.929618 0.783678 1.000000
0.093222 0.974574 1.000000
0.298803 0.981034 1.000000
0.528706 0.987425 1.000000
0.755006 0.993747 1.000000
0.951252 1.000000 1.000000
