.claude/skills/youtube-edit/luts/summer_pop.cube
# Summer Pop
# Generated for the youtube-edit skill — CC0
LUT_3D_SIZE 9
0.000000 0.000000 0.000000
0.142716 0.000000 0.000000
0.285433 0.000000 0.000000
0.428149 0.000000 0.000000
0.570866 0.000000 0.000000
0.713583 0.000000 0.000000
0.856299 0.000000 0.000000
0.999015 0.000000 0.000000
1.000000 0.000000 0.000000
0.000000 0.131408 0.000000
0.126625 0.126625 0.000000
0.269341 0.121841 0.000000
0.412057 0.117058 0.000000
0.554774 0.112274 0.000000
0.697491 0.107491 0.000000
0.840207 0.102707 0.000000
0.982923 0.097924 0.000000
1.000000 0.093140 0.000000
0.000000 0.262816 0.000000
0.110533 0.258032 0.000000
0.253249 0.253249 0.000000
0.395965 0.248466 0.000000
0.538682 0.243682 0.000000
0.681399 0.238899 0.000000
0.824115 0.234115 0.000000
0.966831 0.229332 0.000000
1.000000 0.224548 0.000000
0.000000 0.394224 0.000000
0.094441 0.389440 0.000000
0.237157 0.384657 0.000000
0.379873 0.379873 0.000000
0.522590 0.375090 0.000000
0.665307 0.370306 0.000000
0.808023 0.365523 0.000000
0.950739 0.360739 0.000000
1.000000 0.355956 0.000000
0.000000 0.525632 0.000000
0.078349 0.520849 0.000000
0.221065 0.516065 0.000000
0.363781 0.511281 0.000000
0.506498 0.506498 0.000000
0.649215 0.501714 0.000000
0.831931 0.516931 0.000000
0.974647 0.512147 0.000000
1.000000 0.507364 0.000000
0.000000 0.657040 0.000000
0.062257 0.652257 0.000000
0.244973 0.667473 0.000000
0.387689 0.662690 0.000000
0.530406 0.657906 0.000000
0.673123 0.653123 0.000000
0.815839 0.648339 0.000000
0.958556 0.643556 0.000000
1.000000 0.638772 0.000000
0.000000 0.808448 0.000000
0.086165 0.803665 0.000000
0.228881 0.798881 0.000000
0.371597 0.794098 0.000000
0.514314 0.789314 0.000000
0.657031 0.784531 0.000000
0.799747 0.779747 0.000000
0.942464 0.774964 0.000000
1.000000 0.770180 0.000000
0.000000 0.939856 0.000000
0.070073 0.935072 0.000000
0.212789 0.930289 0.000000
0.355506 0.925505 0.000000
0.498222 0.920722 0.000000
0.640939 0.915938 0.000000
0.783655 0.911155 0.000000
0.926372 0.906371 0.000000
1.000000 0.901588 0.000000
0.000000 1.000000 0.000000
0.053981 1.000000 0.000000
0.196697 1.000000 0.000000
0.339414 1.000000 0.000000
0.482130 1.000000 0.000000
0.624847 1.000000 0.000000
0.767563 1.000000 0.000000
0.910280 1.000000 0.000000
1.000000 1.000000 0.000000
0.000000 0.000000 0.145875
0.141092 0.000000 0.141092
0.283808 0.000000 0.136308
0.426525 0.000000 0.131525
0.569241 0.000000 0.126742
0.711958 0.000000 0.121958
0.854675 0.000000 0.117175
0.997391 0.000000 0.112391
1.000000 0.000000 0.107608
0.000000 0.129783 0.129783
0.125000 0.125000 0.125000
0.267717 0.120217 0.120217
0.410433 0.115433 0.115433
0.553149 0.110650 0.110650
0.695866 0.105866 0.105866
0.838583 0.101082 0.101082
0.981299 0.096299 0.096299
1.000000 0.091515 0.091515
0.000000 0.261192 0.113692
0.108908 0.256408 0.108908
0.251625 0.251625 0.104125
0.394341 0.246841 0.099341
0.537057 0.242057 0.094558
0.679774 0.237274 0.089774
0.822491 0.232490 0.084991
0.965207 0.227707 0.080207
1.000000 0.222924 0.075424
0.000000 0.392599 0.097600
0.092816 0.387816 0.092816
0.235533 0.383032 0.088033
0.378249 0.378249 0.083249
0.520965 0.373466 0.078466
0.663682 0.368682 0.073682
0.806399 0.363899 0.068899
0.949115 0.359115 0.064115
1.000000 0.354332 0.059332
0.000000 0.524007 0.081508
0.076724 0.519224 0.076724
0.219441 0.514440 0.071941
0.362157 0.509657 0.067157
0.504873 0.504873 0.062374
0.647590 0.500090 0.057590
0.830307 0.515307 0.042807
0.973023 0.510523 0.038023
1.000000 0.505740 0.033239
0.000000 0.655415 0.065416
0.060632 0.650632 0.060632
0.243349 0.665849 0.045849
0.386065 0.661065 0.041065
0.528782 0.656282 0.036282
0.671498 0.651498 0.031498
0.814215 0.646715 0.026715
0.956931 0.641931 0.021931
1.000000 0.637147 0.017148
0.000000 0.806824 0.039324
0.084540 0.802040 0.034540
0.227257 0.797257 0.029757
0.369973 0.792473 0.024973
0.512690 0.787690 0.020189
0.655406 0.782906 0.015406
0.798123 0.778123 0.010623
0.940839 0.773339 0.005839
1.000000 0.768556 0.001055
0.000000 0.938232 0.023232
0.068448 0.933448 0.018448
0.211165 0.928665 0.013665
0.353881 0.923881 0.008881
0.496598 0.919098 0.004098
0.639314 0.914314 0.000000
0.782031 0.909531 0.000000
0.924747 0.904747 0.000000
1.000000 0.899964 0.000000
0.000000 1.000000 0.007140
0.052356 1.000000 0.002356
0.195073 1.000000 0.000000
0.337789 1.000000 0.000000
0.480506 1.000000 0.000000
0.623222 1.000000 0.000000
0.765939 1.000000 0.000000
0.908655 1.000000 0.000000
1.000000 1.000000 0.000000
0.000000 0.000000 0.291751
0.139467 0.000000 0.286967
0.282184 0.000000 0.282184
0.424900 0.000000 0.277400
0.567617 0.000000 0.272617
0.710333 0.000000 0.267834
0.853050 0.000000 0.263050
0.995766 0.000000 0.258267
1.000000 0.000000 0.253483
0.000000 0.128159 0.275659
0.123375 0.123375 0.270875
0.266092 0.118592 0.266092
0.408809 0.113809 0.261308
0.551525 0.109025 0.256525
0.694241 0.104242 0.251742
0.836958 0.099458 0.246958
0.979675 0.094675 0.242175
1.000000 0.089891 0.237391
0.000000 0.259567 0.259567
0.107284 0.254783 0.254783
0.250000 0.250000 0.250000
0.392717 0.245217 0.245217
0.535433 0.240433 0.240433
0.678149 0.235650 0.235650
0.820866 0.230866 0.230866
0.963583 0.226083 0.226083
1.000000 0.221299 0.221299
0.000000 0.390975 0.243475
0.091192 0.386192 0.238692
0.233908 0.381408 0.233908
0.376625 0.376625 0.229125
0.519341 0.371841 0.224341
0.662057 0.367057 0.219558
0.804774 0.362274 0.214774
0.947491 0.357490 0.209991
1.000000 0.352707 0.205207
0.000000 0.522383 0.227383
0.075100 0.517599 0.222600
0.217816 0.512816 0.217816
0.360533 0.508032 0.213033
0.503249 0.503249 0.208249
0.685966 0.518466 0.193466
0.828682 0.513682 0.188682
0.971399 0.508899 0.183899
1.000000 0.504115 0.179115
0.000000 0.653791 0.211291
0.059008 0.649007 0.206508
0.241724 0.664224 0.191724
0.384441 0.659440 0.186941
0.527157 0.654657 0.182157
0.669874 0.649873 0.177374
0.812590 0.645090 0.172590
0.955307 0.640307 0.167807
1.000000 0.635523 0.163023
0.000000 0.805199 0.185199
0.082916 0.800415 0.180416
0.225632 0.795632 0.175632
0.368348 0.790849 0.170849
0.511065 0.786065 0.166065
0.653782 0.781281 0.161281
0.796498 0.776498 0.156498
0.939215 0.771714 0.151714
1.000000 0.766931 0.146931
0.000000 0.936607 0.169107
0.066824 0.931824 0.164324
0.209540 0.927040 0.159540
0.352257 0.922257 0.154757
0.494973 0.917473 0.149973
0.637690 0.912690 0.145189
0.780406 0.907906 0.140406
0.923123 0.903123 0.135623
1.000000 0.898339 0.130839
0.000000 1.000000 0.153015
0.050732 1.000000 0.148232
0.193448 1.000000 0.143448
0.336165 1.000000 0.138665
0.478881 1.000000 0.133881
0.621598 1.000000 0.129098
0.764314 1.000000 0.124314
0.907031 1.000000 0.119531
1.000000 1.000000 0.114747
0.000000 0.000000 0.437626
0.137843 0.000000 0.432843
0.280560 0.000000 0.428059
0.423276 0.000000 0.423276
0.565992 0.000000 0.418492
0.708709 0.000000 0.413709
0.851425 0.000000 0.408925
0.994142 0.000000 0.404142
1.000000 0.000000 0.399358
0.000000 0.126534 0.421534
0.121751 0.121751 0.416751
0.264467 0.116968 0.411967
0.407184 0.112184 0.407184
0.549900 0.107401 0.402400
0.692617 0.102617 0.397617
0.835333 0.097833 0.392834
0.978050 0.093050 0.388050
1.000000 0.088266 0.383267
0.000000 0.257943 0.405442
0.105659 0.253159 0.400659
0.248375 0.248375 0.395875
0.391092 0.243592 0.391092
0.533809 0.238808 0.386308
0.676525 0.234025 0.381525
0.819241 0.229242 0.376742
0.961958 0.224458 0.371958
1.000000 0.219675 0.367175
0.000000 0.389350 0.389350
0.089567 0.384567 0.384567
0.232284 0.379783 0.379783
0.375000 0.375000 0.375000
0.517717 0.370217 0.370217
0.660433 0.365433 0.365433
0.803149 0.360650 0.360650
0.945866 0.355866 0.355866
1.000000 0.371083 0.341083
0.000000 0.520759 0.373258
0.073475 0.515975 0.368475
0.216192 0.511192 0.363692
0.358908 0.506408 0.358908
0.501625 0.501625 0.354125
0.684341 0.516841 0.339341
0.827058 0.512058 0.334558
0.969774 0.507274 0.329774
1.000000 0.502490 0.324991
0.000000 0.652166 0.357166
0.097383 0.667383 0.342383
0.240100 0.662600 0.337600
0.382816 0.657816 0.332816
0.525533 0.653033 0.328033
0.668249 0.648249 0.323249
0.810966 0.643466 0.318466
0.953682 0.638682 0.313682
1.000000 0.633899 0.308899
0.000000 0.803575 0.331075
0.081291 0.798791 0.326291
0.224008 0.794007 0.321508
0.366724 0.789224 0.316724
0.509441 0.784440 0.311941
0.652157 0.779657 0.307157
0.794874 0.774873 0.302374
0.937590 0.770090 0.297590
1.000000 0.765307 0.292807
0.000000 0.934983 0.314983
0.065199 0.930199 0.310199
0.207916 0.925416 0.305416
0.350632 0.920632 0.300632
0.493349 0.915849 0.295849
0.636065 0.911065 0.291065
0.778782 0.906282 0.286282
0.921498 0.901498 0.281498
1.000000 0.896715 0.276715
0.000000 1.000000 0.298891
0.049107 1.000000 0.294107
0.191824 1.000000 0.289324
0.334540 1.000000 0.284540
0.477257 1.000000 0.279757
0.619973 1.000000 0.274973
0.762690 1.000000 0.270190
0.905406 1.000000 0.265406
1.000000 1.000000 0.260623
0.000000 0.000000 0.583502
0.136218 0.000000 0.578718
0.278935 0.000000 0.573935
0.421651 0.000000 0.569152
0.564368 0.000000 0.564368
0.707085 0.000000 0.559585
0.849801 0.000000 0.554801
0.992517 0.000000 0.550017
1.000000 0.000000 0.545234
0.000000 0.124910 0.567410
0.120126 0.120126 0.562627
0.262843 0.115343 0.557843
0.405559 0.110560 0.553060
0.548276 0.105776 0.548276
0.690992 0.100993 0.543492
0.833709 0.096209 0.538709
0.976425 0.091426 0.533926
1.000000 0.086642 0.529142
0.000000 0.256318 0.551318
0.104035 0.251534 0.546534
0.246751 0.246751 0.541751
0.389467 0.241968 0.536968
0.532184 0.237184 0.532184
0.674900 0.232401 0.527400
0.817617 0.227617 0.522617
0.960333 0.222834 0.517834
1.000000 0.218050 0.513050
0.000000 0.387726 0.535226
0.087943 0.382942 0.530442
0.230659 0.378159 0.525659
0.373375 0.373375 0.520876
0.516092 0.368592 0.516092
0.658809 0.363808 0.511308
0.801525 0.359025 0.506525
0.944241 0.354241 0.501741
1.000000 0.369458 0.486958
0.000000 0.519134 0.519134
0.071851 0.514350 0.514350
0.214567 0.509567 0.509567
0.357283 0.504784 0.504784
0.500000 0.500000 0.500000
0.682717 0.515216 0.485216
0.825433 0.510433 0.480433
0.968149 0.505649 0.475650
1.000000 0.500866 0.470866
0.000000 0.650542 0.503042
0.095759 0.665759 0.488258
0.238475 0.660975 0.483475
0.381191 0.656192 0.478691
0.523908 0.651408 0.473908
0.666625 0.646625 0.469124
0.809341 0.641841 0.464341
0.952058 0.637058 0.459558
1.000000 0.632274 0.454774
0.000000 0.801950 0.476950
0.079667 0.797167 0.472166
0.222383 0.792383 0.467383
0.365099 0.787600 0.462599
0.507816 0.782816 0.457816
0.650533 0.778033 0.453032
0.793249 0.773249 0.448249
0.935966 0.768466 0.443466
1.000000 0.763682 0.438682
0.000000 0.933358 0.460858
0.063575 0.928575 0.456075
0.206291 0.923791 0.451291
0.349008 0.919007 0.446508
0.491724 0.914224 0.441724
0.634441 0.909440 0.436941
0.777157 0.904657 0.432157
0.919874 0.899873 0.427374
1.000000 0.895090 0.422590
0.000000 1.000000 0.444766
0.047483 1.000000 0.439982
0.190199 1.000000 0.435199
0.332915 1.000000 0.430416
0.475632 1.000000 0.425632
0.618349 1.000000 0.420849
0.761065 1.000000 0.416065
0.903782 1.000000 0.411282
1.000000 1.000000 0.406498
0.000000 0.000000 0.729378
0.134594 0.000000 0.724594
0.277311 0.000000 0.719811
0.420027 0.000000 0.715027
0.562743 0.000000 0.710243
0.705460 0.000000 0.705460
0.848177 0.000000 0.700676
0.990893 0.000000 0.695893
1.000000 0.000000 0.691110
0.000000 0.123285 0.713286
0.118502 0.118502 0.708502
0.261219 0.113719 0.703718
0.403935 0.108935 0.698935
0.546652 0.104152 0.694152
0.689368 0.099368 0.689368
0.832085 0.094585 0.684584
0.974801 0.089801 0.679801
1.000000 0.085018 0.675018
0.000000 0.254694 0.697194
0.102410 0.249910 0.692410
0.245127 0.245127 0.687626
0.387843 0.240343 0.682843
0.530559 0.235560 0.678060
0.673276 0.230776 0.673276
0.815992 0.225993 0.668492
0.958709 0.221209 0.663709
1.000000 0.216426 0.658926
0.000000 0.386101 0.681102
0.086318 0.381318 0.676318
0.229035 0.376534 0.671534
0.371751 0.371751 0.666751
0.514467 0.366968 0.661968
0.657184 0.362184 0.657184
0.799901 0.357401 0.652400
0.942617 0.352617 0.647617
1.000000 0.367834 0.632834
0.000000 0.517509 0.665010
0.070226 0.512726 0.660226
0.212943 0.507942 0.655443
0.355659 0.503159 0.650659
0.538376 0.518375 0.635876
0.681092 0.513592 0.631092
0.823809 0.508808 0.626308
0.966525 0.504025 0.621525
1.000000 0.499242 0.616741
0.000000 0.648918 0.648918
0.094134 0.664134 0.634134
0.236851 0.659351 0.629351
0.379567 0.654567 0.624567
0.522284 0.649784 0.619784
0.665000 0.645000 0.615000
0.807717 0.640217 0.610217
0.950433 0.635433 0.605433
1.000000 0.630650 0.600650
0.000000 0.800326 0.622826
0.078042 0.795542 0.618042
0.220759 0.790759 0.613259
0.363475 0.785975 0.608475
0.506192 0.781192 0.603692
0.648908 0.776408 0.598908
0.791625 0.771625 0.594124
0.934341 0.766841 0.589341
1.000000 0.762058 0.584558
0.000000 0.931733 0.606734
0.061950 0.926950 0.601950
0.204667 0.922167 0.597167
0.347383 0.917383 0.592383
0.490100 0.912600 0.587600
0.632816 0.907816 0.582816
0.775533 0.903033 0.578033
0.918249 0.898249 0.573249
1.000000 0.893466 0.568466
0.000000 1.000000 0.590642
0.045858 1.000000 0.585858
0.188575 1.000000 0.581075
0.331291 1.000000 0.576291
0.474008 1.000000 0.571508
0.616724 1.000000 0.566724
0.759441 1.000000 0.561940
0.902157 1.000000 0.557157
1.000000 1.000000 0.552374
0.000000 0.000000 0.875253
0.132969 0.000000 0.870469
0.275686 0.000000 0.865686
0.418402 0.000000 0.860903
0.561119 0.000000 0.856119
0.703835 0.000000 0.851335
0.846552 0.000000 0.846552
0.989268 0.000000 0.841768
1.000000 0.000000 0.836985
0.000000 0.121661 0.859161
0.116877 0.116877 0.854378
0.259594 0.112094 0.849594
0.402311 0.107311 0.844811
0.545027 0.102527 0.840027
0.687743 0.097744 0.835243
0.830460 0.092960 0.830460
0.973176 0.088177 0.825676
1.000000 0.083393 0.820893
0.000000 0.253069 0.843069
0.100786 0.248285 0.838286
0.243502 0.243502 0.833502
0.386219 0.238719 0.828718
0.528935 0.233935 0.823935
0.671651 0.229152 0.819152
0.814368 0.224368 0.814368
0.957085 0.219585 0.809584
1.000000 0.214801 0.804801
0.000000 0.384477 0.826977
0.084694 0.379694 0.822194
0.227410 0.374910 0.817410
0.370127 0.370127 0.812626
0.512843 0.365343 0.807843
0.655559 0.360560 0.803060
0.798276 0.355776 0.798276
0.980992 0.370993 0.783492
1.000000 0.366209 0.778709
0.000000 0.515885 0.810885
0.068602 0.511101 0.806102
0.211318 0.506318 0.801318
0.354035 0.501534 0.796534
0.536751 0.516751 0.781751
0.679468 0.511968 0.776968
0.822184 0.507184 0.772184
0.964900 0.502401 0.767400
1.000000 0.497617 0.762617
0.000000 0.667293 0.784793
0.092510 0.662509 0.780010
0.235226 0.657726 0.775226
0.377943 0.652942 0.770442
0.520659 0.648159 0.765659
0.663376 0.643375 0.760876
0.806092 0.638592 0.756092
0.948809 0.633808 0.751308
1.000000 0.629025 0.746525
0.000000 0.798701 0.768701
0.076417 0.793918 0.763918
0.219134 0.789134 0.759134
0.361850 0.784350 0.754350
0.504567 0.779567 0.749567
0.647284 0.774783 0.744783
0.790000 0.770000 0.740000
0.932717 0.765216 0.735216
1.000000 0.760433 0.730433
0.000000 0.930109 0.752609
0.060325 0.925326 0.747826
0.203042 0.920542 0.743042
0.345759 0.915759 0.738259
0.488475 0.910975 0.733475
0.631192 0.906192 0.728692
0.773908 0.901408 0.723908
0.916625 0.896625 0.719124
1.000000 0.891841 0.714341
0.000000 1.000000 0.736517
0.044234 1.000000 0.731734
0.186950 1.000000 0.726950
0.329667 1.000000 0.722166
0.472383 1.000000 0.717383
0.615100 1.000000 0.712600
0.757816 1.000000 0.707816
0.900533 1.000000 0.703032
1.000000 1.000000 0.698249
0.000000 0.000000 1.000000
0.131345 0.000000 1.000000
0.274061 0.000000 1.000000
0.416778 0.000000 1.000000
0.559495 0.000000 1.000000
0.702211 0.000000 0.997211
0.844927 0.000000 0.992427
0.987644 0.000000 0.987644
1.000000 0.000000 0.982860
0.000000 0.120037 1.000000
0.115253 0.115253 1.000000
0.257970 0.110470 0.995470
0.400686 0.105686 0.990686
0.543403 0.100903 0.985903
0.686119 0.096119 0.981119
0.828835 0.091336 0.976335
0.971552 0.086552 0.971552
1.000000 0.081769 0.966768
0.000000 0.251445 0.988944
0.099161 0.246661 0.984161
0.241878 0.241878 0.979378
0.384594 0.237094 0.974594
0.527311 0.232311 0.969811
0.670027 0.227527 0.965027
0.812744 0.222744 0.960244
0.955460 0.217960 0.955460
1.000000 0.213177 0.950676
0.000000 0.382852 0.972853
0.083069 0.378069 0.968069
0.225786 0.373285 0.963286
0.368502 0.368502 0.958502
0.511219 0.363719 0.953718
0.653935 0.358935 0.948935
0.796652 0.354152 0.944152
0.979368 0.369368 0.929368
1.000000 0.364585 0.924584
0.000000 0.514261 0.956760
0.066977 0.509477 0.951977
0.209694 0.504694 0.947194
0.392410 0.519910 0.932410
0.535127 0.515127 0.927626
0.677843 0.510343 0.922843
0.820559 0.505560 0.918060
0.963276 0.500776 0.913276
1.000000 0.495993 0.908492
0.000000 0.665668 0.930668
0.090885 0.660885 0.925885
0.233602 0.656102 0.921102
0.376318 0.651318 0.916318
0.519035 0.646535 0.911534
0.661751 0.641751 0.906751
0.804468 0.636968 0.901968
0.947184 0.632184 0.897184
1.000000 0.627401 0.892400
0.000000 0.797076 0.914576
0.074793 0.792293 0.909793
0.217510 0.787509 0.905010
0.360226 0.782726 0.900226
0.502943 0.777942 0.895442
0.645659 0.773159 0.890659
0.788376 0.768375 0.885876
0.931092 0.763592 0.881092
1.000000 0.758808 0.876308
0.000000 0.928485 0.898485
0.058701 0.923701 0.893701
0.201417 0.918918 0.888918
0.344134 0.914134 0.884134
0.486851 0.909351 0.879351
0.629567 0.904567 0.874567
0.772284 0.899784 0.869784
0.915000 0.895000 0.865000
1.000000 0.890217 0.860217
0.000000 1.000000 0.882393
0.042609 1.000000 0.877609
0.185326 1.000000 0.872826
0.328042 1.000000 0.868042
0.470759 1.000000 0.863259
0.613475 1.000000 0.858475
0.756192 1.000000 0.853692
0.898908 1.000000 0.848908
1.000000 1.000000 0.844124
0.000000 0.000000 1.000000
0.129720 0.000000 1.000000
0.272437 0.000000 1.000000
0.415153 0.000000 1.000000
0.557870 0.000000 1.000000
0.700587 0.000000 1.000000
0.843303 0.000000 1.000000
0.986020 0.000000 1.000000
1.000000 0.000000 1.000000
0.000000 0.118412 1.000000
0.113629 0.113629 1.000000
0.256345 0.108845 1.000000
0.399061 0.104062 1.000000
0.541778 0.099278 1.000000
0.684495 0.094495 1.000000
0.827211 0.089711 1.000000
0.969927 0.084928 1.000000
1.000000 0.080144 1.000000
0.000000 0.249820 1.000000
0.097537 0.245037 1.000000
0.240253 0.240253 1.000000
0.382970 0.235469 1.000000
0.525686 0.230686 1.000000
0.668403 0.225903 1.000000
0.811119 0.221119 1.000000
0.953836 0.216336 1.000000
1.000000 0.211552 1.000000
0.000000 0.381228 1.000000
0.081445 0.376445 1.000000
0.224161 0.371661 1.000000
0.366878 0.366878 1.000000
0.509594 0.362094 1.000000
0.652311 0.357310 1.000000
0.795027 0.352527 1.000000
0.977743 0.367744 1.000000
1.000000 0.362960 1.000000
0.000000 0.512636 1.000000
0.065353 0.507853 1.000000
0.208069 0.503069 1.000000
0.390785 0.518285 1.000000
0.533502 0.513502 1.000000
0.676219 0.508718 1.000000
0.818935 0.503935 1.000000
0.961651 0.499152 1.000000
1.000000 0.494368 1.000000
0.000000 0.664044 1.000000
0.089261 0.659261 1.000000
0.231977 0.654477 1.000000
0.374694 0.649694 1.000000
0.517410 0.644910 1.000000
0.660127 0.640127 1.000000
0.802843 0.635343 1.000000
0.945559 0.630560 1.000000
1.000000 0.625776 1.000000
0.000000 0.795452 1.000000
0.073169 0.790668 1.000000
0.215885 0.785885 1.000000
0.358601 0.781102 1.000000
0.501318 0.776318 1.000000
0.644035 0.771535 1.000000
0.786751 0.766751 1.000000
0.929468 0.761968 1.000000
1.000000 0.757184 1.000000
0.000000 0.926860 1.000000
0.057077 0.922076 1.000000
0.199793 0.917293 1.000000
0.342510 0.912509 1.000000
0.485226 0.907726 1.000000
0.627943 0.902942 1.000000
0.770659 0.898159 1.000000
0.913376 0.893375 1.000000
1.000000 0.888592 1.000000
0.000000 1.000000 1.000000
0.040985 1.000000 1.000000
0.183701 1.000000 1.000000
0.326417 1.000000 1.000000
0.469134 1.000000 1.000000
0.611851 1.000000 1.000000
0.754567 1.000000 0.999567
0.897284 1.000000 0.994784
1.000000 1.000000 0.990000
