.claude/skills/youtube-edit/luts/summer_pop.cube
# Summer Pop
# Generated for the youtube-edit skill — CC0
LUT_3D_SIZE 5
0.000000 0.000000 0.000000
0.285433 0.000000 0.000000
0.570866 0.000000 0.000000
0.856299 0.000000 0.000000
1.000000 0.000000 0.000000
0.000000 0.262816 0.000000
0.253249 0.253249 0.000000
0.538682 0.243682 0.000000
0.824115 0.234115 0.000000
1.000000 0.224548 0.000000
0.000000 0.525632 0.000000
0.221065 0.516065 0.000000
0.506498 0.506498 0.000000
0.831931 0.516931 0.000000
1.000000 0.507364 0.000000
0.000000 0.808448 0.000000
0.228881 0.798881 0.000000
0.514314 0.789314 0.000000
0.799747 0.779747 0.000000
1.000000 0.770180 0.000000
0.000000 1.000000 0.000000
0.196697 1.000000 0.000000
0.482130 1.000000 0.000000
0.767563 1.000000 0.000000
1.000000 1.000000 0.000000
0.000000 0.000000 0.291751
0.282184 0.000000 0.282184
0.567617 0.000000 0.272617
0.853050 0.000000 0.263050
1.000000 0.000000 0.253483
0.000000 0.259567 0.259567
0.250000 0.250000 0.250000
0.535433 0.240433 0.240433
0.820866 0.230866 0.230866
1.000000 0.221299 0.221299
0.000000 0.522383 0.227383
0.217816 0.512816 0.217816
0.503249 0.503249 0.208249
0.828682 0.513682 0.188682
1.000000 0.504115 0.179115
0.000000 0.805199 0.185199
0.225632 0.795632 0.175632
0.511065 0.786065 0.166065
0.796498 0.776498 0.156498
1.000000 0.766931 0.146931
0.000000 1.000000 0.153015
0.193448 1.000000 0.143448
0.478881 1.000000 0.133881
0.764314 1.000000 0.124314
1.000000 1.000000 0.114747
0.000000 0.000000 0.583502
0.278935 0.000000 0.573935
0.564368 0.000000 0.564368
0.849801 0.000000 0.554801
1.000000 0.000000 0.545234
0.000000 0.256318 0.551318
0.246751 0.246751 0.541751
0.532184 0.237184 0.532184
0.817617 0.227617 0.522617
1.000000 0.218050 0.513050
0.000000 0.519134 0.519134
0.214567 0.509567 0.509567
0.500000 0.500000 0.500000
0.825433 0.510433 0.480433
1.000000 0.500866 0.470866
0.000000 0.801950 0.476950
0.222383 0.792383 0.467383
0.507816 0.782816 0.457816
0.793249 0.773249 0.448249
1.000000 0.763682 0.438682
0.000000 1.000000 0.444766
0.190199 1.000000 0.435199
0.475632 1.000000 0.425632
0.761065 1.000000 0.416065
1.000000 1.000000 0.406498
0.000000 0.000000 0.875253
0.275686 0.000000 0.865686
0.561119 0.000000 0.856119
0.846552 0.000000 0.846552
1.000000 0.000000 0.836985
0.000000 0.253069 0.843069
0.243502 0.243502 0.833502
0.528935 0.233935 0.823935
0.814368 0.224368 0.814368
1.000000 0.214801 0.804801
0.000000 0.515885 0.810885
0.211318 0.506318 0.801318
0.536751 0.516751 0.781751
0.822184 0.507184 0.772184
1.000000 0.497617 0.762617
0.000000 0.798701 0.768701
0.219134 0.789134 0.759134
0.504567 0.779567 0.749567
0.790000 0.770000 0.740000
1.000000 0.760433 0.730433
0.000000 1.000000 0.736517
0.186950 1.000000 0.726950
0.472383 1.000000 0.717383
0.757816 1.000000 0.707816
1.000000 1.000000 0.698249
0.000000 0.000000 1.000000
0.272437 0.000000 1.000000
0.557870 0.000000 1.000000
0.843303 0.000000 1.000000
1.000000 0.000000 1.000000
0.000000 0.249820 1.000000
0.240253 0.240253 1.000000
0.525686 0.230686 1.000000
0.811119 0.221119 1.000000
1.000000 0.211552 1.000000
0.000000 0.512636 1.000000
0.208069 0.503069 1.000000
0.533502 0.513502 1.000000
0.818935 0.503935 1.000000
1.000000 0.494368 1.000000
0.000000 0.795452 1.000000
0.215885 0.785885 1.000000
0.501318 0.776318 1.000000
0.786751 0.766751 1.000000
1.000000 0.757184 1.000000
0.000000 1.000000 1.000000
0.183701 1.000000 1.000000
0.469134 1.000000 1.000000
0.754567 1.000000 0.999567
1.000000 1.000000 0.990000
