.claude/skills/youtube-edit/luts/summer_pop.cube
# Summer Pop
# Generated for the youtube-edit skill — CC0
LUT_3D_SIZE 17
0.000000 0.000000 0.000000
0.071358 0.000000 0.000000
0.142716 0.000000 0.000000
0.214075 0.000000 0.000000
0.285433 0.000000 0.000000
0.356791 0.000000 0.000000
0.428149 0.000000 0.000000
0.499508 0.000000 0.000000
0.570866 0.000000 0.000000
0.642224 0.000000 0.000000
0.713583 0.000000 0.000000
0.784941 0.000000 0.000000
0.856299 0.000000 0.000000
0.927657 0.000000 0.000000
0.999015 0.000000 0.000000
1.000000 0.000000 0.000000
1.000000 0.000000 0.000000
0.000000 0.065704 0.000000
0.063312 0.063312 0.000000
0.134670 0.060921 0.000000
0.206029 0.058529 0.000000
0.277387 0.056137 0.000000
0.348745 0.053745 0.000000
0.420103 0.051353 0.000000
0.491462 0.048962 0.000000
0.562820 0.046570 0.000000
0.634178 0.044178 0.000000
0.705537 0.041787 0.000000
0.776895 0.039395 0.000000
0.848253 0.037003 0.000000
0.919611 0.034611 0.000000
0.990969 0.032220 0.000000
1.000000 0.029828 0.000000
1.000000 0.027436 0.000000
0.000000 0.131408 0.000000
0.055266 0.129016 0.000000
0.126625 0.126625 0.000000
0.197983 0.124233 0.000000
0.269341 0.121841 0.000000
0.340699 0.119449 0.000000
0.412057 0.117058 0.000000
0.483416 0.114666 0.000000
0.554774 0.112274 0.000000
0.626132 0.109882 0.000000
0.697491 0.107491 0.000000
0.768849 0.105099 0.000000
0.840207 0.102707 0.000000
0.911565 0.100315 0.000000
0.982923 0.097924 0.000000
1.000000 0.095532 0.000000
1.000000 0.093140 0.000000
0.000000 0.197112 0.000000
0.047220 0.194720 0.000000
0.118579 0.192329 0.000000
0.189937 0.189937 0.000000
0.261295 0.187545 0.000000
0.332653 0.185153 0.000000
0.404011 0.182761 0.000000
0.475370 0.180370 0.000000
0.546728 0.177978 0.000000
0.618086 0.175586 0.000000
0.689445 0.173195 0.000000
0.760803 0.170803 0.000000
0.832161 0.168411 0.000000
0.903519 0.166019 0.000000
0.974877 0.163628 0.000000
1.000000 0.161236 0.000000
1.000000 0.158844 0.000000
0.000000 0.262816 0.000000
0.039174 0.260424 0.000000
0.110533 0.258032 0.000000
0.181891 0.255641 0.000000
0.253249 0.253249 0.000000
0.324607 0.250857 0.000000
0.395965 0.248466 0.000000
0.467324 0.246074 0.000000
0.538682 0.243682 0.000000
0.610040 0.241290 0.000000
0.681399 0.238899 0.000000
0.752757 0.236507 0.000000
0.824115 0.234115 0.000000
0.895473 0.231723 0.000000
0.966831 0.229332 0.000000
1.000000 0.226940 0.000000
1.000000 0.224548 0.000000
0.000000 0.328520 0.000000
0.031128 0.326128 0.000000
0.102487 0.323736 0.000000
0.173845 0.321345 0.000000
0.245203 0.318953 0.000000
0.316561 0.316561 0.000000
0.387919 0.314169 0.000000
0.459278 0.311778 0.000000
0.530636 0.309386 0.000000
0.601994 0.306994 0.000000
0.673353 0.304602 0.000000
0.744711 0.302211 0.000000
0.816069 0.299819 0.000000
0.887427 0.297427 0.000000
0.958786 0.295036 0.000000
1.000000 0.292644 0.000000
1.000000 0.290252 0.000000
0.000000 0.394224 0.000000
0.023082 0.391832 0.000000
0.094441 0.389440 0.000000
0.165799 0.387049 0.000000
0.237157 0.384657 0.000000
0.308515 0.382265 0.000000
0.379873 0.379873 0.000000
0.451232 0.377482 0.000000
0.522590 0.375090 0.000000
0.593948 0.372698 0.000000
0.665307 0.370306 0.000000
0.736665 0.367915 0.000000
0.808023 0.365523 0.000000
0.879381 0.363131 0.000000
0.950739 0.360739 0.000000
1.000000 0.358348 0.000000
1.000000 0.355956 0.000000
0.000000 0.459928 0.000000
0.015036 0.457536 0.000000
0.086395 0.455145 0.000000
0.157753 0.452753 0.000000
0.229111 0.450361 0.000000
0.300469 0.447969 0.000000
0.371828 0.445578 0.000000
0.443186 0.443186 0.000000
0.514544 0.440794 0.000000
0.585902 0.438402 0.000000
0.657261 0.436011 0.000000
0.728619 0.433619 0.000000
0.799977 0.431227 0.000000
0.871335 0.428835 0.000000
0.942693 0.426444 0.000000
1.000000 0.444052 0.000000
1.000000 0.441660 0.000000
0.000000 0.525632 0.000000
0.006990 0.523240 0.000000
0.078349 0.520849 0.000000
0.149707 0.518457 0.000000
0.221065 0.516065 0.000000
0.292423 0.513673 0.000000
0.363781 0.511281 0.000000
0.435140 0.508890 0.000000
0.506498 0.506498 0.000000
0.577856 0.504106 0.000000
0.649215 0.501714 0.000000
0.760573 0.519323 0.000000
0.831931 0.516931 0.000000
0.903289 0.514539 0.000000
0.974647 0.512147 0.000000
1.000000 0.509756 0.000000
1.000000 0.507364 0.000000
0.000000 0.591336 0.000000
0.000000 0.588944 0.000000
0.070303 0.586553 0.000000
0.141661 0.584161 0.000000
0.213019 0.581769 0.000000
0.284377 0.579377 0.000000
0.355735 0.576986 0.000000
0.427094 0.574594 0.000000
0.538452 0.592202 0.000000
0.609810 0.589810 0.000000
0.681169 0.587419 0.000000
0.752527 0.585027 0.000000
0.823885 0.582635 0.000000
0.895243 0.580243 0.000000
0.966602 0.577852 0.000000
1.000000 0.575460 0.000000
1.000000 0.573068 0.000000
0.000000 0.657040 0.000000
0.000000 0.654648 0.000000
0.062257 0.652257 0.000000
0.133615 0.649865 0.000000
0.244973 0.667473 0.000000
0.316331 0.665081 0.000000
0.387689 0.662690 0.000000
0.459048 0.660298 0.000000
0.530406 0.657906 0.000000
0.601764 0.655514 0.000000
0.673123 0.653123 0.000000
0.744481 0.650731 0.000000
0.815839 0.648339 0.000000
0.887197 0.645947 0.000000
0.958556 0.643556 0.000000
1.000000 0.641164 0.000000
1.000000 0.638772 0.000000
0.000000 0.722744 0.000000
0.022852 0.740352 0.000000
0.094211 0.737961 0.000000
0.165569 0.735569 0.000000
0.236927 0.733177 0.000000
0.308285 0.730785 0.000000
0.379643 0.728394 0.000000
0.451002 0.726002 0.000000
0.522360 0.723610 0.000000
0.593718 0.721218 0.000000
0.665077 0.718827 0.000000
0.736435 0.716435 0.000000
0.807793 0.714043 0.000000
0.879151 0.711651 0.000000
0.950510 0.709260 0.000000
1.000000 0.706868 0.000000
1.000000 0.704476 0.000000
0.000000 0.808448 0.000000
0.014806 0.806056 0.000000
0.086165 0.803665 0.000000
0.157523 0.801273 0.000000
0.228881 0.798881 0.000000
0.300239 0.796489 0.000000
0.371597 0.794098 0.000000
0.442956 0.791706 0.000000
0.514314 0.789314 0.000000
0.585672 0.786922 0.000000
0.657031 0.784531 0.000000
0.728389 0.782139 0.000000
0.799747 0.779747 0.000000
0.871105 0.777355 0.000000
0.942464 0.774964 0.000000
1.000000 0.772572 0.000000
1.000000 0.770180 0.000000
0.000000 0.874152 0.000000
0.006760 0.871760 0.000000
0.078119 0.869368 0.000000
0.149477 0.866977 0.000000
0.220835 0.864585 0.000000
0.292193 0.862193 0.000000
0.363551 0.859801 0.000000
0.434910 0.857410 0.000000
0.506268 0.855018 0.000000
0.577626 0.852626 0.000000
0.648985 0.850235 0.000000
0.720343 0.847843 0.000000
0.791701 0.845451 0.000000
0.863059 0.843059 0.000000
0.934418 0.840668 0.000000
1.000000 0.838276 0.000000
1.000000 0.835884 0.000000
0.000000 0.939856 0.000000
0.000000 0.937464 0.000000
0.070073 0.935072 0.000000
0.141431 0.932681 0.000000
0.212789 0.930289 0.000000
0.284147 0.927897 0.000000
0.355506 0.925505 0.000000
0.426864 0.923114 0.000000
0.498222 0.920722 0.000000
0.569580 0.918330 0.000000
0.640939 0.915938 0.000000
0.712297 0.913547 0.000000
0.783655 0.911155 0.000000
0.855013 0.908763 0.000000
0.926372 0.906371 0.000000
0.997730 0.903980 0.000000
1.000000 0.901588 0.000000
0.000000 1.000000 0.000000
0.000000 1.000000 0.000000
0.062027 1.000000 0.000000
0.133385 0.998385 0.000000
0.204743 0.995993 0.000000
0.276101 0.993601 0.000000
0.347459 0.991209 0.000000
0.418818 0.988818 0.000000
0.490176 0.986426 0.000000
0.561534 0.984034 0.000000
0.632893 0.981642 0.000000
0.704251 0.979251 0.000000
0.775609 0.976859 0.000000
0.846967 0.974467 0.000000
0.918326 0.972075 0.000000
0.989684 0.969684 0.000000
1.000000 0.967292 0.000000
0.000000 1.000000 0.000000
0.000000 1.000000 0.000000
0.053981 1.000000 0.000000
0.125339 1.000000 0.000000
0.196697 1.000000 0.000000
0.268055 1.000000 0.000000
0.339414 1.000000 0.000000
0.410772 1.000000 0.000000
0.482130 1.000000 0.000000
0.553488 1.000000 0.000000
0.624847 1.000000 0.000000
0.696205 1.000000 0.000000
0.767563 1.000000 0.000000
0.838921 1.000000 0.000000
0.910280 1.000000 0.000000
0.981638 1.000000 0.000000
1.000000 1.000000 0.000000
0.000000 0.000000 0.072938
0.070546 0.000000 0.070546
0.141904 0.000000 0.068154
0.213262 0.000000 0.065763
0.284621 0.000000 0.063371
0.355979 0.000000 0.060979
0.427337 0.000000 0.058587
0.498695 0.000000 0.056196
0.570054 0.000000 0.053804
0.641412 0.000000 0.051412
0.712770 0.000000 0.049020
0.784129 0.000000 0.046629
0.855487 0.000000 0.044237
0.926845 0.000000 0.041845
0.998203 0.000000 0.039453
1.000000 0.000000 0.037061
1.000000 0.000000 0.034670
0.000000 0.064892 0.064892
0.062500 0.062500 0.062500
0.133858 0.060108 0.060108
0.205216 0.057717 0.057717
0.276575 0.055325 0.055325
0.347933 0.052933 0.052933
0.419291 0.050541 0.050541
0.490649 0.048150 0.048150
0.562008 0.045758 0.045758
0.633366 0.043366 0.043366
0.704724 0.040974 0.040974
0.776083 0.038583 0.038583
0.847441 0.036191 0.036191
0.918799 0.033799 0.033799
0.990157 0.031407 0.031407
1.000000 0.029015 0.029015
1.000000 0.026624 0.026624
0.000000 0.130596 0.056846
0.054454 0.128204 0.054454
0.125812 0.125812 0.052062
0.197170 0.123421 0.049671
0.268529 0.121029 0.047279
0.339887 0.118637 0.044887
0.411245 0.116245 0.042495
0.482603 0.113854 0.040104
0.553962 0.111462 0.037712
0.625320 0.109070 0.035320
0.696678 0.106678 0.032928
0.768037 0.104287 0.030537
0.839395 0.101895 0.028145
0.910753 0.099503 0.025753
0.982111 0.097111 0.023361
1.000000 0.094720 0.020970
1.000000 0.092328 0.018578
0.000000 0.196300 0.048800
0.046408 0.193908 0.046408
0.117766 0.191516 0.044016
0.189125 0.189125 0.041625
0.260483 0.186733 0.039233
0.331841 0.184341 0.036841
0.403199 0.181949 0.034449
0.474557 0.179558 0.032058
0.545916 0.177166 0.029666
0.617274 0.174774 0.027274
0.688632 0.172382 0.024882
0.759991 0.169991 0.022491
0.831349 0.167599 0.020099
0.902707 0.165207 0.017707
0.974065 0.162815 0.015315
1.000000 0.160424 0.012924
1.000000 0.158032 0.010532
0.000000 0.262004 0.040754
0.038362 0.259612 0.038362
0.109720 0.257220 0.035970
0.181079 0.254829 0.033579
0.252437 0.252437 0.031187
0.323795 0.250045 0.028795
0.395153 0.247653 0.026403
0.466511 0.245261 0.024012
0.537870 0.242870 0.021620
0.609228 0.240478 0.019228
0.680586 0.238086 0.016836
0.751945 0.235695 0.014445
0.823303 0.233303 0.012053
0.894661 0.230911 0.009661
0.966019 0.228519 0.007269
1.000000 0.226128 0.004878
1.000000 0.223736 0.002486
0.000000 0.327708 0.032708
0.030316 0.325316 0.030316
0.101674 0.322924 0.027924
0.173033 0.320532 0.025533
0.244391 0.318141 0.023141
0.315749 0.315749 0.020749
0.387107 0.313357 0.018357
0.458465 0.310966 0.015966
0.529824 0.308574 0.013574
0.601182 0.306182 0.011182
0.672540 0.303790 0.008790
0.743899 0.301399 0.006399
0.815257 0.299007 0.004007
0.886615 0.296615 0.001615
0.957973 0.294223 0.000000
1.000000 0.291832 0.000000
1.000000 0.289440 0.000000
0.000000 0.393412 0.024662
0.022270 0.391020 0.022270
0.093628 0.388628 0.019878
0.164987 0.386236 0.017487
0.236345 0.383845 0.015095
0.307703 0.381453 0.012703
0.379061 0.379061 0.010311
0.450419 0.376669 0.007920
0.521778 0.374278 0.005528
0.593136 0.371886 0.003136
0.664494 0.369494 0.000744
0.735853 0.367102 0.000000
0.807211 0.364711 0.000000
0.878569 0.362319 0.000000
0.949927 0.359927 0.000000
1.000000 0.357536 0.000000
1.000000 0.355144 0.000000
0.000000 0.459116 0.016616
0.014224 0.456724 0.014224
0.085582 0.454332 0.011832
0.156941 0.451941 0.009441
0.228299 0.449549 0.007049
0.299657 0.447157 0.004657
0.371015 0.444765 0.002265
0.442374 0.442374 0.000000
0.513732 0.439982 0.000000
0.585090 0.437590 0.000000
0.656448 0.435198 0.000000
0.727807 0.432807 0.000000
0.799165 0.430415 0.000000
0.870523 0.428023 0.000000
0.981881 0.445631 0.000000
1.000000 0.443240 0.000000
1.000000 0.440848 0.000000
0.000000 0.524820 0.008570
0.006178 0.522428 0.006178
0.077536 0.520036 0.003786
0.148895 0.517644 0.001395
0.220253 0.515253 0.000000
0.291611 0.512861 0.000000
0.362969 0.510469 0.000000
0.434328 0.508077 0.000000
0.505686 0.505686 0.000000
0.577044 0.503294 0.000000
0.648402 0.500902 0.000000
0.759761 0.518510 0.000000
0.831119 0.516119 0.000000
0.902477 0.513727 0.000000
0.973835 0.511335 0.000000
1.000000 0.508943 0.000000
1.000000 0.506552 0.000000
0.000000 0.590524 0.000524
0.000000 0.588132 0.000000
0.069490 0.585740 0.000000
0.140849 0.583349 0.000000
0.212207 0.580957 0.000000
0.283565 0.578565 0.000000
0.354923 0.576173 0.000000
0.426281 0.573781 0.000000
0.537640 0.591390 0.000000
0.608998 0.588998 0.000000
0.680356 0.586606 0.000000
0.751715 0.584214 0.000000
0.823073 0.581823 0.000000
0.894431 0.579431 0.000000
0.965789 0.577039 0.000000
1.000000 0.574647 0.000000
1.000000 0.572256 0.000000
0.000000 0.656228 0.000000
0.000000 0.653836 0.000000
0.061444 0.651444 0.000000
0.132803 0.649053 0.000000
0.244161 0.666661 0.000000
0.315519 0.664269 0.000000
0.386877 0.661877 0.000000
0.458235 0.659485 0.000000
0.529594 0.657094 0.000000
0.600952 0.654702 0.000000
0.672310 0.652310 0.000000
0.743669 0.649919 0.000000
0.815027 0.647527 0.000000
0.886385 0.645135 0.000000
0.957743 0.642743 0.000000
1.000000 0.640352 0.000000
1.000000 0.637960 0.000000
0.000000 0.721932 0.000000
0.022040 0.739540 0.000000
0.093398 0.737148 0.000000
0.164757 0.734757 0.000000
0.236115 0.732365 0.000000
0.307473 0.729973 0.000000
0.378831 0.727581 0.000000
0.450189 0.725190 0.000000
0.521548 0.722798 0.000000
0.592906 0.720406 0.000000
0.664264 0.718014 0.000000
0.735623 0.715623 0.000000
0.806981 0.713231 0.000000
0.878339 0.710839 0.000000
0.949697 0.708447 0.000000
1.000000 0.706056 0.000000
1.000000 0.703664 0.000000
0.000000 0.807636 0.000000
0.013994 0.805244 0.000000
0.085352 0.802852 0.000000
0.156711 0.800461 0.000000
0.228069 0.798069 0.000000
0.299427 0.795677 0.000000
0.370785 0.793285 0.000000
0.442143 0.790894 0.000000
0.513502 0.788502 0.000000
0.584860 0.786110 0.000000
0.656218 0.783718 0.000000
0.727577 0.781327 0.000000
0.798935 0.778935 0.000000
0.870293 0.776543 0.000000
0.941651 0.774151 0.000000
1.000000 0.771760 0.000000
1.000000 0.769368 0.000000
0.000000 0.873340 0.000000
0.005948 0.870948 0.000000
0.077306 0.868556 0.000000
0.148665 0.866165 0.000000
0.220023 0.863773 0.000000
0.291381 0.861381 0.000000
0.362739 0.858989 0.000000
0.434098 0.856598 0.000000
0.505456 0.854206 0.000000
0.576814 0.851814 0.000000
0.648172 0.849422 0.000000
0.719531 0.847031 0.000000
0.790889 0.844639 0.000000
0.862247 0.842247 0.000000
0.933605 0.839855 0.000000
1.000000 0.837464 0.000000
1.000000 0.835072 0.000000
0.000000 0.939044 0.000000
0.000000 0.936652 0.000000
0.069260 0.934260 0.000000
0.140619 0.931868 0.000000
0.211977 0.929477 0.000000
0.283335 0.927085 0.000000
0.354693 0.924693 0.000000
0.426052 0.922301 0.000000
0.497410 0.919910 0.000000
0.568768 0.917518 0.000000
0.640126 0.915126 0.000000
0.711485 0.912735 0.000000
0.782843 0.910343 0.000000
0.854201 0.907951 0.000000
0.925559 0.905559 0.000000
0.996918 0.903168 0.000000
1.000000 0.900776 0.000000
0.000000 1.000000 0.000000
0.000000 1.000000 0.000000
0.061214 0.999964 0.000000
0.132573 0.997572 0.000000
0.203931 0.995181 0.000000
0.275289 0.992789 0.000000
0.346647 0.990397 0.000000
0.418005 0.988005 0.000000
0.489364 0.985614 0.000000
0.560722 0.983222 0.000000
0.632080 0.980830 0.000000
0.703439 0.978438 0.000000
0.774797 0.976047 0.000000
0.846155 0.973655 0.000000
0.917513 0.971263 0.000000
0.988872 0.968871 0.000000
1.000000 0.966480 0.000000
0.000000 1.000000 0.000000
0.000000 1.000000 0.000000
0.053168 1.000000 0.000000
0.124527 1.000000 0.000000
0.195885 1.000000 0.000000
0.267243 1.000000 0.000000
0.338601 1.000000 0.000000
0.409959 1.000000 0.000000
0.481318 1.000000 0.000000
0.552676 1.000000 0.000000
0.624034 1.000000 0.000000
0.695393 1.000000 0.000000
0.766751 1.000000 0.000000
0.838109 1.000000 0.000000
0.909467 1.000000 0.000000
0.980826 1.000000 0.000000
1.000000 1.000000 0.000000
0.000000 0.000000 0.145875
0.069734 0.000000 0.143484
0.141092 0.000000 0.141092
0.212450 0.000000 0.138700
0.283808 0.000000 0.136308
0.355167 0.000000 0.133917
0.426525 0.000000 0.131525
0.497883 0.000000 0.129133
0.569241 0.000000 0.126742
0.640600 0.000000 0.124350
0.711958 0.000000 0.121958
0.783316 0.000000 0.119566
0.854675 0.000000 0.117175
0.926033 0.000000 0.114783
0.997391 0.000000 0.112391
1.000000 0.000000 0.109999
1.000000 0.000000 0.107608
0.000000 0.064079 0.137829
0.061688 0.061688 0.135438
0.133046 0.059296 0.133046
0.204404 0.056904 0.130654
0.275763 0.054513 0.128263
0.347121 0.052121 0.125871
0.418479 0.049729 0.123479
0.489837 0.047337 0.121087
0.561195 0.044945 0.118696
0.632554 0.042554 0.116304
0.703912 0.040162 0.113912
0.775270 0.037770 0.111520
0.846629 0.035379 0.109129
0.917987 0.032987 0.106737
0.989345 0.030595 0.104345
1.000000 0.028203 0.101953
1.000000 0.025812 0.099561
0.000000 0.129783 0.129783
0.053642 0.127392 0.127392
0.125000 0.125000 0.125000
0.196358 0.122608 0.122608
0.267717 0.120217 0.120217
0.339075 0.117825 0.117825
0.410433 0.115433 0.115433
0.481791 0.113041 0.113041
0.553149 0.110650 0.110650
0.624508 0.108258 0.108258
0.695866 0.105866 0.105866
0.767224 0.103474 0.103474
0.838583 0.101082 0.101082
0.909941 0.098691 0.098691
0.981299 0.096299 0.096299
1.000000 0.093907 0.093907
1.000000 0.091515 0.091515
0.000000 0.195487 0.121737
0.045596 0.193096 0.119346
0.116954 0.190704 0.116954
0.188312 0.188312 0.114562
0.259671 0.185920 0.112171
0.331029 0.183529 0.109779
0.402387 0.181137 0.107387
0.473745 0.178745 0.104995
0.545103 0.176353 0.102604
0.616462 0.173962 0.100212
0.687820 0.171570 0.097820
0.759178 0.169178 0.095428
0.830537 0.166787 0.093037
0.901895 0.164395 0.090645
0.973253 0.162003 0.088253
1.000000 0.159611 0.085861
1.000000 0.157220 0.083470
0.000000 0.261192 0.113692
0.037550 0.258800 0.111300
0.108908 0.256408 0.108908
0.180266 0.254016 0.106516
0.251625 0.251625 0.104125
0.322983 0.249233 0.101733
0.394341 0.246841 0.099341
0.465699 0.244449 0.096949
0.537057 0.242057 0.094558
0.608416 0.239666 0.092166
0.679774 0.237274 0.089774
0.751132 0.234882 0.087382
0.822491 0.232490 0.084991
0.893849 0.230099 0.082599
0.965207 0.227707 0.080207
1.000000 0.225315 0.077815
1.000000 0.222924 0.075424
0.000000 0.326896 0.105646
0.029504 0.324504 0.103254
0.100862 0.322112 0.100862
0.172220 0.319720 0.098470
0.243579 0.317329 0.096079
0.314937 0.314937 0.093687
0.386295 0.312545 0.091295
0.457653 0.310153 0.088903
0.529011 0.307762 0.086512
0.600370 0.305370 0.084120
0.671728 0.302978 0.081728
0.743086 0.300586 0.079336
0.814445 0.298195 0.076945
0.885803 0.295803 0.074553
0.957161 0.293411 0.072161
1.000000 0.291019 0.069769
1.000000 0.288628 0.067378
0.000000 0.392599 0.097600
0.021458 0.390208 0.095208
0.092816 0.387816 0.092816
0.164174 0.385424 0.090424
0.235533 0.383032 0.088033
0.306891 0.380641 0.085641
0.378249 0.378249 0.083249
0.449607 0.375857 0.080857
0.520965 0.373466 0.078466
0.592324 0.371074 0.076074
0.663682 0.368682 0.073682
0.735040 0.366290 0.071290
0.806399 0.363899 0.068899
0.877757 0.361507 0.066507
0.949115 0.359115 0.064115
1.000000 0.356723 0.061723
1.000000 0.354332 0.059332
0.000000 0.458303 0.089554
0.013412 0.455912 0.087162
0.084770 0.453520 0.084770
0.156128 0.451128 0.082378
0.227487 0.448736 0.079987
0.298845 0.446345 0.077595
0.370203 0.443953 0.075203
0.441561 0.441561 0.072811
0.512919 0.439169 0.070420
0.584278 0.436778 0.068028
0.655636 0.434386 0.065636
0.726994 0.431994 0.063244
0.798353 0.429602 0.060853
0.869711 0.427211 0.058461
0.981069 0.444819 0.046069
1.000000 0.442427 0.043677
1.000000 0.440036 0.041286
0.000000 0.524007 0.081508
0.005366 0.521616 0.079116
0.076724 0.519224 0.076724
0.148082 0.516832 0.074332
0.219441 0.514440 0.071941
0.290799 0.512049 0.069549
0.362157 0.509657 0.067157
0.433515 0.507265 0.064765
0.504873 0.504873 0.062374
0.576232 0.502482 0.059982
0.647590 0.500090 0.057590
0.758948 0.517698 0.045198
0.830307 0.515307 0.042807
0.901665 0.512915 0.040415
0.973023 0.510523 0.038023
1.000000 0.508131 0.035631
1.000000 0.505740 0.033239
0.000000 0.589711 0.073462
0.000000 0.587320 0.071070
0.068678 0.584928 0.068678
0.140036 0.582536 0.066286
0.211394 0.580144 0.063895
0.282753 0.577753 0.061503
0.354111 0.575361 0.059111
0.465469 0.592969 0.046719
0.536828 0.590577 0.044328
0.608186 0.588186 0.041936
0.679544 0.585794 0.039544
0.750902 0.583402 0.037152
0.822261 0.581010 0.034761
0.893619 0.578619 0.032369
0.964977 0.576227 0.029977
1.000000 0.573835 0.027585
1.000000 0.571443 0.025193
0.000000 0.655415 0.065416
0.000000 0.653024 0.063024
0.060632 0.650632 0.060632
0.131990 0.648240 0.058240
0.243349 0.665849 0.045849
0.314707 0.663457 0.043457
0.386065 0.661065 0.041065
0.457423 0.658673 0.038673
0.528782 0.656282 0.036282
0.600140 0.653890 0.033890
0.671498 0.651498 0.031498
0.742856 0.649106 0.029106
0.814215 0.646715 0.026715
0.885573 0.644323 0.024323
0.956931 0.641931 0.021931
1.000000 0.639539 0.019539
1.000000 0.637147 0.017148
0.000000 0.741120 0.047370
0.021228 0.738728 0.044978
0.092586 0.736336 0.042586
0.163944 0.733944 0.040194
0.235303 0.731553 0.037803
0.306661 0.729161 0.035411
0.378019 0.726769 0.033019
0.449377 0.724377 0.030627
0.520736 0.721986 0.028236
0.592094 0.719594 0.025844
0.663452 0.717202 0.023452
0.734810 0.714810 0.021060
0.806169 0.712419 0.018668
0.877527 0.710027 0.016277
0.948885 0.707635 0.013885
1.000000 0.705243 0.011493
1.000000 0.702852 0.009102
0.000000 0.806824 0.039324
0.013182 0.804432 0.036932
0.084540 0.802040 0.034540
0.155898 0.799648 0.032148
0.227257 0.797257 0.029757
0.298615 0.794865 0.027365
0.369973 0.792473 0.024973
0.441331 0.790081 0.022581
0.512690 0.787690 0.020189
0.584048 0.785298 0.017798
0.655406 0.782906 0.015406
0.726764 0.780514 0.013014
0.798123 0.778123 0.010623
0.869481 0.775731 0.008231
0.940839 0.773339 0.005839
1.000000 0.770947 0.003447
1.000000 0.768556 0.001055
0.000000 0.872528 0.031278
0.005136 0.870136 0.028886
0.076494 0.867744 0.026494
0.147852 0.865352 0.024102
0.219211 0.862961 0.021711
0.290569 0.860569 0.019319
0.361927 0.858177 0.016927
0.433285 0.855785 0.014535
0.504644 0.853394 0.012144
0.576002 0.851002 0.009752
0.647360 0.848610 0.007360
0.718718 0.846218 0.004968
0.790077 0.843827 0.002577
0.861435 0.841435 0.000185
0.932793 0.839043 0.000000
1.000000 0.836651 0.000000
1.000000 0.834260 0.000000
0.000000 0.938232 0.023232
0.000000 0.935840 0.020840
0.068448 0.933448 0.018448
0.139806 0.931056 0.016056
0.211165 0.928665 0.013665
0.282523 0.926273 0.011273
0.353881 0.923881 0.008881
0.425239 0.921489 0.006489
0.496598 0.919098 0.004098
0.567956 0.916706 0.001706
0.639314 0.914314 0.000000
0.710672 0.911922 0.000000
0.782031 0.909531 0.000000
0.853389 0.907139 0.000000
0.924747 0.904747 0.000000
0.996105 0.902355 0.000000
1.000000 0.899964 0.000000
0.000000 1.000000 0.015186
0.000000 1.000000 0.012794
0.060402 0.999152 0.010402
0.131760 0.996760 0.008010
0.203119 0.994368 0.005619
0.274477 0.991977 0.003227
0.345835 0.989585 0.000835
0.417193 0.987193 0.000000
0.488552 0.984801 0.000000
0.559910 0.982410 0.000000
0.631268 0.980018 0.000000
0.702626 0.977626 0.000000
0.773985 0.975235 0.000000
0.845343 0.972843 0.000000
0.916701 0.970451 0.000000
0.988059 0.968059 0.000000
1.000000 0.965668 0.000000
0.000000 1.000000 0.007140
0.000000 1.000000 0.004748
0.052356 1.000000 0.002356
0.123714 1.000000 0.000000
0.195073 1.000000 0.000000
0.266431 1.000000 0.000000
0.337789 1.000000 0.000000
0.409147 1.000000 0.000000
0.480506 1.000000 0.000000
0.551864 1.000000 0.000000
0.623222 1.000000 0.000000
0.694580 1.000000 0.000000
0.765939 1.000000 0.000000
0.837297 1.000000 0.000000
0.908655 1.000000 0.000000
0.980013 1.000000 0.000000
1.000000 1.000000 0.000000
0.000000 0.000000 0.218813
0.068921 0.000000 0.216421
0.140280 0.000000 0.214030
0.211638 0.000000 0.211638
0.282996 0.000000 0.209246
0.354354 0.000000 0.206854
0.425713 0.000000 0.204463
0.497071 0.000000 0.202071
0.568429 0.000000 0.199679
0.639787 0.000000 0.197288
0.711146 0.000000 0.194896
0.782504 0.000000 0.192504
0.853862 0.000000 0.190112
0.925221 0.000000 0.187720
0.996579 0.000000 0.185329
1.000000 0.000000 0.182937
1.000000 0.000000 0.180545
0.000000 0.063267 0.210767
0.060875 0.060875 0.208375
