.claude/skills/youtube-edit/luts/warm_vintage.cube
# Warm Vintage
# Generated for the youtube-edit skill — CC0
LUT_3D_SIZE 17
0.072000 0.040600 0.008400
0.135000 0.040600 0.008400
0.198000 0.040600 0.008400
0.261000 0.040600 0.008400
0.324000 0.040600 0.008400
0.387000 0.040600 0.008400
0.450000 0.040600 0.008400
0.513000 0.040600 0.008400
0.576000 0.040600 0.008400
0.639000 0.040600 0.008400
0.702000 0.040600 0.008400
0.765000 0.040600 0.008400
0.828000 0.040600 0.008400
0.885874 0.040600 0.008400
0.925014 0.040600 0.008400
0.950731 0.040600 0.008400
0.967628 0.040600 0.008400
0.072000 0.102437 0.008400
0.135000 0.102437 0.008400
0.198000 0.102437 0.008400
0.261000 0.102437 0.008400
0.324000 0.102437 0.008400
0.387000 0.102437 0.008400
0.450000 0.102437 0.008400
0.513000 0.102437 0.008400
0.576000 0.102437 0.008400
0.639000 0.102437 0.008400
0.702000 0.102437 0.008400
0.765000 0.102437 0.008400
0.828000 0.102437 0.008400
0.885874 0.102437 0.008400
0.925014 0.102437 0.008400
0.950731 0.102437 0.008400
0.967628 0.102437 0.008400
0.072000 0.164275 0.008400
0.135000 0.164275 0.008400
0.198000 0.164275 0.008400
0.261000 0.164275 0.008400
0.324000 0.164275 0.008400
0.387000 0.164275 0.008400
0.450000 0.164275 0.008400
0.513000 0.164275 0.008400
0.576000 0.164275 0.008400
0.639000 0.164275 0.008400
0.702000 0.164275 0.008400
0.765000 0.164275 0.008400
0.828000 0.164275 0.008400
0.885874 0.164275 0.008400
0.925014 0.164275 0.008400
0.950731 0.164275 0.008400
0.967628 0.164275 0.008400
0.072000 0.226113 0.008400
0.135000 0.226113 0.008400
0.198000 0.226113 0.008400
0.261000 0.226113 0.008400
0.324000 0.226113 0.008400
0.387000 0.226113 0.008400
0.450000 0.226113 0.008400
0.513000 0.226113 0.008400
0.576000 0.226113 0.008400
0.639000 0.226113 0.008400
0.702000 0.226113 0.008400
0.765000 0.226113 0.008400
0.828000 0.226113 0.008400
0.885874 0.226113 0.008400
0.925014 0.226113 0.008400
0.950731 0.226113 0.008400
0.967628 0.226113 0.008400
0.072000 0.287950 0.008400
0.135000 0.287950 0.008400
0.198000 0.287950 0.008400
0.261000 0.287950 0.008400
0.324000 0.287950 0.008400
0.387000 0.287950 0.008400
0.450000 0.287950 0.008400
0.513000 0.287950 0.008400
0.576000 0.287950 0.008400
0.639000 0.287950 0.008400
0.702000 0.287950 0.008400
0.765000 0.287950 0.008400
0.828000 0.287950 0.008400
0.885874 0.287950 0.008400
0.925014 0.287950 0.008400
0.950731 0.287950 0.008400
0.967628 0.287950 0.008400
0.072000 0.349788 0.008400
0.135000 0.349788 0.008400
0.198000 0.349788 0.008400
0.261000 0.349788 0.008400
0.324000 0.349788 0.008400
0.387000 0.349788 0.008400
0.450000 0.349788 0.008400
0.513000 0.349788 0.008400
0.576000 0.349788 0.008400
0.639000 0.349788 0.008400
0.702000 0.349788 0.008400
0.765000 0.349788 0.008400
0.828000 0.349788 0.008400
0.885874 0.349788 0.008400
0.925014 0.349788 0.008400
0.950731 0.349788 0.008400
0.967628 0.349788 0.008400
0.072000 0.411625 0.008400
0.135000 0.411625 0.008400
0.198000 0.411625 0.008400
0.261000 0.411625 0.008400
0.324000 0.411625 0.008400
0.387000 0.411625 0.008400
0.450000 0.411625 0.008400
0.513000 0.411625 0.008400
0.576000 0.411625 0.008400
0.639000 0.411625 0.008400
0.702000 0.411625 0.008400
0.765000 0.411625 0.008400
0.828000 0.411625 0.008400
0.885874 0.411625 0.008400
0.925014 0.411625 0.008400
0.950731 0.411625 0.008400
0.967628 0.411625 0.008400
0.072000 0.473463 0.008400
0.135000 0.473463 0.008400
0.198000 0.473463 0.008400
0.261000 0.473463 0.008400
0.324000 0.473463 0.008400
0.387000 0.473463 0.008400
0.450000 0.473463 0.008400
0.513000 0.473463 0.008400
0.576000 0.473463 0.008400
0.639000 0.473463 0.008400
0.702000 0.473463 0.008400
0.765000 0.473463 0.008400
0.828000 0.473463 0.008400
0.885874 0.473463 0.008400
0.925014 0.473463 0.008400
0.950731 0.473463 0.008400
0.967628 0.473463 0.008400
0.072000 0.535300 0.008400
0.135000 0.535300 0.008400
0.198000 0.535300 0.008400
0.261000 0.535300 0.008400
0.324000 0.535300 0.008400
0.387000 0.535300 0.008400
0.450000 0.535300 0.008400
0.513000 0.535300 0.008400
0.576000 0.535300 0.008400
0.639000 0.535300 0.008400
0.702000 0.535300 0.008400
0.765000 0.535300 0.008400
0.828000 0.535300 0.008400
0.885874 0.535300 0.008400
0.925014 0.535300 0.008400
0.950731 0.535300 0.008400
0.967628 0.535300 0.008400
0.072000 0.597138 0.008400
0.135000 0.597138 0.008400
0.198000 0.597138 0.008400
0.261000 0.597138 0.008400
0.324000 0.597138 0.008400
0.387000 0.597138 0.008400
0.450000 0.597138 0.008400
0.513000 0.597138 0.008400
0.576000 0.597138 0.008400
0.639000 0.597138 0.008400
0.702000 0.597138 0.008400
0.765000 0.597138 0.008400
0.828000 0.597138 0.008400
0.885874 0.597138 0.008400
0.925014 0.597138 0.008400
0.950731 0.597138 0.008400
0.967628 0.597138 0.008400
0.072000 0.658975 0.008400
0.135000 0.658975 0.008400
0.198000 0.658975 0.008400
0.261000 0.658975 0.008400
0.324000 0.658975 0.008400
0.387000 0.658975 0.008400
0.450000 0.658975 0.008400
0.513000 0.658975 0.008400
0.576000 0.658975 0.008400
0.639000 0.658975 0.008400
0.702000 0.658975 0.008400
0.765000 0.658975 0.008400
0.828000 0.658975 0.008400
0.885874 0.658975 0.008400
0.925014 0.658975 0.008400
0.950731 0.658975 0.008400
0.967628 0.658975 0.008400
0.072000 0.720813 0.008400
0.135000 0.720813 0.008400
0.198000 0.720813 0.008400
0.261000 0.720813 0.008400
0.324000 0.720813 0.008400
0.387000 0.720813 0.008400
0.450000 0.720813 0.008400
0.513000 0.720813 0.008400
0.576000 0.720813 0.008400
0.639000 0.720813 0.008400
0.702000 0.720813 0.008400
0.765000 0.720813 0.008400
0.828000 0.720813 0.008400
0.885874 0.720813 0.008400
0.925014 0.720813 0.008400
0.950731 0.720813 0.008400
0.967628 0.720813 0.008400
0.072000 0.782650 0.008400
0.135000 0.782650 0.008400
0.198000 0.782650 0.008400
0.261000 0.782650 0.008400
0.324000 0.782650 0.008400
0.387000 0.782650 0.008400
0.450000 0.782650 0.008400
0.513000 0.782650 0.008400
0.576000 0.782650 0.008400
0.639000 0.782650 0.008400
0.702000 0.782650 0.008400
0.765000 0.782650 0.008400
0.828000 0.782650 0.008400
0.885874 0.782650 0.008400
0.925014 0.782650 0.008400
0.950731 0.782650 0.008400
0.967628 0.782650 0.008400
0.072000 0.844488 0.008400
0.135000 0.844488 0.008400
0.198000 0.844488 0.008400
0.261000 0.844488 0.008400
0.324000 0.844488 0.008400
0.387000 0.844488 0.008400
0.450000 0.844488 0.008400
0.513000 0.844488 0.008400
0.576000 0.844488 0.008400
0.639000 0.844488 0.008400
0.702000 0.844488 0.008400
0.765000 0.844488 0.008400
0.828000 0.844488 0.008400
0.885874 0.844488 0.008400
0.925014 0.844488 0.008400
0.950731 0.844488 0.008400
0.967628 0.844488 0.008400
0.072000 0.903638 0.008400
0.135000 0.903638 0.008400
0.198000 0.903638 0.008400
0.261000 0.903638 0.008400
0.324000 0.903638 0.008400
0.387000 0.903638 0.008400
0.450000 0.903638 0.008400
0.513000 0.903638 0.008400
0.576000 0.903638 0.008400
0.639000 0.903638 0.008400
0.702000 0.903638 0.008400
0.765000 0.903638 0.008400
0.828000 0.903638 0.008400
0.885874 0.903638 0.008400
0.925014 0.903638 0.008400
0.950731 0.903638 0.008400
0.967628 0.903638 0.008400
0.072000 0.942441 0.008400
0.135000 0.942441 0.008400
0.198000 0.942441 0.008400
0.261000 0.942441 0.008400
0.324000 0.942441 0.008400
0.387000 0.942441 0.008400
0.450000 0.942441 0.008400
0.513000 0.942441 0.008400
0.576000 0.942441 0.008400
0.639000 0.942441 0.008400
0.702000 0.942441 0.008400
0.765000 0.942441 0.008400
0.828000 0.942441 0.008400
0.885874 0.942441 0.008400
0.925014 0.942441 0.008400
0.950731 0.942441 0.008400
0.967628 0.942441 0.008400
0.072000 0.965619 0.008400
0.135000 0.965619 0.008400
0.198000 0.965619 0.008400
0.261000 0.965619 0.008400
0.324000 0.965619 0.008400
0.387000 0.965619 0.008400
0.450000 0.965619 0.008400
0.513000 0.965619 0.008400
0.576000 0.965619 0.008400
0.639000 0.965619 0.008400
0.702000 0.965619 0.008400
0.765000 0.965619 0.008400
0.828000 0.965619 0.008400
0.885874 0.965619 0.008400
0.925014 0.965619 0.008400
0.950731 0.965619 0.008400
0.967628 0.965619 0.008400
0.072000 0.040600 0.064750
0.135000 0.040600 0.064750
0.198000 0.040600 0.064750
0.261000 0.040600 0.064750
0.324000 0.040600 0.064750
0.387000 0.040600 0.064750
0.450000 0.040600 0.064750
0.513000 0.040600 0.064750
0.576000 0.040600 0.064750
0.639000 0.040600 0.064750
0.702000 0.040600 0.064750
0.765000 0.040600 0.064750
0.828000 0.040600 0.064750
0.885874 0.040600 0.064750
0.925014 0.040600 0.064750
0.950731 0.040600 0.064750
0.967628 0.040600 0.064750
0.072000 0.102437 0.064750
0.135000 0.102437 0.064750
0.198000 0.102437 0.064750
0.261000 0.102437 0.064750
0.324000 0.102437 0.064750
0.387000 0.102437 0.064750
0.450000 0.102437 0.064750
0.513000 0.102437 0.064750
0.576000 0.102437 0.064750
0.639000 0.102437 0.064750
0.702000 0.102437 0.064750
0.765000 0.102437 0.064750
0.828000 0.102437 0.064750
0.885874 0.102437 0.064750
0.925014 0.102437 0.064750
0.950731 0.102437 0.064750
0.967628 0.102437 0.064750
0.072000 0.164275 0.064750
0.135000 0.164275 0.064750
0.198000 0.164275 0.064750
0.261000 0.164275 0.064750
0.324000 0.164275 0.064750
0.387000 0.164275 0.064750
0.450000 0.164275 0.064750
0.513000 0.164275 0.064750
0.576000 0.164275 0.064750
0.639000 0.164275 0.064750
0.702000 0.164275 0.064750
0.765000 0.164275 0.064750
0.828000 0.164275 0.064750
0.885874 0.164275 0.064750
0.925014 0.164275 0.064750
0.950731 0.164275 0.064750
0.967628 0.164275 0.064750
0.072000 0.226113 0.064750
0.135000 0.226113 0.064750
0.198000 0.226113 0.064750
0.261000 0.226113 0.064750
0.324000 0.226113 0.064750
0.387000 0.226113 0.064750
0.450000 0.226113 0.064750
0.513000 0.226113 0.064750
0.576000 0.226113 0.064750
0.639000 0.226113 0.064750
0.702000 0.226113 0.064750
0.765000 0.226113 0.064750
0.828000 0.226113 0.064750
0.885874 0.226113 0.064750
0.925014 0.226113 0.064750
0.950731 0.226113 0.064750
0.967628 0.226113 0.064750
0.072000 0.287950 0.064750
0.135000 0.287950 0.064750
0.198000 0.287950 0.064750
0.261000 0.287950 0.064750
0.324000 0.287950 0.064750
0.387000 0.287950 0.064750
0.450000 0.287950 0.064750
0.513000 0.287950 0.064750
0.576000 0.287950 0.064750
0.639000 0.287950 0.064750
0.702000 0.287950 0.064750
0.765000 0.287950 0.064750
0.828000 0.287950 0.064750
0.885874 0.287950 0.064750
0.925014 0.287950 0.064750
0.950731 0.287950 0.064750
0.967628 0.287950 0.064750
0.072000 0.349788 0.064750
0.135000 0.349788 0.064750
0.198000 0.349788 0.064750
0.261000 0.349788 0.064750
0.324000 0.349788 0.064750
0.387000 0.349788 0.064750
0.450000 0.349788 0.064750
0.513000 0.349788 0.064750
0.576000 0.349788 0.064750
0.639000 0.349788 0.064750
0.702000 0.349788 0.064750
0.765000 0.349788 0.064750
0.828000 0.349788 0.064750
0.885874 0.349788 0.064750
0.925014 0.349788 0.064750
0.950731 0.349788 0.064750
0.967628 0.349788 0.064750
0.072000 0.411625 0.064750
0.135000 0.411625 0.064750
0.198000 0.411625 0.064750
0.261000 0.411625 0.064750
0.324000 0.411625 0.064750
0.387000 0.411625 0.064750
0.450000 0.411625 0.064750
0.513000 0.411625 0.064750
0.576000 0.411625 0.064750
0.639000 0.411625 0.064750
0.702000 0.411625 0.064750
0.765000 0.411625 0.064750
0.828000 0.411625 0.064750
0.885874 0.411625 0.064750
0.925014 0.411625 0.064750
0.950731 0.411625 0.064750
0.967628 0.411625 0.064750
0.072000 0.473463 0.064750
0.135000 0.473463 0.064750
0.198000 0.473463 0.064750
0.261000 0.473463 0.064750
0.324000 0.473463 0.064750
0.387000 0.473463 0.064750
0.450000 0.473463 0.064750
0.513000 0.473463 0.064750
0.576000 0.473463 0.064750
0.639000 0.473463 0.064750
0.702000 0.473463 0.064750
0.765000 0.473463 0.064750
0.828000 0.473463 0.064750
0.885874 0.473463 0.064750
0.925014 0.473463 0.064750
0.950731 0.473463 0.064750
0.967628 0.473463 0.064750
0.072000 0.535300 0.064750
0.135000 0.535300 0.064750
0.198000 0.535300 0.064750
0.261000 0.535300 0.064750
0.324000 0.535300 0.064750
0.387000 0.535300 0.064750
0.450000 0.535300 0.064750
0.513000 0.535300 0.064750
0.576000 0.535300 0.064750
0.639000 0.535300 0.064750
0.702000 0.535300 0.064750
0.765000 0.535300 0.064750
0.828000 0.535300 0.064750
0.885874 0.535300 0.064750
0.925014 0.535300 0.064750
0.950731 0.535300 0.064750
0.967628 0.535300 0.064750
0.072000 0.597138 0.064750
0.135000 0.597138 0.064750
0.198000 0.597138 0.064750
0.261000 0.597138 0.064750
0.324000 0.597138 0.064750
0.387000 0.597138 0.064750
0.450000 0.597138 0.064750
0.513000 0.597138 0.064750
0.576000 0.597138 0.064750
0.639000 0.597138 0.064750
0.702000 0.597138 0.064750
0.765000 0.597138 0.064750
0.828000 0.597138 0.064750
0.885874 0.597138 0.064750
0.925014 0.597138 0.064750
0.950731 0.597138 0.064750
0.967628 0.597138 0.064750
0.072000 0.658975 0.064750
0.135000 0.658975 0.064750
0.198000 0.658975 0.064750
0.261000 0.658975 0.064750
0.324000 0.658975 0.064750
0.387000 0.658975 0.064750
0.450000 0.658975 0.064750
0.513000 0.658975 0.064750
0.576000 0.658975 0.064750
0.639000 0.658975 0.064750
0.702000 0.658975 0.064750
0.765000 0.658975 0.064750
0.828000 0.658975 0.064750
0.885874 0.658975 0.064750
0.925014 0.658975 0.064750
0.950731 0.658975 0.064750
0.967628 0.658975 0.064750
0.072000 0.720813 0.064750
0.135000 0.720813 0.064750
0.198000 0.720813 0.064750
0.261000 0.720813 0.064750
0.324000 0.720813 0.064750
0.387000 0.720813 0.064750
0.450000 0.720813 0.064750
0.513000 0.720813 0.064750
0.576000 0.720813 0.064750
0.639000 0.720813 0.064750
0.702000 0.720813 0.064750
0.765000 0.720813 0.064750
0.828000 0.720813 0.064750
0.885874 0.720813 0.064750
0.925014 0.720813 0.064750
0.950731 0.720813 0.064750
0.967628 0.720813 0.064750
0.072000 0.782650 0.064750
0.135000 0.782650 0.064750
0.198000 0.782650 0.064750
0.261000 0.782650 0.064750
0.324000 0.782650 0.064750
0.387000 0.782650 0.064750
0.450000 0.782650 0.064750
0.513000 0.782650 0.064750
0.576000 0.782650 0.064750
0.639000 0.782650 0.064750
0.702000 0.782650 0.064750
0.765000 0.782650 0.064750
0.828000 0.782650 0.064750
0.885874 0.782650 0.064750
0.925014 0.782650 0.064750
0.950731 0.782650 0.064750
0.967628 0.782650 0.064750
0.072000 0.844488 0.064750
0.135000 0.844488 0.064750
0.198000 0.844488 0.064750
0.261000 0.844488 0.064750
0.324000 0.844488 0.064750
0.387000 0.844488 0.064750
0.450000 0.844488 0.064750
0.513000 0.844488 0.064750
0.576000 0.844488 0.064750
0.639000 0.844488 0.064750
0.702000 0.844488 0.064750
0.765000 0.844488 0.064750
0.828000 0.844488 0.064750
0.885874 0.844488 0.064750
0.925014 0.844488 0.064750
0.950731 0.844488 0.064750
0.967628 0.844488 0.064750
0.072000 0.903638 0.064750
0.135000 0.903638 0.064750
0.198000 0.903638 0.064750
0.261000 0.903638 0.064750
0.324000 0.903638 0.064750
0.387000 0.903638 0.064750
0.450000 0.903638 0.064750
0.513000 0.903638 0.064750
0.576000 0.903638 0.064750
0.639000 0.903638 0.064750
0.702000 0.903638 0.064750
0.765000 0.903638 0.064750
0.828000 0.903638 0.064750
0.885874 0.903638 0.064750
0.925014 0.903638 0.064750
0.950731 0.903638 0.064750
0.967628 0.903638 0.064750
0.072000 0.942441 0.064750
0.135000 0.942441 0.064750
0.198000 0.942441 0.064750
0.261000 0.942441 0.064750
0.324000 0.942441 0.064750
0.387000 0.942441 0.064750
0.450000 0.942441 0.064750
0.513000 0.942441 0.064750
0.576000 0.942441 0.064750
0.639000 0.942441 0.064750
0.702000 0.942441 0.064750
0.765000 0.942441 0.064750
0.828000 0.942441 0.064750
0.885874 0.942441 0.064750
0.925014 0.942441 0.064750
0.950731 0.942441 0.064750
0.967628 0.942441 0.064750
0.072000 0.965619 0.064750
0.135000 0.965619 0.064750
0.198000 0.965619 0.064750
0.261000 0.965619 0.064750
0.324000 0.965619 0.064750
0.387000 0.965619 0.064750
0.450000 0.965619 0.064750
0.513000 0.965619 0.064750
0.576000 0.965619 0.064750
0.639000 0.965619 0.064750
0.702000 0.965619 0.064750
0.765000 0.965619 0.064750
0.828000 0.965619 0.064750
0.885874 0.965619 0.064750
0.925014 0.965619 0.064750
0.950731 0.965619 0.064750
0.967628 0.965619 0.064750
0.072000 0.040600 0.121100
0.135000 0.040600 0.121100
0.198000 0.040600 0.121100
0.261000 0.040600 0.121100
0.324000 0.040600 0.121100
0.387000 0.040600 0.121100
0.450000 0.040600 0.121100
0.513000 0.040600 0.121100
0.576000 0.040600 0.121100
0.639000 0.040600 0.121100
0.702000 0.040600 0.121100
0.765000 0.040600 0.121100
0.828000 0.040600 0.121100
0.885874 0.040600 0.121100
0.925014 0.040600 0.121100
0.950731 0.040600 0.121100
0.967628 0.040600 0.121100
0.072000 0.102437 0.121100
0.135000 0.102437 0.121100
0.198000 0.102437 0.121100
0.261000 0.102437 0.121100
0.324000 0.102437 0.121100
0.387000 0.102437 0.121100
0.450000 0.102437 0.121100
0.513000 0.102437 0.121100
0.576000 0.102437 0.121100
0.639000 0.102437 0.121100
0.702000 0.102437 0.121100
0.765000 0.102437 0.121100
0.828000 0.102437 0.121100
0.885874 0.102437 0.121100
0.925014 0.102437 0.121100
0.950731 0.102437 0.121100
0.967628 0.102437 0.121100
0.072000 0.164275 0.121100
0.135000 0.164275 0.121100
0.198000 0.164275 0.121100
0.261000 0.164275 0.121100
0.324000 0.164275 0.121100
0.387000 0.164275 0.121100
0.450000 0.164275 0.121100
0.513000 0.164275 0.121100
0.576000 0.164275 0.121100
0.639000 0.164275 0.121100
0.702000 0.164275 0.121100
0.765000 0.164275 0.121100
0.828000 0.164275 0.121100
0.885874 0.164275 0.121100
0.925014 0.164275 0.121100
0.950731 0.164275 0.121100
0.967628 0.164275 0.121100
0.072000 0.226113 0.121100
0.135000 0.226113 0.121100
0.198000 0.226113 0.121100
0.261000 0.226113 0.121100
0.324000 0.226113 0.121100
0.387000 0.226113 0.121100
0.450000 0.226113 0.121100
0.513000 0.226113 0.121100
0.576000 0.226113 0.121100
0.639000 0.226113 0.121100
0.702000 0.226113 0.121100
0.765000 0.226113 0.121100
0.828000 0.226113 0.121100
0.885874 0.226113 0.121100
0.925014 0.226113 0.121100
0.950731 0.226113 0.121100
0.967628 0.226113 0.121100
0.072000 0.287950 0.121100
0.135000 0.287950 0.121100
0.198000 0.287950 0.121100
0.261000 0.287950 0.121100
0.324000 0.287950 0.121100
0.387000 0.287950 0.121100
0.450000 0.287950 0.121100
0.513000 0.287950 0.121100
0.576000 0.287950 0.121100
0.639000 0.287950 0.121100
0.702000 0.287950 0.121100
0.765000 0.287950 0.121100
0.828000 0.287950 0.121100
0.885874 0.287950 0.121100
0.925014 0.287950 0.121100
0.950731 0.287950 0.121100
0.967628 0.287950 0.121100
0.072000 0.349788 0.121100
0.135000 0.349788 0.121100
0.198000 0.349788 0.121100
0.261000 0.349788 0.121100
0.324000 0.349788 0.121100
0.387000 0.349788 0.121100
0.450000 0.349788 0.121100
0.513000 0.349788 0.121100
0.576000 0.349788 0.121100
0.639000 0.349788 0.121100
0.702000 0.349788 0.121100
0.765000 0.349788 0.121100
0.828000 0.349788 0.121100
0.885874 0.349788 0.121100
0.925014 0.349788 0.121100
0.950731 0.349788 0.121100
0.967628 0.349788 0.121100
0.072000 0.411625 0.121100
0.135000 0.411625 0.121100
0.198000 0.411625 0.121100
0.261000 0.411625 0.121100
0.324000 0.411625 0.121100
0.387000 0.411625 0.121100
0.450000 0.411625 0.121100
0.513000 0.411625 0.121100
0.576000 0.411625 0.121100
0.639000 0.411625 0.121100
0.702000 0.411625 0.121100
0.765000 0.411625 0.121100
0.828000 0.411625 0.121100
0.885874 0.411625 0.121100
0.925014 0.411625 0.121100
0.950731 0.411625 0.121100
0.967628 0.411625 0.121100
0.072000 0.473463 0.121100
0.135000 0.473463 0.121100
0.198000 0.473463 0.121100
0.261000 0.473463 0.121100
0.324000 0.473463 0.121100
0.387000 0.473463 0.121100
0.450000 0.473463 0.121100
0.513000 0.473463 0.121100
0.576000 0.473463 0.121100
0.639000 0.473463 0.121100
0.702000 0.473463 0.121100
0.765000 0.473463 0.121100
0.828000 0.473463 0.121100
0.885874 0.473463 0.121100
0.925014 0.473463 0.121100
0.950731 0.473463 0.121100
0.967628 0.473463 0.121100
0.072000 0.535300 0.121100
0.135000 0.535300 0.121100
0.198000 0.535300 0.121100
0.261000 0.535300 0.121100
0.324000 0.535300 0.121100
0.387000 0.535300 0.121100
0.450000 0.535300 0.121100
0.513000 0.535300 0.121100
0.576000 0.535300 0.121100
0.639000 0.535300 0.121100
0.702000 0.535300 0.121100
0.765000 0.535300 0.121100
0.828000 0.535300 0.121100
0.885874 0.535300 0.121100
0.925014 0.535300 0.121100
0.950731 0.535300 0.121100
0.967628 0.535300 0.121100
0.072000 0.597138 0.121100
0.135000 0.597138 0.121100
0.198000 0.597138 0.121100
0.261000 0.597138 0.121100
0.324000 0.597138 0.121100
0.387000 0.597138 0.121100
0.450000 0.597138 0.121100
0.513000 0.597138 0.121100
0.576000 0.597138 0.121100
0.639000 0.597138 0.121100
0.702000 0.597138 0.121100
0.765000 0.597138 0.121100
0.828000 0.597138 0.121100
0.885874 0.597138 0.121100
0.925014 0.597138 0.121100
0.950731 0.597138 0.121100
0.967628 0.597138 0.121100
0.072000 0.658975 0.121100
0.135000 0.658975 0.121100
0.198000 0.658975 0.121100
0.261000 0.658975 0.121100
0.324000 0.658975 0.121100
0.387000 0.658975 0.121100
0.450000 0.658975 0.121100
0.513000 0.658975 0.121100
0.576000 0.658975 0.121100
0.639000 0.658975 0.121100
0.702000 0.658975 0.121100
0.765000 0.658975 0.121100
0.828000 0.658975 0.121100
0.885874 0.658975 0.121100
0.925014 0.658975 0.121100
0.950731 0.658975 0.121100
0.967628 0.658975 0.121100
0.072000 0.720813 0.121100
0.135000 0.720813 0.121100
0.198000 0.720813 0.121100
0.261000 0.720813 0.121100
0.324000 0.720813 0.121100
0.387000 0.720813 0.121100
0.450000 0.720813 0.121100
0.513000 0.720813 0.121100
0.576000 0.720813 0.121100
0.639000 0.720813 0.121100
0.702000 0.720813 0.121100
0.765000 0.720813 0.121100
0.828000 0.720813 0.121100
0.885874 0.720813 0.121100
0.925014 0.720813 0.121100
0.950731 0.720813 0.121100
0.967628 0.720813 0.121100
0.072000 0.782650 0.121100
0.135000 0.782650 0.121100
0.198000 0.782650 0.121100
0.261000 0.782650 0.121100
0.324000 0.782650 0.121100
0.387000 0.782650 0.121100
0.450000 0.782650 0.121100
0.513000 0.782650 0.121100
0.576000 0.782650 0.121100
0.639000 0.782650 0.121100
0.702000 0.782650 0.121100
0.765000 0.782650 0.121100
0.828000 0.782650 0.121100
0.885874 0.782650 0.121100
0.925014 0.782650 0.121100
0.950731 0.782650 0.121100
0.967628 0.782650 0.121100
0.072000 0.844488 0.121100
0.135000 0.844488 0.121100
0.198000 0.844488 0.121100
0.261000 0.844488 0.121100
0.324000 0.844488 0.121100
0.387000 0.844488 0.121100
0.450000 0.844488 0.121100
0.513000 0.844488 0.121100
0.576000 0.844488 0.121100
0.639000 0.844488 0.121100
0.702000 0.844488 0.121100
0.765000 0.844488 0.121100
0.828000 0.844488 0.121100
0.885874 0.844488 0.121100
0.925014 0.844488 0.121100
0.950731 0.844488 0.121100
0.967628 0.844488 0.121100
0.072000 0.903638 0.121100
0.135000 0.903638 0.121100
0.198000 0.903638 0.121100
0.261000 0.903638 0.121100
0.324000 0.903638 0.121100
0.387000 0.903638 0.121100
0.450000 0.903638 0.121100
0.513000 0.903638 0.121100
0.576000 0.903638 0.121100
0.639000 0.903638 0.121100
0.702000 0.903638 0.121100
0.765000 0.903638 0.121100
0.828000 0.903638 0.121100
0.885874 0.903638 0.121100
0.925014 0.903638 0.121100
0.950731 0.903638 0.121100
0.967628 0.903638 0.121100
0.072000 0.942441 0.121100
0.135000 0.942441 0.121100
0.198000 0.942441 0.121100
0.261000 0.942441 0.121100
0.324000 0.942441 0.121100
0.387000 0.942441 0.121100
0.450000 0.942441 0.121100
0.513000 0.942441 0.121100
0.576000 0.942441 0.121100
0.639000 0.942441 0.121100
0.702000 0.942441 0.121100
0.765000 0.942441 0.121100
0.828000 0.942441 0.121100
0.885874 0.942441 0.121100
0.925014 0.942441 0.121100
0.950731 0.942441 0.121100
0.967628 0.942441 0.121100
0.072000 0.965619 0.121100
0.135000 0.965619 0.121100
0.198000 0.965619 0.121100
0.261000 0.965619 0.121100
0.324000 0.965619 0.121100
0.387000 0.965619 0.121100
0.450000 0.965619 0.121100
0.513000 0.965619 0.121100
0.576000 0.965619 0.121100
0.639000 0.965619 0.121100
0.702000 0.965619 0.121100
0.765000 0.965619 0.121100
0.828000 0.965619 0.121100
0.885874 0.965619 0.121100
0.925014 0.965619 0.121100
0.950731 0.965619 0.121100
0.967628 0.965619 0.121100
0.072000 0.040600 0.177450
0.135000 0.040600 0.177450
0.198000 0.040600 0.177450
0.261000 0.040600 0.177450
0.324000 0.040600 0.177450
0.387000 0.040600 0.177450
0.450000 0.040600 0.177450
0.513000 0.040600 0.177450
0.576000 0.040600 0.177450
0.639000 0.040600 0.177450
0.702000 0.040600 0.177450
0.765000 0.040600 0.177450
0.828000 0.040600 0.177450
0.885874 0.040600 0.177450
0.925014 0.040600 0.177450
0.950731 0.040600 0.177450
0.967628 0.040600 0.177450
0.072000 0.102437 0.177450
0.135000 0.102437 0.177450
