.claude/skills/youtube-edit/luts/warm_vintage.cube
# Warm Vintage
# Generated for the youtube-edit skill — CC0
LUT_3D_SIZE 9
0.072000 0.040600 0.008400
0.198000 0.040600 0.008400
0.324000 0.040600 0.008400
0.450000 0.040600 0.008400
0.576000 0.040600 0.008400
0.702000 0.040600 0.008400
0.828000 0.040600 0.008400
0.925014 0.040600 0.008400
0.967628 0.040600 0.008400
0.072000 0.164275 0.008400
0.198000 0.164275 0.008400
0.324000 0.164275 0.008400
0.450000 0.164275 0.008400
0.576000 0.164275 0.008400
0.702000 0.164275 0.008400
0.828000 0.164275 0.008400
0.925014 0.164275 0.008400
0.967628 0.164275 0.008400
0.072000 0.287950 0.008400
0.198000 0.287950 0.008400
0.324000 0.287950 0.008400
0.450000 0.287950 0.008400
0.576000 0.287950 0.008400
0.702000 0.287950 0.008400
0.828000 0.287950 0.008400
0.925014 0.287950 0.008400
0.967628 0.287950 0.008400
0.072000 0.411625 0.008400
0.198000 0.411625 0.008400
0.324000 0.411625 0.008400
0.450000 0.411625 0.008400
0.576000 0.411625 0.008400
0.702000 0.411625 0.008400
0.828000 0.411625 0.008400
0.925014 0.411625 0.008400
0.967628 0.411625 0.008400
0.072000 0.535300 0.008400
0.198000 0.535300 0.008400
0.324000 0.535300 0.008400
0.450000 0.535300 0.008400
0.576000 0.535300 0.008400
0.702000 0.535300 0.008400
0.828000 0.535300 0.008400
0.925014 0.535300 0.008400
0.967628 0.535300 0.008400
0.072000 0.658975 0.008400
0.198000 0.658975 0.008400
0.324000 0.658975 0.008400
0.450000 0.658975 0.008400
0.576000 0.658975 0.008400
0.702000 0.658975 0.008400
0.828000 0.658975 0.008400
0.925014 0.658975 0.008400
0.967628 0.658975 0.008400
0.072000 0.782650 0.008400
0.198000 0.782650 0.008400
0.324000 0.782650 0.008400
0.450000 0.782650 0.008400
0.576000 0.782650 0.008400
0.702000 0.782650 0.008400
0.828000 0.782650 0.008400
0.925014 0.782650 0.008400
0.967628 0.782650 0.008400
0.072000 0.903638 0.008400
0.198000 0.903638 0.008400
0.324000 0.903638 0.008400
0.450000 0.903638 0.008400
0.576000 0.903638 0.008400
0.702000 0.903638 0.008400
0.828000 0.903638 0.008400
0.925014 0.903638 0.008400
0.967628 0.903638 0.008400
0.072000 0.965619 0.008400
0.198000 0.965619 0.008400
0.324000 0.965619 0.008400
0.450000 0.965619 0.008400
0.576000 0.965619 0.008400
0.702000 0.965619 0.008400
0.828000 0.965619 0.008400
0.925014 0.965619 0.008400
0.967628 0.965619 0.008400
0.072000 0.040600 0.121100
0.198000 0.040600 0.121100
0.324000 0.040600 0.121100
0.450000 0.040600 0.121100
0.576000 0.040600 0.121100
0.702000 0.040600 0.121100
0.828000 0.040600 0.121100
0.925014 0.040600 0.121100
0.967628 0.040600 0.121100
0.072000 0.164275 0.121100
0.198000 0.164275 0.121100
0.324000 0.164275 0.121100
0.450000 0.164275 0.121100
0.576000 0.164275 0.121100
0.702000 0.164275 0.121100
0.828000 0.164275 0.121100
0.925014 0.164275 0.121100
0.967628 0.164275 0.121100
0.072000 0.287950 0.121100
0.198000 0.287950 0.121100
0.324000 0.287950 0.121100
0.450000 0.287950 0.121100
0.576000 0.287950 0.121100
0.702000 0.287950 0.121100
0.828000 0.287950 0.121100
0.925014 0.287950 0.121100
0.967628 0.287950 0.121100
0.072000 0.411625 0.121100
0.198000 0.411625 0.121100
0.324000 0.411625 0.121100
0.450000 0.411625 0.121100
0.576000 0.411625 0.121100
0.702000 0.411625 0.121100
0.828000 0.411625 0.121100
0.925014 0.411625 0.121100
0.967628 0.411625 0.121100
0.072000 0.535300 0.121100
0.198000 0.535300 0.121100
0.324000 0.535300 0.121100
0.450000 0.535300 0.121100
0.576000 0.535300 0.121100
0.702000 0.535300 0.121100
0.828000 0.535300 0.121100
0.925014 0.535300 0.121100
0.967628 0.535300 0.121100
0.072000 0.658975 0.121100
0.198000 0.658975 0.121100
0.324000 0.658975 0.121100
0.450000 0.658975 0.121100
0.576000 0.658975 0.121100
0.702000 0.658975 0.121100
0.828000 0.658975 0.121100
0.925014 0.658975 0.121100
0.967628 0.658975 0.121100
0.072000 0.782650 0.121100
0.198000 0.782650 0.121100
0.324000 0.782650 0.121100
0.450000 0.782650 0.121100
0.576000 0.782650 0.121100
0.702000 0.782650 0.121100
0.828000 0.782650 0.121100
0.925014 0.782650 0.121100
0.967628 0.782650 0.121100
0.072000 0.903638 0.121100
0.198000 0.903638 0.121100
0.324000 0.903638 0.121100
0.450000 0.903638 0.121100
0.576000 0.903638 0.121100
0.702000 0.903638 0.121100
0.828000 0.903638 0.121100
0.925014 0.903638 0.121100
0.967628 0.903638 0.121100
0.072000 0.965619 0.121100
0.198000 0.965619 0.121100
0.324000 0.965619 0.121100
0.450000 0.965619 0.121100
0.576000 0.965619 0.121100
0.702000 0.965619 0.121100
0.828000 0.965619 0.121100
0.925014 0.965619 0.121100
0.967628 0.965619 0.121100
0.072000 0.040600 0.233800
0.198000 0.040600 0.233800
0.324000 0.040600 0.233800
0.450000 0.040600 0.233800
0.576000 0.040600 0.233800
0.702000 0.040600 0.233800
0.828000 0.040600 0.233800
0.925014 0.040600 0.233800
0.967628 0.040600 0.233800
0.072000 0.164275 0.233800
0.198000 0.164275 0.233800
0.324000 0.164275 0.233800
0.450000 0.164275 0.233800
0.576000 0.164275 0.233800
0.702000 0.164275 0.233800
0.828000 0.164275 0.233800
0.925014 0.164275 0.233800
0.967628 0.164275 0.233800
0.072000 0.287950 0.233800
0.198000 0.287950 0.233800
0.324000 0.287950 0.233800
0.450000 0.287950 0.233800
0.576000 0.287950 0.233800
0.702000 0.287950 0.233800
0.828000 0.287950 0.233800
0.925014 0.287950 0.233800
0.967628 0.287950 0.233800
0.072000 0.411625 0.233800
0.198000 0.411625 0.233800
0.324000 0.411625 0.233800
0.450000 0.411625 0.233800
0.576000 0.411625 0.233800
0.702000 0.411625 0.233800
0.828000 0.411625 0.233800
0.925014 0.411625 0.233800
0.967628 0.411625 0.233800
0.072000 0.535300 0.233800
0.198000 0.535300 0.233800
0.324000 0.535300 0.233800
0.450000 0.535300 0.233800
0.576000 0.535300 0.233800
0.702000 0.535300 0.233800
0.828000 0.535300 0.233800
0.925014 0.535300 0.233800
0.967628 0.535300 0.233800
0.072000 0.658975 0.233800
0.198000 0.658975 0.233800
0.324000 0.658975 0.233800
0.450000 0.658975 0.233800
0.576000 0.658975 0.233800
0.702000 0.658975 0.233800
0.828000 0.658975 0.233800
0.925014 0.658975 0.233800
0.967628 0.658975 0.233800
0.072000 0.782650 0.233800
0.198000 0.782650 0.233800
0.324000 0.782650 0.233800
0.450000 0.782650 0.233800
0.576000 0.782650 0.233800
0.702000 0.782650 0.233800
0.828000 0.782650 0.233800
0.925014 0.782650 0.233800
0.967628 0.782650 0.233800
0.072000 0.903638 0.233800
0.198000 0.903638 0.233800
0.324000 0.903638 0.233800
0.450000 0.903638 0.233800
0.576000 0.903638 0.233800
0.702000 0.903638 0.233800
0.828000 0.903638 0.233800
0.925014 0.903638 0.233800
0.967628 0.903638 0.233800
0.072000 0.965619 0.233800
0.198000 0.965619 0.233800
0.324000 0.965619 0.233800
0.450000 0.965619 0.233800
0.576000 0.965619 0.233800
0.702000 0.965619 0.233800
0.828000 0.965619 0.233800
0.925014 0.965619 0.233800
0.967628 0.965619 0.233800
0.072000 0.040600 0.346500
0.198000 0.040600 0.346500
0.324000 0.040600 0.346500
0.450000 0.040600 0.346500
0.576000 0.040600 0.346500
0.702000 0.040600 0.346500
0.828000 0.040600 0.346500
0.925014 0.040600 0.346500
0.967628 0.040600 0.346500
0.072000 0.164275 0.346500
0.198000 0.164275 0.346500
0.324000 0.164275 0.346500
0.450000 0.164275 0.346500
0.576000 0.164275 0.346500
0.702000 0.164275 0.346500
0.828000 0.164275 0.346500
0.925014 0.164275 0.346500
0.967628 0.164275 0.346500
0.072000 0.287950 0.346500
0.198000 0.287950 0.346500
0.324000 0.287950 0.346500
0.450000 0.287950 0.346500
0.576000 0.287950 0.346500
0.702000 0.287950 0.346500
0.828000 0.287950 0.346500
0.925014 0.287950 0.346500
0.967628 0.287950 0.346500
0.072000 0.411625 0.346500
0.198000 0.411625 0.346500
0.324000 0.411625 0.346500
0.450000 0.411625 0.346500
0.576000 0.411625 0.346500
0.702000 0.411625 0.346500
0.828000 0.411625 0.346500
0.925014 0.411625 0.346500
0.967628 0.411625 0.346500
0.072000 0.535300 0.346500
0.198000 0.535300 0.346500
0.324000 0.535300 0.346500
0.450000 0.535300 0.346500
0.576000 0.535300 0.346500
0.702000 0.535300 0.346500
0.828000 0.535300 0.346500
0.925014 0.535300 0.346500
0.967628 0.535300 0.346500
0.072000 0.658975 0.346500
0.198000 0.658975 0.346500
0.324000 0.658975 0.346500
0.450000 0.658975 0.346500
0.576000 0.658975 0.346500
0.702000 0.658975 0.346500
0.828000 0.658975 0.346500
0.925014 0.658975 0.346500
0.967628 0.658975 0.346500
0.072000 0.782650 0.346500
0.198000 0.782650 0.346500
0.324000 0.782650 0.346500
0.450000 0.782650 0.346500
0.576000 0.782650 0.346500
0.702000 0.782650 0.346500
0.828000 0.782650 0.346500
0.925014 0.782650 0.346500
0.967628 0.782650 0.346500
0.072000 0.903638 0.346500
0.198000 0.903638 0.346500
0.324000 0.903638 0.346500
0.450000 0.903638 0.346500
0.576000 0.903638 0.346500
0.702000 0.903638 0.346500
0.828000 0.903638 0.346500
0.925014 0.903638 0.346500
0.967628 0.903638 0.346500
0.072000 0.965619 0.346500
0.198000 0.965619 0.346500
0.324000 0.965619 0.346500
0.450000 0.965619 0.346500
0.576000 0.965619 0.346500
0.702000 0.965619 0.346500
0.828000 0.965619 0.346500
0.925014 0.965619 0.346500
0.967628 0.965619 0.346500
0.072000 0.040600 0.459200
0.198000 0.040600 0.459200
0.324000 0.040600 0.459200
0.450000 0.040600 0.459200
0.576000 0.040600 0.459200
0.702000 0.040600 0.459200
0.828000 0.040600 0.459200
0.925014 0.040600 0.459200
0.967628 0.040600 0.459200
0.072000 0.164275 0.459200
0.198000 0.164275 0.459200
0.324000 0.164275 0.459200
0.450000 0.164275 0.459200
0.576000 0.164275 0.459200
0.702000 0.164275 0.459200
0.828000 0.164275 0.459200
0.925014 0.164275 0.459200
0.967628 0.164275 0.459200
0.072000 0.287950 0.459200
0.198000 0.287950 0.459200
0.324000 0.287950 0.459200
0.450000 0.287950 0.459200
0.576000 0.287950 0.459200
0.702000 0.287950 0.459200
0.828000 0.287950 0.459200
0.925014 0.287950 0.459200
0.967628 0.287950 0.459200
0.072000 0.411625 0.459200
0.198000 0.411625 0.459200
0.324000 0.411625 0.459200
0.450000 0.411625 0.459200
0.576000 0.411625 0.459200
0.702000 0.411625 0.459200
0.828000 0.411625 0.459200
0.925014 0.411625 0.459200
0.967628 0.411625 0.459200
0.072000 0.535300 0.459200
0.198000 0.535300 0.459200
0.324000 0.535300 0.459200
0.450000 0.535300 0.459200
0.576000 0.535300 0.459200
0.702000 0.535300 0.459200
0.828000 0.535300 0.459200
0.925014 0.535300 0.459200
0.967628 0.535300 0.459200
0.072000 0.658975 0.459200
0.198000 0.658975 0.459200
0.324000 0.658975 0.459200
0.450000 0.658975 0.459200
0.576000 0.658975 0.459200
0.702000 0.658975 0.459200
0.828000 0.658975 0.459200
0.925014 0.658975 0.459200
0.967628 0.658975 0.459200
0.072000 0.782650 0.459200
0.198000 0.782650 0.459200
0.324000 0.782650 0.459200
0.450000 0.782650 0.459200
0.576000 0.782650 0.459200
0.702000 0.782650 0.459200
0.828000 0.782650 0.459200
0.925014 0.782650 0.459200
0.967628 0.782650 0.459200
0.072000 0.903638 0.459200
0.198000 0.903638 0.459200
0.324000 0.903638 0.459200
0.450000 0.903638 0.459200
0.576000 0.903638 0.459200
0.702000 0.903638 0.459200
0.828000 0.903638 0.459200
0.925014 0.903638 0.459200
0.967628 0.903638 0.459200
0.072000 0.965619 0.459200
0.198000 0.965619 0.459200
0.324000 0.965619 0.459200
0.450000 0.965619 0.459200
0.576000 0.965619 0.459200
0.702000 0.965619 0.459200
0.828000 0.965619 0.459200
0.925014 0.965619 0.459200
0.967628 0.965619 0.459200
0.072000 0.040600 0.571900
0.198000 0.040600 0.571900
0.324000 0.040600 0.571900
0.450000 0.040600 0.571900
0.576000 0.040600 0.571900
0.702000 0.040600 0.571900
0.828000 0.040600 0.571900
0.925014 0.040600 0.571900
0.967628 0.040600 0.571900
0.072000 0.164275 0.571900
0.198000 0.164275 0.571900
0.324000 0.164275 0.571900
0.450000 0.164275 0.571900
0.576000 0.164275 0.571900
0.702000 0.164275 0.571900
0.828000 0.164275 0.571900
0.925014 0.164275 0.571900
0.967628 0.164275 0.571900
0.072000 0.287950 0.571900
0.198000 0.287950 0.571900
0.324000 0.287950 0.571900
0.450000 0.287950 0.571900
0.576000 0.287950 0.571900
0.702000 0.287950 0.571900
0.828000 0.287950 0.571900
0.925014 0.287950 0.571900
0.967628 0.287950 0.571900
0.072000 0.411625 0.571900
0.198000 0.411625 0.571900
0.324000 0.411625 0.571900
0.450000 0.411625 0.571900
0.576000 0.411625 0.571900
0.702000 0.411625 0.571900
0.828000 0.411625 0.571900
0.925014 0.411625 0.571900
0.967628 0.411625 0.571900
0.072000 0.535300 0.571900
0.198000 0.535300 0.571900
0.324000 0.535300 0.571900
0.450000 0.535300 0.571900
0.576000 0.535300 0.571900
0.702000 0.535300 0.571900
0.828000 0.535300 0.571900
0.925014 0.535300 0.571900
0.967628 0.535300 0.571900
0.072000 0.658975 0.571900
0.198000 0.658975 0.571900
0.324000 0.658975 0.571900
0.450000 0.658975 0.571900
0.576000 0.658975 0.571900
0.702000 0.658975 0.571900
0.828000 0.658975 0.571900
0.925014 0.658975 0.571900
0.967628 0.658975 0.571900
0.072000 0.782650 0.571900
0.198000 0.782650 0.571900
0.324000 0.782650 0.571900
0.450000 0.782650 0.571900
0.576000 0.782650 0.571900
0.702000 0.782650 0.571900
0.828000 0.782650 0.571900
0.925014 0.782650 0.571900
0.967628 0.782650 0.571900
0.072000 0.903638 0.571900
0.198000 0.903638 0.571900
0.324000 0.903638 0.571900
0.450000 0.903638 0.571900
0.576000 0.903638 0.571900
0.702000 0.903638 0.571900
0.828000 0.903638 0.571900
0.925014 0.903638 0.571900
0.967628 0.903638 0.571900
0.072000 0.965619 0.571900
0.198000 0.965619 0.571900
0.324000 0.965619 0.571900
0.450000 0.965619 0.571900
0.576000 0.965619 0.571900
0.702000 0.965619 0.571900
0.828000 0.965619 0.571900
0.925014 0.965619 0.571900
0.967628 0.965619 0.571900
0.072000 0.040600 0.684600
0.198000 0.040600 0.684600
0.324000 0.040600 0.684600
0.450000 0.040600 0.684600
0.576000 0.040600 0.684600
0.702000 0.040600 0.684600
0.828000 0.040600 0.684600
0.925014 0.040600 0.684600
0.967628 0.040600 0.684600
0.072000 0.164275 0.684600
0.198000 0.164275 0.684600
0.324000 0.164275 0.684600
0.450000 0.164275 0.684600
0.576000 0.164275 0.684600
0.702000 0.164275 0.684600
0.828000 0.164275 0.684600
0.925014 0.164275 0.684600
0.967628 0.164275 0.684600
0.072000 0.287950 0.684600
0.198000 0.287950 0.684600
0.324000 0.287950 0.684600
0.450000 0.287950 0.684600
0.576000 0.287950 0.684600
0.702000 0.287950 0.684600
0.828000 0.287950 0.684600
0.925014 0.287950 0.684600
0.967628 0.287950 0.684600
0.072000 0.411625 0.684600
0.198000 0.411625 0.684600
0.324000 0.411625 0.684600
0.450000 0.411625 0.684600
0.576000 0.411625 0.684600
0.702000 0.411625 0.684600
0.828000 0.411625 0.684600
0.925014 0.411625 0.684600
0.967628 0.411625 0.684600
0.072000 0.535300 0.684600
0.198000 0.535300 0.684600
0.324000 0.535300 0.684600
0.450000 0.535300 0.684600
0.576000 0.535300 0.684600
0.702000 0.535300 0.684600
0.828000 0.535300 0.684600
0.925014 0.535300 0.684600
0.967628 0.535300 0.684600
0.072000 0.658975 0.684600
0.198000 0.658975 0.684600
0.324000 0.658975 0.684600
0.450000 0.658975 0.684600
0.576000 0.658975 0.684600
0.702000 0.658975 0.684600
0.828000 0.658975 0.684600
0.925014 0.658975 0.684600
0.967628 0.658975 0.684600
0.072000 0.782650 0.684600
0.198000 0.782650 0.684600
0.324000 0.782650 0.684600
0.450000 0.782650 0.684600
0.576000 0.782650 0.684600
0.702000 0.782650 0.684600
0.828000 0.782650 0.684600
0.925014 0.782650 0.684600
0.967628 0.782650 0.684600
0.072000 0.903638 0.684600
0.198000 0.903638 0.684600
0.324000 0.903638 0.684600
0.450000 0.903638 0.684600
0.576000 0.903638 0.684600
0.702000 0.903638 0.684600
0.828000 0.903638 0.684600
0.925014 0.903638 0.684600
0.967628 0.903638 0.684600
0.072000 0.965619 0.684600
0.198000 0.965619 0.684600
0.324000 0.965619 0.684600
0.450000 0.965619 0.684600
0.576000 0.965619 0.684600
0.702000 0.965619 0.684600
0.828000 0.965619 0.684600
0.925014 0.965619 0.684600
0.967628 0.965619 0.684600
0.072000 0.040600 0.797300
0.198000 0.040600 0.797300
0.324000 0.040600 0.797300
0.450000 0.040600 0.797300
0.576000 0.040600 0.797300
0.702000 0.040600 0.797300
0.828000 0.040600 0.797300
0.925014 0.040600 0.797300
0.967628 0.040600 0.797300
0.072000 0.164275 0.797300
0.198000 0.164275 0.797300
0.324000 0.164275 0.797300
0.450000 0.164275 0.797300
0.576000 0.164275 0.797300
0.702000 0.164275 0.797300
0.828000 0.164275 0.797300
0.925014 0.164275 0.797300
0.967628 0.164275 0.797300
0.072000 0.287950 0.797300
0.198000 0.287950 0.797300
0.324000 0.287950 0.797300
0.450000 0.287950 0.797300
0.576000 0.287950 0.797300
0.702000 0.287950 0.797300
0.828000 0.287950 0.797300
0.925014 0.287950 0.797300
0.967628 0.287950 0.797300
0.072000 0.411625 0.797300
0.198000 0.411625 0.797300
0.324000 0.411625 0.797300
0.450000 0.411625 0.797300
0.576000 0.411625 0.797300
0.702000 0.411625 0.797300
0.828000 0.411625 0.797300
0.925014 0.411625 0.797300
0.967628 0.411625 0.797300
0.072000 0.535300 0.797300
0.198000 0.535300 0.797300
0.324000 0.535300 0.797300
0.450000 0.535300 0.797300
0.576000 0.535300 0.797300
0.702000 0.535300 0.797300
0.828000 0.535300 0.797300
0.925014 0.535300 0.797300
0.967628 0.535300 0.797300
0.072000 0.658975 0.797300
0.198000 0.658975 0.797300
0.324000 0.658975 0.797300
0.450000 0.658975 0.797300
0.576000 0.658975 0.797300
0.702000 0.658975 0.797300
0.828000 0.658975 0.797300
0.925014 0.658975 0.797300
0.967628 0.658975 0.797300
0.072000 0.782650 0.797300
0.198000 0.782650 0.797300
0.324000 0.782650 0.797300
0.450000 0.782650 0.797300
0.576000 0.782650 0.797300
0.702000 0.782650 0.797300
0.828000 0.782650 0.797300
0.925014 0.782650 0.797300
0.967628 0.782650 0.797300
0.072000 0.903638 0.797300
0.198000 0.903638 0.797300
0.324000 0.903638 0.797300
0.450000 0.903638 0.797300
0.576000 0.903638 0.797300
0.702000 0.903638 0.797300
0.828000 0.903638 0.797300
0.925014 0.903638 0.797300
0.967628 0.903638 0.797300
0.072000 0.965619 0.797300
0.198000 0.965619 0.797300
0.324000 0.965619 0.797300
0.450000 0.965619 0.797300
0.576000 0.965619 0.797300
0.702000 0.965619 0.797300
0.828000 0.965619 0.797300
0.925014 0.965619 0.797300
0.967628 0.965619 0.797300
0.072000 0.040600 0.910000
0.198000 0.040600 0.910000
0.324000 0.040600 0.910000
0.450000 0.040600 0.910000
0.576000 0.040600 0.910000
0.702000 0.040600 0.910000
0.828000 0.040600 0.910000
0.925014 0.040600 0.910000
0.967628 0.040600 0.910000
0.072000 0.164275 0.910000
0.198000 0.164275 0.910000
0.324000 0.164275 0.910000
0.450000 0.164275 0.910000
0.576000 0.164275 0.910000
0.702000 0.164275 0.910000
0.828000 0.164275 0.910000
0.925014 0.164275 0.910000
0.967628 0.164275 0.910000
0.072000 0.287950 0.910000
0.198000 0.287950 0.910000
0.324000 0.287950 0.910000
0.450000 0.287950 0.910000
0.576000 0.287950 0.910000
0.702000 0.287950 0.910000
0.828000 0.287950 0.910000
0.925014 0.287950 0.910000
0.967628 0.287950 0.910000
0.072000 0.411625 0.910000
0.198000 0.411625 0.910000
0.324000 0.411625 0.910000
0.450000 0.411625 0.910000
0.576000 0.411625 0.910000
0.702000 0.411625 0.910000
0.828000 0.411625 0.910000
0.925014 0.411625 0.910000
0.967628 0.411625 0.910000
0.072000 0.535300 0.910000
0.198000 0.535300 0.910000
0.324000 0.535300 0.910000
0.450000 0.535300 0.910000
0.576000 0.535300 0.910000
0.702000 0.535300 0.910000
0.828000 0.535300 0.910000
0.925014 0.535300 0.910000
0.967628 0.535300 0.910000
0.072000 0.658975 0.910000
0.198000 0.658975 0.910000
0.324000 0.658975 0.910000
0.450000 0.658975 0.910000
0.576000 0.658975 0.910000
0.702000 0.658975 0.910000
0.828000 0.658975 0.910000
0.925014 0.658975 0.910000
0.967628 0.658975 0.910000
0.072000 0.782650 0.910000
0.198000 0.782650 0.910000
0.324000 0.782650 0.910000
0.450000 0.782650 0.910000
0.576000 0.782650 0.910000
0.702000 0.782650 0.910000
0.828000 0.782650 0.910000
0.925014 0.782650 0.910000
0.967628 0.782650 0.910000
0.072000 0.903638 0.910000
0.198000 0.903638 0.910000
0.324000 0.903638 0.910000
0.450000 0.903638 0.910000
0.576000 0.903638 0.910000
0.702000 0.903638 0.910000
0.828000 0.903638 0.910000
0.925014 0.903638 0.910000
0.967628 0.903638 0.910000
0.072000 0.965619 0.910000
0.198000 0.965619 0.910000
0.324000 0.965619 0.910000
0.450000 0.965619 0.910000
0.576000 0.965619 0.910000
0.702000 0.965619 0.910000
0.828000 0.965619 0.910000
0.925014 0.965619 0.910000
0.967628 0.965619 0.910000
