.claude/skills/youtube-edit/luts/warm_vintage.cube
# Warm Vintage
# Generated for the youtube-edit skill — CC0
LUT_3D_SIZE 5
0.072000 0.040600 0.008400
0.324000 0.040600 0.008400
0.576000 0.040600 0.008400
0.828000 0.040600 0.008400
0.967628 0.040600 0.008400
0.072000 0.287950 0.008400
0.324000 0.287950 0.008400
0.576000 0.287950 0.008400
0.828000 0.287950 0.008400
0.967628 0.287950 0.008400
0.072000 0.535300 0.008400
0.324000 0.535300 0.008400
0.576000 0.535300 0.008400
0.828000 0.535300 0.008400
0.967628 0.535300 0.008400
0.072000 0.782650 0.008400
0.324000 0.782650 0.008400
0.576000 0.782650 0.008400
0.828000 0.782650 0.008400
0.967628 0.782650 0.008400
0.072000 0.965619 0.008400
0.324000 0.965619 0.008400
0.576000 0.965619 0.008400
0.828000 0.965619 0.008400
0.967628 0.965619 0.008400
0.072000 0.040600 0.233800
0.324000 0.040600 0.233800
0.576000 0.040600 0.233800
0.828000 0.040600 0.233800
0.967628 0.040600 0.233800
0.072000 0.287950 0.233800
0.324000 0.287950 0.233800
0.576000 0.287950 0.233800
0.828000 0.287950 0.233800
0.967628 0.287950 0.233800
0.072000 0.535300 0.233800
0.324000 0.535300 0.233800
0.576000 0.535300 0.233800
0.828000 0.535300 0.233800
0.967628 0.535300 0.233800
0.072000 0.782650 0.233800
0.324000 0.782650 0.233800
0.576000 0.782650 0.233800
0.828000 0.782650 0.233800
0.967628 0.782650 0.233800
0.072000 0.965619 0.233800
0.324000 0.965619 0.233800
0.576000 0.965619 0.233800
0.828000 0.965619 0.233800
0.967628 0.965619 0.233800
0.072000 0.040600 0.459200
0.324000 0.040600 0.459200
0.576000 0.040600 0.459200
0.828000 0.040600 0.459200
0.967628 0.040600 0.459200
0.072000 0.287950 0.459200
0.324000 0.287950 0.459200
0.576000 0.287950 0.459200
0.828000 0.287950 0.459200
0.967628 0.287950 0.459200
0.072000 0.535300 0.459200
0.324000 0.535300 0.459200
0.576000 0.535300 0.459200
0.828000 0.535300 0.459200
0.967628 0.535300 0.459200
0.072000 0.782650 0.459200
0.324000 0.782650 0.459200
0.576000 0.782650 0.459200
0.828000 0.782650 0.459200
0.967628 0.782650 0.459200
0.072000 0.965619 0.459200
0.324000 0.965619 0.459200
0.576000 0.965619 0.459200
0.828000 0.965619 0.459200
0.967628 0.965619 0.459200
0.072000 0.040600 0.684600
0.324000 0.040600 0.684600
0.576000 0.040600 0.684600
0.828000 0.040600 0.684600
0.967628 0.040600 0.684600
0.072000 0.287950 0.684600
0.324000 0.287950 0.684600
0.576000 0.287950 0.684600
0.828000 0.287950 0.684600
0.967628 0.287950 0.684600
0.072000 0.535300 0.684600
0.324000 0.535300 0.684600
0.576000 0.535300 0.684600
0.828000 0.535300 0.684600
0.967628 0.535300 0.684600
0.072000 0.782650 0.684600
0.324000 0.782650 0.684600
0.576000 0.782650 0.684600
0.828000 0.782650 0.684600
0.967628 0.782650 0.684600
0.072000 0.965619 0.684600
0.324000 0.965619 0.684600
0.576000 0.965619 0.684600
0.828000 0.965619 0.684600
0.967628 0.965619 0.684600
0.072000 0.040600 0.910000
0.324000 0.040600 0.910000
0.576000 0.040600 0.910000
0.828000 0.040600 0.910000
0.967628 0.040600 0.910000
0.072000 0.287950 0.910000
0.324000 0.287950 0.910000
0.576000 0.287950 0.910000
0.828000 0.287950 0.910000
0.967628 0.287950 0.910000
0.072000 0.535300 0.910000
0.324000 0.535300 0.910000
0.576000 0.535300 0.910000
0.828000 0.535300 0.910000
0.967628 0.535300 0.910000
0.072000 0.782650 0.910000
0.324000 0.782650 0.910000
0.576000 0.782650 0.910000
0.828000 0.782650 0.910000
0.967628 0.782650 0.910000
0.072000 0.965619 0.910000
0.324000 0.965619 0.910000
0.576000 0.965619 0.910000
0.828000 0.965619 0.910000
0.967628 0.965619 0.910000
